; PROGRAM NAME: B12345614
; ORDER       : B123456
; OPER. NAME  : Spiral Rough Rhombic:105
; OPER. DESCR.: spiral roughing rhombic/bandaz_zgr
; OPER. TYPE  : rouRoot
; GEO. OPTION : 4
; MACHINE     : HSTM_500_SIM840D_Py
;             : HSTM500 - HAMUEL: 5-axis milling machine - SIM840D Traori PP_Script
; CONTROL     : SINUMERIK 840D
; created:   2023-06-06 12:03:36.496239
;-------DODATKOWE DANE-------------------
; PROGRAMISTA : Mariusz Malec
; PARTID      : 306T001953P1010_-
;  ap         : 2.5
;  ae         : 24.0
;  lean_angle : 1.0
;  fin_offset : 0.6
;----------------------------------------
;RAPORT("TB123456","Spiral Rough Rhombic:105")
N10 TRAFOOF
N11 D0
N12 G90 G94
N13 G0 G53 D0 Z550 B0
N14 STOPRE
M9 ; chlodziwo wyl
; --- Spiral Rough Rhombic:105 - spiral roughing rhombic/bandaz_zgr ---
N16 ;ToolChange : concat=None ,current_tdmid=None, PP.tdmId=941292
N17 TRAFOOF
N18 G0 G53 D0 X-200 Y150 Z550 B0
N19 T="7741292"
;RAPORT("TB123456","ToolChangeStart 7741292")
N20 M6
;RAPORT("TB123456","ToolChangeEnd")
N21 STOPRE
N22 MSG(" TLID=941292 D=40.0 R=6.0 Ang=0.0 Len=90.0 ")
N23 ; (Preloading tool)
N24 T="7758845"
N25 S2148 M03
N26 STOPRE
N27 CYCLE832(0.1,3,1)
N28 G0 G53 A271.8617 B0.0000
N29 TRAORI
N30 G54 D1
N31 D1 
N32 ; DELTA A > 40.1
N33 TRAFOOF
N34 D1
N35 STOPRE
N36 G00 G54 Z296.000
N37 G01 A271.8617 F10000
N38 TRAORI
N39 G54 D1
N40 STOPRE
N41 TRANS 
N42 G00 X-206.298 Y87.839 Z-35.821 A271.8617 
N43 M3481 ; chlodziwo mgla
N44 X-206.298 Y37.865 Z-37.446 
N45 G01 X-206.298 Y34.768 Z-37.003 F2835 
N46 X-206.298 Y31.959 Z-35.625 
N47 X-206.298 Y29.714 Z-33.446 
N48 X-206.298 Y28.252 Z-30.680 
N49 X-206.298 Y27.716 Z-27.597 
N50 X-206.298 Y27.676 Z-24.959 
N51 X-206.298 Y27.637 Z-22.367 
N52 X-206.298 Y27.599 Z-19.864 
N53 X-206.298 Y27.564 Z-17.488 
N54 X-206.298 Y27.530 Z-15.271 
N55 X-206.298 Y27.500 Z-13.236 
N56 X-206.298 Y27.472 Z-11.398 
N57 X-206.298 Y27.448 Z-9.763 A271.8626 
N58 X-206.298 Y27.447 Z-8.327 A271.9486 
N59 X-206.298 Y27.570 Z-7.078 A272.5551 
N60 X-206.298 Y28.018 Z-5.980 A274.5557 
N61 X-206.298 Y28.874 Z-4.966 A278.3997 
N62 X-206.298 Y30.016 Z-3.950 A283.6800 
N63 X-206.298 Y31.354 Z-2.842 A290.1385 
N64 X-206.298 Y32.833 Z-1.544 A297.7243 
N65 X-206.298 Y34.334 Z0.020 A306.2258 
N66 X-206.298 Y35.696 Z1.854 A315.2541 
N67 X-206.298 Y36.763 Z3.887 A324.3344 
N68 X-206.298 Y37.408 Z5.942 A332.7973 
N69 X-206.298 Y37.623 Z7.869 A340.2971 
N70 X-206.298 Y37.460 Z9.596 A346.8062 
N71 X-206.298 Y36.972 Z11.066 A352.2752 
N72 X-206.298 Y36.206 Z12.216 A356.5688 
N73 X-206.298 Y35.208 Z12.958 A359.3773 
N74 X-206.298 Y34.012 Z13.300 A0.6974 
N75 X-206.298 Y32.627 Z13.374 A0.9866 
N76 X-206.298 Y31.044 Z13.376 A0.9950 
N77 X-206.298 Y29.256 Z13.376 
N78 X-206.298 Y27.266 Z13.376 
N79 X-206.298 Y25.086 Z13.376 
N80 X-206.298 Y22.737 Z13.377 
N81 X-206.298 Y20.247 Z13.377 
N82 X-206.298 Y17.652 Z13.377 
N83 X-206.298 Y14.995 Z13.377 
N84 X-206.298 Y12.321 Z13.377 
N85 X-206.298 Y9.675 Z13.378 
N86 X-206.298 Y7.103 Z13.378 
N87 X-206.298 Y4.645 Z13.378 
N88 X-206.298 Y2.336 Z13.378 
N89 X-206.298 Y0.203 Z13.379 
N90 X-206.298 Y-1.737 Z13.379 
N91 X-206.298 Y-3.473 Z13.379 
N92 X-206.298 Y-5.005 Z13.383 A1.0099 
N93 X-206.298 Y-6.341 Z13.476 A1.4039 
N94 X-206.298 Y-7.505 Z13.867 A3.0789 
N95 X-206.298 Y-8.549 Z14.606 A6.3400 B-0.0001 
N96 X-206.298 Y-9.545 Z15.619 A10.9479 B-0.0015 
N97 X-206.298 Y-10.563 Z16.809 A16.5731 B-0.0081 
N98 X-206.298 Y-11.672 Z18.109 A23.0220 B-0.0212 
N99 X-206.298 Y-12.926 Z19.445 A30.1155 B-0.0330 
N100 X-206.298 Y-14.334 Z20.708 A37.5329 B-0.0301 
N101 X-206.298 Y-15.869 Z21.807 A44.9717 B-0.0105 
N102 X-206.298 Y-17.490 Z22.686 A52.2491 B0.0146 
N103 X-206.298 Y-19.142 Z23.312 A59.2054 B0.0334 
N104 X-206.298 Y-20.767 Z23.674 A65.7112 B0.0413 
N105 X-206.298 Y-22.304 Z23.776 A71.6522 B0.0386 
N106 X-206.298 Y-23.701 Z23.640 A76.9332 B0.0293 
N107 X-206.298 Y-24.920 Z23.294 A81.5001 B0.0185 
N108 X-206.298 Y-25.929 Z22.771 A85.2900 B0.0101 
N109 X-206.298 Y-26.692 Z22.102 A88.1835 B0.0063 
N110 X-206.298 Y-27.190 Z21.318 A90.1072 B0.0087 
N111 X-206.298 Y-27.435 Z20.444 A91.0826 B0.0177 
N112 X-206.298 Y-27.503 Z19.491 A91.3771 B0.0327 
N113 X-206.298 Y-27.504 Z18.469 A91.4109 B0.0534 
N114 X-206.298 Y-27.496 Z17.384 A91.4110 B0.0790 
N115 X-206.298 Y-27.488 Z16.250 B0.1063 
N116 X-206.298 Y-27.480 Z15.082 B0.1306 
N117 X-206.298 Y-27.471 Z13.900 B0.1501 
N118 X-206.298 Y-27.463 Z12.721 B0.1658 
N119 X-206.298 Y-27.454 Z11.565 B0.1796 
N120 X-206.298 Y-27.446 Z10.447 B0.1927 
N121 X-206.297 Y-27.440 Z9.384 A91.4180 B0.2052 
N122 X-206.297 Y-27.457 Z8.386 A91.5189 B0.2180 
N123 X-206.297 Y-27.550 Z7.461 A91.9414 B0.2351 
N124 X-206.297 Y-27.799 Z6.608 A93.0359 B0.2636 
N125 X-206.297 Y-28.284 Z5.810 A95.1755 B0.3121 
N126 X-206.297 Y-29.005 Z5.036 A98.4015 B0.3883 
N127 X-206.296 Y-29.897 Z4.251 A102.4965 B0.4981 
N128 X-206.296 Y-30.925 Z3.411 A107.3689 B0.6471 
N129 X-206.295 Y-32.086 Z2.457 A113.0977 B0.8372 
N130 X-206.294 Y-33.353 Z1.320 A119.7294 B1.0442 
N131 X-206.293 Y-34.583 Z-0.001 A126.8235 B1.1874 
N132 X-206.293 Y-35.737 Z-1.546 A134.4412 B1.1891 
N133 X-206.294 Y-36.640 Z-3.199 A141.8679 B1.0603 
N134 X-206.295 Y-37.288 Z-4.954 A149.2093 B0.8809 
N135 X-206.295 Y-37.641 Z-6.754 A156.3380 B0.7034 
N136 X-206.296 Y-37.663 Z-8.476 A162.8957 B0.5465 
N137 X-206.297 Y-37.362 Z-10.037 A168.7060 B0.4178 
N138 X-206.297 Y-36.768 Z-11.371 A173.6408 B0.3216 
N139 X-206.297 Y-35.913 Z-12.389 A177.4415 B0.2586 
N140 X-206.297 Y-34.834 Z-13.016 A179.8147 B0.2253 
N141 X-206.297 Y-33.560 Z-13.261 A180.7598 B0.2120 
N142 X-206.297 Y-32.092 Z-13.296 A180.8839 B0.2060 
N143 X-206.297 Y-30.422 Z-13.299 A180.8843 B0.2002 
N144 X-206.298 Y-28.547 Z-13.303 B0.1937 
N145 X-206.298 Y-26.476 Z-13.307 B0.1864 
N146 X-206.298 Y-24.222 Z-13.312 B0.1786 
N147 X-206.298 Y-21.810 Z-13.317 B0.1702 
N148 X-206.298 Y-19.272 Z-13.322 B0.1613 
N149 X-206.298 Y-16.647 Z-13.327 B0.1522 
N150 X-206.298 Y-13.977 Z-13.332 B0.1428 
N151 X-206.298 Y-11.310 Z-13.338 B0.1335 
N152 X-206.298 Y-8.690 Z-13.343 B0.1244 
N153 X-206.298 Y-6.162 Z-13.348 B0.1155 
N154 X-206.298 Y-3.763 Z-13.353 B0.1047 
N155 X-206.298 Y-1.524 Z-13.358 A180.8843 B0.0840 
N156 X-206.298 Y0.531 Z-13.362 B0.0582 
N157 X-206.298 Y2.388 Z-13.365 A180.8844 B0.0382 
N158 X-206.298 Y4.040 Z-13.373 A180.9012 B0.0239 
N159 X-206.298 Y5.490 Z-13.419 A181.0844 B0.0139 
N160 X-206.298 Y6.753 Z-13.654 A182.0809 B0.0084 
N161 X-206.298 Y7.866 Z-14.239 A184.6283 B0.0098 
N162 X-206.298 Y8.889 Z-15.110 A188.5454 B0.0191 
N163 X-206.298 Y9.888 Z-16.171 A193.4907 B0.0341 
N164 X-206.298 Y10.928 Z-17.363 A199.2758 B0.0495 
N165 X-206.298 Y12.066 Z-18.627 A205.7461 B0.0561 
N166 X-206.298 Y13.338 Z-19.883 A212.6883 B0.0487 
N167 X-206.298 Y14.774 Z-21.081 A220.0367 B0.0282 
N168 X-206.298 Y16.371 Z-22.143 A227.6149 B0.0013 
N169 X-206.298 Y18.003 Z-22.935 A234.7766 B-0.0181 
N170 X-206.298 Y19.604 Z-23.447 A241.3723 B-0.0232 
N171 X-206.298 Y21.161 Z-23.710 A247.5135 B-0.0176 
N172 X-206.298 Y22.632 Z-23.736 A253.1490 B-0.0092 
N173 X-206.298 Y23.968 Z-23.540 A258.1772 B-0.0033 
N174 X-206.298 Y25.134 Z-23.149 A262.5444 B-0.0007 
N175 X-206.298 Y26.101 Z-22.589 A266.1894 B-0.0000 
N176 X-206.298 Y26.836 Z-21.891 A269.0078 B-0.0000 
N177 X-206.298 Y27.309 Z-21.082 A270.8725 
N178 X-206.298 Y27.520 Z-20.187 A271.7556 
N179 X-206.298 Y27.560 Z-19.218 A271.9817 
N180 X-206.298 Y27.547 Z-18.180 A271.9995 
N181 X-206.298 Y27.527 Z-17.082 
N182 X-206.298 Y27.507 Z-15.938 
N183 X-206.298 Y27.487 Z-14.764 
N184 X-206.298 Y27.466 Z-13.579 
N185 X-206.298 Y27.446 Z-12.402 
N186 X-206.298 Y27.426 Z-11.250 
N187 X-206.298 Y27.406 Z-10.141 A271.9995 
N188 X-206.298 Y27.391 Z-9.089 A272.0110 
N189 X-206.298 Y27.400 Z-8.105 A272.1216 
N190 X-206.298 Y27.486 Z-7.194 A272.5560 
N191 X-206.298 Y27.747 Z-6.352 A273.7370 
N192 X-206.298 Y28.264 Z-5.561 A276.0454 
N193 X-206.298 Y29.015 Z-4.786 A279.4415 
N194 X-206.298 Y29.938 Z-3.989 A283.7158 
N195 X-206.298 Y30.993 Z-3.127 A288.7708 
N196 X-206.298 Y32.156 Z-2.146 A294.5965 
N197 X-206.298 Y33.386 Z-0.993 A301.1737 
N198 X-206.298 Y34.604 Z0.367 A308.3617 
N199 X-206.298 Y35.724 Z1.943 A316.0072 
N200 X-206.298 Y36.649 Z3.709 A323.8944 
N201 X-206.298 Y37.278 Z5.570 A331.6257 
N202 X-206.298 Y37.558 Z7.401 A338.8325 
N203 X-206.298 Y37.495 Z9.117 A345.3518 
N204 X-206.298 Y37.111 Z10.623 A350.9796 
N205 X-206.298 Y36.445 Z11.845 A355.5466 
N206 X-206.298 Y35.539 Z12.702 A358.7853 
N207 X-206.298 Y34.433 Z13.163 A0.5679 
N208 X-206.298 Y33.142 Z13.307 A1.1442 
N209 X-206.298 Y31.660 Z13.314 A1.1938 
N210 X-206.298 Y29.981 Z13.308 
N211 X-206.298 Y28.103 Z13.302 
N212 X-206.298 Y26.035 Z13.295 
N213 X-206.298 Y23.794 Z13.288 
N214 X-206.298 Y21.406 Z13.279 
N215 X-206.298 Y18.902 Z13.271 
N216 X-206.298 Y16.322 Z13.262 
N217 X-206.298 Y13.708 Z13.253 A1.1938 
N218 X-206.298 Y11.105 Z13.248 A1.2076 
N219 X-206.298 Y8.557 Z13.268 A1.3352 
N220 X-206.298 Y6.103 Z13.315 A1.6082 
N221 X-206.298 Y3.781 Z13.354 A1.8913 
N222 X-206.298 Y1.619 Z13.385 A2.1730 
N223 X-206.298 Y-0.363 Z13.404 A2.4352 
N224 X-206.298 Y-2.151 Z13.406 A2.6395 
N225 X-206.298 Y-3.740 Z13.391 A2.7688 B-0.0001 
N226 X-206.298 Y-5.138 Z13.417 A3.0594 B-0.0009 
N227 X-206.298 Y-6.366 Z13.648 A4.2172 B-0.0051 
N228 X-206.298 Y-7.470 Z14.231 A6.9235 B-0.0163 
N229 X-206.298 Y-8.519 Z15.140 A11.1659 B-0.0354 
N230 X-206.299 Y-9.585 Z16.273 A16.6119 B-0.0569 
N231 X-206.299 Y-10.729 Z17.515 A22.8829 B-0.0704 
N232 X-206.299 Y-11.992 Z18.777 A29.7095 B-0.0683 
N233 X-206.299 Y-13.386 Z19.969 A36.8294 B-0.0509 
N234 X-206.298 Y-14.888 Z21.008 A43.9689 B-0.0209 
N235 X-206.298 Y-16.468 Z21.847 A50.9757 B0.0160 
N236 X-206.298 Y-18.084 Z22.455 A57.7237 B0.0507 
N237 X-206.298 Y-19.690 Z22.820 A64.1168 B0.0797 
N238 X-206.298 Y-21.237 Z22.941 A70.0671 B0.1032 
N239 X-206.298 Y-22.671 Z22.827 A75.4635 B0.1217 
N240 X-206.298 Y-23.939 Z22.499 A80.1783 B0.1365 
N241 X-206.298 Y-24.989 Z21.986 A84.0782 B0.1490 
N242 X-206.298 Y-25.774 Z21.323 A87.0045 B0.1607 
N243 X-206.298 Y-26.278 Z20.545 A88.8859 B0.1725 
N244 X-206.298 Y-26.524 Z19.678 A89.7855 B0.1849 
N245 X-206.297 Y-26.602 Z18.737 A90.0338 B0.1984 
N246 X-206.297 Y-26.626 Z17.733 A90.0612 B0.2135 
N247 X-206.297 Y-26.643 Z16.676 A90.0628 B0.2298 
N248 X-206.297 Y-26.661 Z15.579 A90.0629 B0.2468 
N249 X-206.297 Y-26.680 Z14.458 B0.2641 
N250 X-206.297 Y-26.698 Z13.329 B0.2816 
N251 X-206.297 Y-26.716 Z12.212 B0.2989 
N252 X-206.297 Y-26.734 Z11.122 A90.0629 B0.3158 
N253 X-206.297 Y-26.751 Z10.076 A90.0629 B0.3321 
N254 X-206.297 Y-26.772 Z9.086 A90.0838 B0.3476 
N255 X-206.297 Y-26.839 Z8.164 A90.2979 B0.3644 
N256 X-206.297 Y-27.025 Z7.313 A91.0298 B0.3880 
N257 X-206.297 Y-27.390 Z6.530 A92.5550 B0.4260 
N258 X-206.296 Y-27.969 Z5.796 A95.0417 B0.4862 
N259 X-206.296 Y-28.743 Z5.079 A98.4616 B0.5749 
N260 X-206.295 Y-29.678 Z4.342 A102.7018 B0.6971 
N261 X-206.295 Y-30.753 Z3.537 A107.7345 B0.8573 
N262 X-206.294 Y-31.965 Z2.602 A113.6508 B1.0551 
N263 X-206.293 Y-33.265 Z1.478 A120.4009 B1.2586 
N264 X-206.292 Y-34.469 Z0.202 A127.3271 B1.3891 
N265 X-206.292 Y-35.578 Z-1.266 A134.6167 B1.3933 
N266 X-206.293 Y-36.459 Z-2.836 A141.7327 B1.2816 
N267 X-206.294 Y-37.113 Z-4.515 A148.8273 B1.1164 
N268 X-206.294 Y-37.515 Z-6.282 A155.9199 B0.9443 
N269 X-206.295 Y-37.605 Z-8.013 A162.5972 B0.7857 
N270 X-206.296 Y-37.374 Z-9.585 A168.5092 B0.6513 
N271 X-206.296 Y-36.850 Z-10.895 A173.3878 B0.5474 
N272 X-206.296 Y-36.077 Z-11.885 A177.0845 B0.4754 
N273 X-206.296 Y-35.094 Z-12.535 A179.5476 B0.4327 
N274 X-206.297 Y-33.925 Z-12.855 A180.7861 B0.4137 
N275 X-206.297 Y-32.574 Z-12.932 A181.0981 B0.4096 
N276 X-206.297 Y-31.035 Z-12.934 A181.1200 B0.4103 
N277 X-206.297 Y-29.303 Z-12.931 A181.1207 B0.4119 
N278 X-206.297 Y-27.383 Z-12.927 B0.4136 
N279 X-206.297 Y-25.287 Z-12.922 B0.4155 
N280 X-206.297 Y-23.035 Z-12.917 B0.4176 
N281 X-206.297 Y-20.654 Z-12.912 B0.4198 
N282 X-206.297 Y-18.180 Z-12.907 B0.4220 
N283 X-206.297 Y-15.651 Z-12.902 A181.1210 B0.4243 
N284 X-206.297 Y-13.110 Z-12.904 A181.1510 B0.4267 
N285 X-206.297 Y-10.596 Z-12.960 A181.4235 B0.4306 
N286 X-206.296 Y-8.150 Z-13.074 A182.0113 B0.4406 
N287 X-206.296 Y-5.810 Z-13.170 A182.6177 B0.4514 
N288 X-206.297 Y-3.607 Z-13.239 A183.1965 B0.4310 
N289 X-206.297 Y-1.567 Z-13.282 A183.7260 B0.3910 
N290 X-206.297 Y0.294 Z-13.287 A184.1352 B0.3579 
N291 X-206.297 Y1.966 Z-13.255 A184.3951 B0.3323 
N292 X-206.297 Y3.451 Z-13.229 A184.6580 B0.3111 
N293 X-206.297 Y4.767 Z-13.333 A185.4512 B0.2910 
N294 X-206.297 Y5.950 Z-13.712 A187.4262 B0.2697 
N295 X-206.297 Y7.058 Z-14.432 A190.9521 B0.2453 
N296 X-206.297 Y8.167 Z-15.438 A195.9043 B0.2162 
N297 X-206.298 Y9.334 Z-16.591 A201.8110 B0.1818 
N298 X-206.298 Y10.582 Z-17.753 A208.1886 B0.1421 
N299 X-206.298 Y11.918 Z-18.844 A214.7596 B0.0977 
N300 X-206.298 Y13.351 Z-19.827 A221.4604 B0.0489 
N301 X-206.298 Y14.879 Z-20.666 A228.2223 B-0.0016 
N302 X-206.299 Y16.430 Z-21.287 A234.6920 B-0.0436 
N303 X-206.299 Y17.975 Z-21.685 A240.8330 B-0.0736 
N304 X-206.299 Y19.508 Z-21.873 A246.7240 B-0.0944 
N305 X-206.299 Y20.996 Z-21.848 A252.3167 B-0.1078 
N306 X-206.299 Y22.369 Z-21.607 A257.4076 B-0.1153 
N307 X-206.299 Y23.546 Z-21.166 A261.7472 B-0.1177 
N308 X-206.299 Y24.453 Z-20.556 A265.0782 B-0.1151 
N309 X-206.299 Y25.063 Z-19.818 A267.3031 B-0.1063 
N310 X-206.299 Y25.403 Z-18.987 A268.5071 B-0.0919 
N311 X-206.299 Y25.558 Z-18.082 A268.9922 B-0.0741 
N312 X-206.299 Y25.626 Z-17.117 A269.1383 B-0.0557 
N313 X-206.299 Y25.666 Z-16.104 A269.1669 B-0.0383 
N314 X-206.298 Y25.699 Z-15.055 A269.1683 B-0.0230 
N315 X-206.298 Y25.734 Z-13.984 A269.1694 B-0.0110 
N316 X-206.298 Y25.771 Z-12.908 A269.1821 B-0.0038 
N317 X-206.298 Y25.815 Z-11.844 A269.2214 B-0.0009 
N318 X-206.298 Y25.858 Z-10.806 A269.2670 B-0.0001 
N319 X-206.298 Y25.893 Z-9.811 A269.2878 B-0.0000 
N320 X-206.298 Y25.927 Z-8.869 A269.3136 B-0.0000 
N321 X-206.298 Y26.006 Z-7.992 A269.5342 
N322 X-206.298 Y26.205 Z-7.185 A270.2773 
N323 X-206.298 Y26.586 Z-6.444 A271.8247 
N324 X-206.298 Y27.181 Z-5.751 A274.3377 
N325 X-206.298 Y27.975 Z-5.073 A277.7885 
N326 X-206.298 Y28.932 Z-4.372 A282.0693 
N327 X-206.298 Y30.018 Z-3.605 A287.0890 
N328 X-206.298 Y31.196 Z-2.729 A292.7677 
N329 X-206.298 Y32.427 Z-1.701 A299.0622 
N330 X-206.298 Y33.636 Z-0.501 A305.8003 
N331 X-206.298 Y34.749 Z0.869 A312.8048 
N332 X-206.298 Y35.707 Z2.400 A319.9681 
N333 X-206.298 Y36.479 Z4.101 A327.3739 
N334 X-206.298 Y36.989 Z5.905 A334.7653 
N335 X-206.298 Y37.185 Z7.710 A341.8488 
N336 X-206.298 Y37.044 Z9.368 A348.1762 
N337 X-206.298 Y36.592 Z10.733 A353.3160 
N338 X-206.298 Y35.887 Z11.735 A357.0874 
N339 X-206.298 Y34.979 Z12.373 A359.5127 
N340 X-206.298 Y33.894 Z12.690 A0.7419 
N341 X-206.298 Y32.635 Z12.782 A1.1134 
N342 X-206.298 Y31.194 Z12.790 A1.1584 
N343 X-206.298 Y29.566 Z12.786 A1.1611 
N344 X-206.298 Y27.752 Z12.781 
N345 X-206.298 Y25.762 Z12.775 
N346 X-206.298 Y23.614 Z12.769 
N347 X-206.298 Y21.333 Z12.763 
N348 X-206.298 Y18.949 Z12.756 
N349 X-206.298 Y16.499 Z12.749 
N350 X-206.298 Y14.023 Z12.742 A1.1612 
N351 X-206.298 Y11.562 Z12.745 A1.2045 
N352 X-206.298 Y9.153 Z12.827 A1.5949 
N353 X-206.298 Y6.829 Z13.013 A2.5206 
N354 X-206.298 Y4.624 Z13.184 A3.5339 
N355 X-206.298 Y2.566 Z13.311 A4.4881 
N356 X-206.298 Y0.673 Z13.392 A5.3416 B-0.0008 
N357 X-206.298 Y-1.041 Z13.414 A5.9972 B-0.0125 
N358 X-206.299 Y-2.571 Z13.386 A6.4509 B-0.0448 
N359 X-206.299 Y-3.932 Z13.403 A7.0703 B-0.0857 
N360 X-206.299 Y-5.157 Z13.621 A8.5296 B-0.1171 
N361 X-206.299 Y-6.302 Z14.167 A11.4347 B-0.1340 
N362 X-206.299 Y-7.441 Z15.046 A15.9235 B-0.1399 
N363 X-206.299 Y-8.645 Z16.144 A21.6615 B-0.1358 
N364 X-206.299 Y-9.943 Z17.296 A28.0722 B-0.1207 
N365 X-206.299 Y-11.330 Z18.373 A34.6989 B-0.0939 
N366 X-206.299 Y-12.783 Z19.305 A41.2764 B-0.0543 
N367 X-206.298 Y-14.283 Z20.059 A47.6971 B-0.0027 
N368 X-206.298 Y-15.820 Z20.629 A53.9673 B0.0541 
N369 X-206.298 Y-17.382 Z21.005 A60.0867 B0.1098 
N370 X-206.298 Y-18.942 Z21.176 A66.0155 B0.1630 
N371 X-206.297 Y-20.444 Z21.127 A71.5959 B0.2124 
N372 X-206.297 Y-21.798 Z20.857 A76.5456 B0.2567 
N373 X-206.297 Y-22.920 Z20.385 A80.5918 B0.2952 
N374 X-206.297 Y-23.750 Z19.752 A83.5287 B0.3278 
N375 X-206.297 Y-24.285 Z18.998 A85.3442 B0.3549 
N376 X-206.297 Y-24.577 Z18.157 A86.2173 B0.3774 
N377 X-206.297 Y-24.726 Z17.250 A86.5252 B0.3971 
N378 X-206.297 Y-24.820 Z16.294 A86.6052 B0.4160 
N379 X-206.296 Y-24.898 Z15.301 A86.6159 B0.4350 
N380 X-206.296 Y-24.976 Z14.285 A86.6162 B0.4543 
N381 X-206.296 Y-25.057 Z13.261 A86.6257 B0.4739 
N382 X-206.296 Y-25.149 Z12.245 A86.6841 B0.4938 
N383 X-206.296 Y-25.254 Z11.252 A86.8086 B0.5136 
N384 X-206.296 Y-25.354 Z10.295 A86.9371 B0.5323 
N385 X-206.296 Y-25.451 Z9.386 A87.0718 B0.5494 
N386 X-206.296 Y-25.579 Z8.538 A87.3604 B0.5666 
N387 X-206.296 Y-25.801 Z7.757 A88.0755 B0.5891 
N388 X-206.296 Y-26.174 Z7.046 A89.4758 B0.6244 
N389 X-206.295 Y-26.724 Z6.391 A91.6855 B0.6795 
N390 X-206.295 Y-27.450 Z5.769 A94.7285 B0.7599 
N391 X-206.295 Y-28.328 Z5.147 A98.5223 B0.8691 
N392 X-206.294 Y-29.336 Z4.488 A103.0092 B1.0100 
N393 X-206.293 Y-30.461 Z3.748 A108.1903 B1.1846 
N394 X-206.292 Y-31.711 Z2.865 A114.1928 B1.3883 
N395 X-206.292 Y-33.015 Z1.799 A120.8721 B1.5813 
N396 X-206.291 Y-34.167 Z0.624 A127.4035 B1.6939 
N397 X-206.291 Y-35.232 Z-0.723 A134.2355 B1.7039 
N398 X-206.291 Y-36.113 Z-2.183 A141.0092 B1.6184 
N399 X-206.292 Y-36.792 Z-3.749 A147.7676 B1.4753 
N400 X-206.293 Y-37.265 Z-5.443 A154.6999 B1.3113 
N401 X-206.293 Y-37.462 Z-7.167 A161.4699 B1.1486 
N402 X-206.294 Y-37.348 Z-8.771 A167.5958 B1.0016 
N403 X-206.295 Y-36.938 Z-10.117 A172.6638 B0.8815 
N404 X-206.295 Y-36.280 Z-11.114 A176.3972 B0.7943 
N405 X-206.295 Y-35.421 Z-11.767 A178.8490 B0.7383 
N406 X-206.295 Y-34.388 Z-12.136 A180.2487 B0.7074 
N407 X-206.295 Y-33.185 Z-12.304 A180.8980 B0.6942 
N408 X-206.295 Y-31.807 Z-12.356 A181.1106 B0.6912 
N409 X-206.295 Y-30.250 Z-12.360 A181.1453 B0.6923 
N410 X-206.295 Y-28.514 Z-12.356 A181.1459 B0.6942 
N411 X-206.295 Y-26.609 Z-12.351 B0.6963 
N412 X-206.295 Y-24.548 Z-12.346 B0.6985 
N413 X-206.295 Y-22.356 Z-12.341 B0.7009 
N414 X-206.295 Y-20.060 Z-12.335 B0.7034 
N415 X-206.295 Y-17.695 Z-12.329 B0.7059 
N416 X-206.295 Y-15.296 Z-12.323 A181.1475 B0.7085 
N417 X-206.295 Y-12.904 Z-12.338 A181.2381 B0.7109 
N418 X-206.295 Y-10.550 Z-12.476 A181.8813 B0.7139 
N419 X-206.295 Y-8.266 Z-12.737 A183.1823 B0.7258 
N420 X-206.295 Y-6.085 Z-12.967 A184.5598 B0.7398 
N421 X-206.295 Y-4.033 Z-13.140 A185.8744 B0.7028 
N422 X-206.296 Y-2.134 Z-13.248 A187.0455 B0.6363 
N423 X-206.296 Y-0.407 Z-13.261 A187.8927 B0.5831 
N424 X-206.296 Y1.144 Z-13.201 A188.4371 B0.5425 
N425 X-206.296 Y2.532 Z-13.164 A189.0459 B0.5068 
N426 X-206.296 Y3.792 Z-13.301 A190.3618 B0.4688 
N427 X-206.297 Y4.978 Z-13.734 A192.9693 B0.4230 
N428 X-206.297 Y6.159 Z-14.490 A197.1012 B0.3667 
N429 X-206.297 Y7.400 Z-15.478 A202.5231 B0.3001 
N430 X-206.297 Y8.725 Z-16.531 A208.6504 B0.2269 
N431 X-206.298 Y10.117 Z-17.507 A214.9524 B0.1520 
N432 X-206.298 Y11.553 Z-18.340 A221.1706 B0.0785 
N433 X-206.298 Y13.019 Z-19.010 A227.2346 B0.0085 
N434 X-206.299 Y14.508 Z-19.510 A233.1459 B-0.0521 
N435 X-206.299 Y16.033 Z-19.847 A239.0120 B-0.0999 
N436 X-206.299 Y17.581 Z-20.007 A244.8285 B-0.1365 
N437 X-206.299 Y19.093 Z-19.964 A250.4018 B-0.1626 
N438 X-206.299 Y20.468 Z-19.703 A255.3892 B-0.1784 
N439 X-206.299 Y21.609 Z-19.239 A259.4578 B-0.1849 
N440 X-206.299 Y22.454 Z-18.613 A262.4014 B-0.1835 
N441 X-206.299 Y23.005 Z-17.869 A264.2207 B-0.1760 
N442 X-206.299 Y23.320 Z-17.041 A265.1246 B-0.1643 
N443 X-206.299 Y23.493 Z-16.155 A265.4686 B-0.1503 
N444 X-206.299 Y23.602 Z-15.225 A265.5489 B-0.1340 
N445 X-206.299 Y23.695 Z-14.269 A265.5562 B-0.1133 
N446 X-206.299 Y23.791 Z-13.298 A265.5689 B-0.0868 
N447 X-206.299 Y23.898 Z-12.329 A265.6302 B-0.0575 
N448 X-206.298 Y24.027 Z-11.375 A265.7972 B-0.0313 
N449 X-206.298 Y24.161 Z-10.449 A266.0031 B-0.0133 
N450 X-206.298 Y24.265 Z-9.561 A266.1152 B-0.0040 
N451 X-206.298 Y24.352 Z-8.722 A266.1796 B-0.0007 
N452 X-206.298 Y24.483 Z-7.945 A266.4511 B-0.0000 
N453 X-206.298 Y24.748 Z-7.239 A267.3138 B-0.0000 
N454 X-206.298 Y25.206 Z-6.600 A269.0402 
N455 X-206.298 Y25.874 Z-6.008 A271.7253 
N456 X-206.298 Y26.729 Z-5.431 A275.2953 
N457 X-206.298 Y27.724 Z-4.832 A279.5817 
N458 X-206.298 Y28.821 Z-4.176 A284.4652 
N459 X-206.298 Y29.981 Z-3.431 A289.8350 
N460 X-206.298 Y31.178 Z-2.566 A295.6518 
N461 X-206.298 Y32.375 Z-1.552 A301.8752 
N462 X-206.298 Y33.512 Z-0.385 A308.3647 
N463 X-206.298 Y34.534 Z0.927 A314.9900 
N464 X-206.298 Y35.423 Z2.402 A321.8534 
N465 X-206.298 Y36.151 Z4.063 A329.0674 
N466 X-206.298 Y36.632 Z5.836 A336.3430 
N467 X-206.298 Y36.806 Z7.603 A343.3040 
N468 X-206.298 Y36.653 Z9.199 A349.4293 
N469 X-206.298 Y36.207 Z10.470 A354.2484 
N470 X-206.298 Y35.531 Z11.361 A357.6221 
N471 X-206.298 Y34.673 Z11.898 A359.6651 
N472 X-206.298 Y33.652 Z12.159 A0.6696 
N473 X-206.298 Y32.468 Z12.252 A1.0406 
N474 X-206.298 Y31.114 Z12.271 A1.1281 
N475 X-206.298 Y29.584 Z12.270 A1.1371 
N476 X-206.298 Y27.881 Z12.266 A1.1371 
N477 X-206.298 Y26.015 Z12.261 
N478 X-206.298 Y24.000 Z12.256 
N479 X-206.298 Y21.860 Z12.251 
N480 X-206.298 Y19.623 Z12.246 
N481 X-206.298 Y17.322 Z12.240 
N482 X-206.298 Y14.993 Z12.235 
N483 X-206.298 Y12.672 Z12.232 A1.1491 
N484 X-206.298 Y10.393 Z12.293 A1.4339 
N485 X-206.298 Y8.182 Z12.544 A2.6020 
N486 X-206.298 Y6.062 Z12.902 A4.4286 
N487 X-206.298 Y4.058 Z13.208 A6.2839 B-0.0000 
N488 X-206.298 Y2.193 Z13.437 A8.0207 B-0.0041 
N489 X-206.298 Y0.487 Z13.557 A9.4417 B-0.0320 
N490 X-206.299 Y-1.049 Z13.572 A10.4727 B-0.0836 
N491 X-206.299 Y-2.428 Z13.562 A11.3996 B-0.1298 
N492 X-206.299 Y-3.690 Z13.682 A12.8590 B-0.1587 
N493 X-206.299 Y-4.897 Z14.071 A15.5049 B-0.1766 
N494 X-206.299 Y-6.123 Z14.775 A19.6595 B-0.1824 
N495 X-206.299 Y-7.435 Z15.714 A25.1503 B-0.1725 
N496 X-206.299 Y-8.845 Z16.705 A31.3500 B-0.1463 
N497 X-206.299 Y-10.307 Z17.580 A37.5936 B-0.1053 
N498 X-206.299 Y-11.771 Z18.264 A43.5244 B-0.0513 
N499 X-206.298 Y-13.229 Z18.768 A49.1825 B0.0147 
N500 X-206.298 Y-14.719 Z19.128 A54.8099 B0.0884 
N501 X-206.298 Y-16.261 Z19.346 A60.5311 B0.1668 
N502 X-206.297 Y-17.812 Z19.387 A66.1967 B0.2471 
N503 X-206.297 Y-19.263 Z19.212 A71.3890 B0.3236 
N504 X-206.297 Y-20.496 Z18.820 A75.6992 B0.3914 
N505 X-206.296 Y-21.438 Z18.246 A78.8697 B0.4478 
N506 X-206.296 Y-22.078 Z17.537 A80.8702 B0.4926 
N507 X-206.296 Y-22.466 Z16.736 A81.8858 B0.5268 
N508 X-206.296 Y-22.699 Z15.873 A82.2814 B0.5539 
N509 X-206.296 Y-22.861 Z14.972 A82.3798 B0.5776 
N510 X-206.296 Y-23.003 Z14.049 A82.3894 B0.6004 
N511 X-206.296 Y-23.147 Z13.120 A82.4010 B0.6229 
N512 X-206.296 Y-23.301 Z12.199 A82.4608 B0.6449 
N513 X-206.295 Y-23.480 Z11.300 A82.6438 B0.6668 
N514 X-206.295 Y-23.676 Z10.434 A82.9317 B0.6885 
N515 X-206.295 Y-23.866 Z9.609 A83.2309 B0.7085 
N516 X-206.295 Y-24.060 Z8.837 A83.6007 B0.7275 
N517 X-206.295 Y-24.311 Z8.127 A84.2556 B0.7496 
N518 X-206.295 Y-24.684 Z7.489 A85.4812 B0.7823 
N519 X-206.295 Y-25.220 Z6.915 A87.4622 B0.8335 
N520 X-206.294 Y-25.922 Z6.386 A90.2304 B0.9082 
N521 X-206.294 Y-26.776 Z5.874 A93.7331 B1.0092 
N522 X-206.293 Y-27.745 Z5.347 A97.8309 B1.1370 
N523 X-206.293 Y-28.802 Z4.773 A102.4397 B1.2916 
N524 X-206.292 Y-29.938 Z4.119 A107.5629 B1.4730 
N525 X-206.291 Y-31.168 Z3.334 A113.3351 B1.6768 
N526 X-206.290 Y-32.468 Z2.369 A119.7937 B1.8694 
N527 X-206.290 Y-33.592 Z1.322 A125.9238 B1.9854 
N528 X-206.290 Y-34.629 Z0.137 A132.2091 B2.0169 
N529 X-206.290 Y-35.562 Z-1.205 A138.7383 B1.9704 
N530 X-206.290 Y-36.310 Z-2.645 A145.2010 B1.8611 
N531 X-206.291 Y-36.882 Z-4.215 A151.8366 B1.7145 
N532 X-206.292 Y-37.236 Z-5.892 A158.6008 B1.5521 
N533 X-206.292 Y-37.307 Z-7.545 A165.0456 B1.3912 
N534 X-206.293 Y-37.081 Z-9.016 A170.6651 B1.2477 
N535 X-206.293 Y-36.591 Z-10.166 A175.0202 B1.1347 
N536 X-206.294 Y-35.890 Z-10.933 A177.9100 B1.0579 
N537 X-206.294 Y-35.020 Z-11.374 A179.5673 B1.0124 
N538 X-206.294 Y-33.993 Z-11.601 A180.4188 B0.9882 
N539 X-206.294 Y-32.806 Z-11.723 A180.8869 B0.9761 
N540 X-206.294 Y-31.453 Z-11.779 A181.1158 B0.9717 
N541 X-206.294 Y-29.933 Z-11.788 A181.1684 B0.9722 
N542 X-206.294 Y-28.250 Z-11.784 A181.1731 B0.9743 
N543 X-206.294 Y-26.413 Z-11.778 A181.1732 B0.9768 
N544 X-206.294 Y-24.439 Z-11.772 B0.9795 
N545 X-206.294 Y-22.351 Z-11.766 B0.9823 
N546 X-206.294 Y-20.175 Z-11.759 B0.9853 
N547 X-206.294 Y-17.944 Z-11.753 B0.9883 
N548 X-206.294 Y-15.691 Z-11.746 A181.1738 B0.9913 
N549 X-206.294 Y-13.450 Z-11.757 A181.2479 B0.9938 
N550 X-206.294 Y-11.249 Z-11.903 A181.9208 B0.9931 
N551 X-206.294 Y-9.106 Z-12.288 A183.7502 B0.9932 
N552 X-206.294 Y-7.041 Z-12.714 A186.0429 B1.0018 
N553 X-206.294 Y-5.080 Z-13.066 A188.3243 B0.9632 
N554 X-206.295 Y-3.247 Z-13.321 A190.4335 B0.8620 
N555 X-206.295 Y-1.571 Z-13.423 A192.0594 B0.7741 
N556 X-206.295 Y-0.065 Z-13.381 A193.1209 B0.7104 
N557 X-206.296 Y1.294 Z-13.312 A194.0482 B0.6569 
N558 X-206.296 Y2.557 Z-13.385 A195.5553 B0.5998 
N559 X-206.296 Y3.790 Z-13.727 A198.2514 B0.5296 
N560 X-206.296 Y5.061 Z-14.363 A202.3909 B0.4424 
N561 X-206.297 Y6.424 Z-15.203 A207.7584 B0.3409 
N562 X-206.297 Y7.872 Z-16.063 A213.7090 B0.2345 
N563 X-206.298 Y9.341 Z-16.784 A219.5703 B0.1341 
N564 X-206.298 Y10.781 Z-17.314 A225.0523 B0.0450 
N565 X-206.298 Y12.208 Z-17.686 A230.3095 B-0.0327 
N566 X-206.299 Y13.671 Z-17.939 A235.6265 B-0.0975 
N567 X-206.299 Y15.207 Z-18.081 A241.1944 B-0.1511 
N568 X-206.299 Y16.748 Z-18.054 A246.7265 B-0.1921 
N569 X-206.299 Y18.158 Z-17.813 A251.6894 B-0.2180 
N570 X-206.299 Y19.318 Z-17.365 A255.6524 B-0.2289 
N571 X-206.299 Y20.173 Z-16.751 A258.4255 B-0.2271 
N572 X-206.299 Y20.732 Z-16.020 A260.0515 B-0.2160 
N573 X-206.299 Y21.069 Z-15.213 A260.7993 B-0.1989 
N574 X-206.299 Y21.276 Z-14.359 A261.0206 B-0.1787 
N575 X-206.299 Y21.437 Z-13.484 A261.0476 B-0.1571 
N576 X-206.299 Y21.597 Z-12.603 A261.0701 B-0.1345 
N577 X-206.299 Y21.772 Z-11.731 A261.1629 B-0.1091 
N578 X-206.299 Y21.980 Z-10.883 A261.4132 B-0.0798 
N579 X-206.299 Y22.206 Z-10.066 A261.7781 B-0.0489 
N580 X-206.298 Y22.400 Z-9.285 A262.0562 B-0.0232 
N581 X-206.298 Y22.560 Z-8.547 A262.2372 B-0.0081 
N582 X-206.298 Y22.747 Z-7.867 A262.5728 B-0.0021 
N583 X-206.298 Y23.058 Z-7.260 A263.4779 B-0.0004 
N584 X-206.298 Y23.565 Z-6.728 A265.2741 B-0.0000 
N585 X-206.298 Y24.287 Z-6.250 A268.0467 B-0.0000 
N586 X-206.298 Y25.197 Z-5.790 A271.7055 
N587 X-206.298 Y26.238 Z-5.310 A276.0239 
N588 X-206.298 Y27.357 Z-4.779 A280.8096 
N589 X-206.298 Y28.517 Z-4.172 A285.9424 
N590 X-206.298 Y29.688 Z-3.472 A291.3385 
N591 X-206.298 Y30.860 Z-2.656 A297.0202 
N592 X-206.298 Y32.007 Z-1.705 A302.9709 
N593 X-206.298 Y33.088 Z-0.617 A309.1098 
N594 X-206.298 Y34.054 Z0.596 A315.3119 
N595 X-206.298 Y34.926 Z1.985 A321.8715 
N596 X-206.298 Y35.669 Z3.580 A328.9022 
N597 X-206.298 Y36.193 Z5.315 A336.1190 
N598 X-206.298 Y36.426 Z7.068 A343.1028 
N599 X-206.298 Y36.338 Z8.664 A349.2911 
N600 X-206.298 Y35.962 Z9.936 A354.1558 
N601 X-206.298 Y35.364 Z10.816 A357.5040 
N602 X-206.298 Y34.593 Z11.337 A359.4903 
N603 X-206.298 Y33.672 Z11.591 A0.4614 
N604 X-206.298 Y32.600 Z11.705 A0.8993 
N605 X-206.298 Y31.369 Z11.748 A1.0742 
N606 X-206.298 Y29.976 Z11.754 A1.1110 
N607 X-206.298 Y28.422 Z11.752 A1.1131 
N608 X-206.298 Y26.713 Z11.748 A1.1131 
N609 X-206.298 Y24.864 Z11.745 
N610 X-206.298 Y22.893 Z11.741 
N611 X-206.298 Y20.825 Z11.737 
N612 X-206.298 Y18.688 Z11.732 
N613 X-206.298 Y16.515 Z11.728 
N614 X-206.298 Y14.338 Z11.724 
N615 X-206.298 Y12.187 Z11.730 A1.1565 
N616 X-206.298 Y10.090 Z11.852 A1.7053 
N617 X-206.298 Y8.058 Z12.253 A3.5489 
N618 X-206.298 Y6.096 Z12.801 A6.3105 
N619 X-206.298 Y4.222 Z13.301 A9.2219 B-0.0006 
N620 X-206.298 Y2.462 Z13.684 A11.9492 B-0.0143 
N621 X-206.299 Y0.845 Z13.893 A14.1555 B-0.0688 
N622 X-206.299 Y-0.616 Z13.948 A15.8090 B-0.1235 
N623 X-206.299 Y-1.949 Z13.970 A17.3462 B-0.1595 
N624 X-206.299 Y-3.217 Z14.121 A19.4649 B-0.1859 
N625 X-206.299 Y-4.498 Z14.515 A22.7471 B-0.1989 
N626 X-206.299 Y-5.861 Z15.154 A27.3691 B-0.1928 
N627 X-206.299 Y-7.332 Z15.910 A32.9621 B-0.1645 
N628 X-206.299 Y-8.848 Z16.581 A38.7203 B-0.1174 
N629 X-206.299 Y-10.316 Z17.043 A44.0142 B-0.0575 
N630 X-206.298 Y-11.720 Z17.312 A48.8503 B0.0136 
N631 X-206.298 Y-13.144 Z17.477 A53.7278 B0.0970 
N632 X-206.298 Y-14.646 Z17.561 A58.9418 B0.1940 
N633 X-206.297 Y-16.168 Z17.505 A64.2185 B0.2989 
N634 X-206.297 Y-17.561 Z17.246 A68.9428 B0.3996 
N635 X-206.296 Y-18.701 Z16.782 A72.6444 B0.4868 
N636 X-206.296 Y-19.534 Z16.153 A75.1325 B0.5559 
N637 X-206.296 Y-20.081 Z15.408 A76.4890 B0.6062 
N638 X-206.296 Y-20.427 Z14.593 A77.0431 B0.6418 
N639 X-206.295 Y-20.670 Z13.744 A77.1721 B0.6691 
N640 X-206.295 Y-20.883 Z12.888 A77.1853 B0.6938 
N641 X-206.295 Y-21.100 Z12.042 A77.2195 B0.7181 
N642 X-206.295 Y-21.336 Z11.220 A77.3590 B0.7422 
N643 X-206.295 Y-21.612 Z10.438 A77.7063 B0.7680 
N644 X-206.295 Y-21.907 Z9.699 A78.1979 B0.7947 
N645 X-206.295 Y-22.193 Z9.005 A78.7171 B0.8196 
N646 X-206.295 Y-22.490 Z8.365 A79.3597 B0.8447 
N647 X-206.295 Y-22.857 Z7.794 A80.3732 B0.8767 
N648 X-206.294 Y-23.362 Z7.298 A82.0475 B0.9247 
N649 X-206.294 Y-24.035 Z6.864 A84.5182 B0.9959 
N650 X-206.294 Y-24.866 Z6.467 A87.7437 B1.0928 
N651 X-206.293 Y-25.829 Z6.072 A91.6166 B1.2151 
N652 X-206.293 Y-26.879 Z5.650 A95.9572 B1.3604 
N653 X-206.292 Y-27.976 Z5.176 A100.6232 B1.5256 
N654 X-206.291 Y-29.112 Z4.628 A105.6050 B1.7101 
N655 X-206.290 Y-30.299 Z3.974 A111.0008 B1.9118 
N656 X-206.289 Y-31.582 Z3.150 A117.1084 B2.1145 
N657 X-206.289 Y-32.759 Z2.217 A123.1345 B2.2570 
N658 X-206.288 Y-33.753 Z1.232 A128.7379 B2.3168 
N659 X-206.288 Y-34.725 Z0.069 A134.8181 B2.3143 
N660 X-206.289 Y-35.587 Z-1.239 A141.0955 B2.2532 
N661 X-206.289 Y-36.284 Z-2.655 A147.4032 B2.1426 
N662 X-206.290 Y-36.809 Z-4.203 A153.9143 B1.9976 
N663 X-206.290 Y-37.116 Z-5.845 A160.5280 B1.8338 
N664 X-206.291 Y-37.150 Z-7.447 A166.7887 B1.6684 
N665 X-206.292 Y-36.901 Z-8.845 A172.1601 B1.5202 
N666 X-206.292 Y-36.409 Z-9.900 A176.1837 B1.4055 
N667 X-206.293 Y-35.728 Z-10.548 A178.6498 B1.3320 
N668 X-206.293 Y-34.895 Z-10.875 A179.8777 B1.2924 
N669 X-206.293 Y-33.919 Z-11.024 A180.4276 B1.2726 
N670 X-206.293 Y-32.793 Z-11.122 A180.7973 B1.2603 
N671 X-206.293 Y-31.511 Z-11.193 A181.0786 B1.2533 
N672 X-206.293 Y-30.076 Z-11.215 A181.1836 B1.2523 
N673 X-206.293 Y-28.490 Z-11.214 A181.2020 B1.2543 
N674 X-206.293 Y-26.764 Z-11.208 A181.2029 B1.2570 
N675 X-206.293 Y-24.913 Z-11.201 B1.2599 
N676 X-206.293 Y-22.960 Z-11.195 B1.2629 
N677 X-206.293 Y-20.930 Z-11.187 B1.2661 
N678 X-206.293 Y-18.850 Z-11.180 B1.2694 
N679 X-206.293 Y-16.750 Z-11.173 A181.2029 B1.2727 
N680 X-206.293 Y-14.659 Z-11.168 A181.2162 B1.2758 
N681 X-206.293 Y-12.605 Z-11.224 A181.4877 B1.2759 
N682 X-206.293 Y-10.602 Z-11.547 A182.9524 B1.2643 
N683 X-206.293 Y-8.644 Z-12.148 A185.8468 B1.2479 
N684 X-206.293 Y-6.739 Z-12.774 A189.2519 B1.2220 
N685 X-206.294 Y-4.908 Z-13.308 A192.6769 B1.1114 
N686 X-206.294 Y-3.187 Z-13.675 A195.7304 B0.9576 
N687 X-206.295 Y-1.621 Z-13.806 A197.9851 B0.8411 
N688 X-206.295 Y-0.218 Z-13.753 A199.5232 B0.7573 
N689 X-206.295 Y1.079 Z-13.692 A201.0231 B0.6827 
N690 X-206.296 Y2.353 Z-13.800 A203.2938 B0.5970 
N691 X-206.296 Y3.684 Z-14.159 A206.8170 B0.4905 
N692 X-206.297 Y5.119 Z-14.717 A211.5641 B0.3652 
N693 X-206.297 Y6.639 Z-15.311 A216.9670 B0.2345 
N694 X-206.298 Y8.144 Z-15.754 A222.1927 B0.1174 
N695 X-206.298 Y9.557 Z-15.984 A226.8259 B0.0223 
N696 X-206.299 Y10.929 Z-16.079 A231.2296 B-0.0559 
N697 X-206.299 Y12.373 Z-16.126 A236.0022 B-0.1237 
N698 X-206.299 Y13.900 Z-16.098 A241.1841 B-0.1814 
N699 X-206.299 Y15.370 Z-15.904 A246.1301 B-0.2219 
N700 X-206.299 Y16.621 Z-15.506 A250.1931 B-0.2417 
N701 X-206.299 Y17.563 Z-14.927 A253.0307 B-0.2428 
N702 X-206.299 Y18.189 Z-14.218 A254.6140 B-0.2296 
N703 X-206.299 Y18.573 Z-13.432 A255.2354 B-0.2080 
N704 X-206.299 Y18.833 Z-12.613 A255.3516 B-0.1828 
N705 X-206.299 Y19.067 Z-11.798 A255.3753 B-0.1573 
N706 X-206.299 Y19.315 Z-11.004 A255.4786 B-0.1329 
N707 X-206.299 Y19.600 Z-10.248 A255.7774 B-0.1089 
N708 X-206.299 Y19.922 Z-9.537 A256.2944 B-0.0818 
N709 X-206.299 Y20.221 Z-8.863 A256.7891 B-0.0514 
N710 X-206.298 Y20.470 Z-8.227 A257.1428 B-0.0256 
N711 X-206.298 Y20.720 Z-7.645 A257.5748 B-0.0098 
N712 X-206.298 Y21.072 Z-7.141 A258.5058 B-0.0027 
N713 X-206.298 Y21.617 Z-6.724 A260.3289 B-0.0004 
N714 X-206.298 Y22.379 Z-6.375 A263.1520 B-0.0000 
N715 X-206.298 Y23.334 Z-6.054 A266.8757 B-0.0000 
N716 X-206.298 Y24.429 Z-5.718 A271.2716 
N717 X-206.298 Y25.590 Z-5.331 A276.0566 
N718 X-206.298 Y26.773 Z-4.876 A281.0644 
N719 X-206.298 Y27.948 Z-4.340 A286.1996 
N720 X-206.298 Y29.097 Z-3.716 A291.4228 
N721 X-206.298 Y30.228 Z-2.987 A296.8117 
N722 X-206.298 Y31.330 Z-2.138 A302.3979 
N723 X-206.298 Y32.374 Z-1.165 A308.1307 
N724 X-206.298 Y33.311 Z-0.088 A313.8613 
N725 X-206.298 Y34.184 Z1.157 A319.9646 
N726 X-206.298 Y34.983 Z2.631 A326.6935 
N727 X-206.298 Y35.613 Z4.288 A333.7940 
N728 X-206.298 Y35.989 Z6.034 A340.9097 
N729 X-206.298 Y36.055 Z7.694 A347.4535 
N730 X-206.298 Y35.824 Z9.085 A352.8340 
N731 X-206.298 Y35.353 Z10.077 A356.6408 
N732 X-206.298 Y34.707 Z10.681 A358.9504 
N733 X-206.298 Y33.919 Z10.982 A0.0986 
N734 X-206.298 Y32.992 Z11.118 A0.6095 
N735 X-206.298 Y31.919 Z11.195 A0.9063 
N736 X-206.298 Y30.696 Z11.231 A1.0507 
N737 X-206.298 Y29.322 Z11.238 A1.0875 
N738 X-206.298 Y27.801 Z11.237 A1.0923 
N739 X-206.298 Y26.143 Z11.234 A1.0924 
N740 X-206.298 Y24.363 Z11.232 
N741 X-206.298 Y22.482 Z11.228 
N742 X-206.298 Y20.524 Z11.225 
N743 X-206.298 Y18.517 Z11.222 
N744 X-206.298 Y16.489 Z11.219 
N745 X-206.298 Y14.469 Z11.216 
N746 X-206.298 Y12.482 Z11.220 A1.1235 
N747 X-206.298 Y10.550 Z11.328 A1.6038 
N748 X-206.298 Y8.677 Z11.756 A3.5267 
N749 X-206.298 Y6.842 Z12.484 A7.0216 
N750 X-206.298 Y5.036 Z13.258 A11.1598 B-0.0007 
N751 X-206.298 Y3.282 Z13.921 A15.3065 B-0.0140 
N752 X-206.299 Y1.630 Z14.354 A18.8586 B-0.0613 
N753 X-206.299 Y0.120 Z14.544 A21.6141 B-0.1168 
N754 X-206.299 Y-1.265 Z14.589 A23.8704 B-0.1530 
N755 X-206.299 Y-2.593 Z14.651 A26.2970 B-0.1772 
N756 X-206.299 Y-3.954 Z14.857 A29.5388 B-0.1857 
N757 X-206.299 Y-5.411 Z15.225 A33.8400 B-0.1709 
N758 X-206.299 Y-6.951 Z15.631 A38.7994 B-0.1309 
N759 X-206.299 Y-8.455 Z15.883 A43.5302 B-0.0737 
N760 X-206.298 Y-9.835 Z15.917 A47.5638 B-0.0082 
N761 X-206.298 Y-11.167 Z15.835 A51.3933 B0.0697 
N762 X-206.298 Y-12.576 Z15.732 A55.6813 B0.1689 
N763 X-206.297 Y-14.037 Z15.565 A60.2897 B0.2864 
N764 X-206.297 Y-15.392 Z15.240 A64.4957 B0.4044 
N765 X-206.296 Y-16.498 Z14.730 A67.7050 B0.5062 
N766 X-206.296 Y-17.289 Z14.061 A69.6548 B0.5816 
N767 X-206.296 Y-17.809 Z13.290 A70.5121 B0.6301 
N768 X-206.296 Y-18.166 Z12.475 A70.7219 B0.6610 
N769 X-206.295 Y-18.472 Z11.664 A70.7440 B0.6861 
N770 X-206.295 Y-18.776 Z10.884 A70.8077 B0.7108 
N771 X-206.295 Y-19.107 Z10.152 A71.0496 B0.7375 
N772 X-206.295 Y-19.490 Z9.484 A71.6018 B0.7701 
N773 X-206.295 Y-19.894 Z8.874 A72.3441 B0.8058 
N774 X-206.295 Y-20.282 Z8.313 A73.1255 B0.8401 
N775 X-206.295 Y-20.682 Z7.812 A74.0669 B0.8767 
N776 X-206.294 Y-21.159 Z7.387 A75.4393 B0.9244 
N777 X-206.294 Y-21.781 Z7.045 A77.5365 B0.9940 
N778 X-206.294 Y-22.575 Z6.768 A80.4549 B1.0914 
N779 X-206.293 Y-23.518 Z6.521 A84.0863 B1.2154 
N780 X-206.293 Y-24.575 Z6.266 A88.2781 B1.3628 
N781 X-206.292 Y-25.701 Z5.972 A92.8438 B1.5284 
N782 X-206.291 Y-26.844 Z5.618 A97.5834 B1.7065 
N783 X-206.290 Y-27.985 Z5.194 A102.4287 B1.8946 
N784 X-206.289 Y-29.132 Z4.686 A107.4519 B2.0931 
N785 X-206.289 Y-30.333 Z4.054 A112.9057 B2.3000 
N786 X-206.288 Y-31.602 Z3.250 A118.9600 B2.4859 
N787 X-206.287 Y-32.649 Z2.411 A124.3591 B2.5906 
N788 X-206.287 Y-33.567 Z1.512 A129.5252 B2.6276 
N789 X-206.287 Y-34.504 Z0.418 A135.3229 B2.6189 
N790 X-206.287 Y-35.363 Z-0.842 A141.4567 B2.5633 
N791 X-206.288 Y-36.071 Z-2.216 A147.6592 B2.4627 
N792 X-206.288 Y-36.609 Z-3.710 A154.0111 B2.3250 
N793 X-206.289 Y-36.942 Z-5.297 A160.4618 B2.1620 
N794 X-206.290 Y-37.022 Z-6.872 A166.6702 B1.9894 
N795 X-206.291 Y-36.833 Z-8.275 A172.1058 B1.8282 
N796 X-206.291 Y-36.407 Z-9.359 A176.2834 B1.6989 
N797 X-206.291 Y-35.796 Z-10.033 A178.8772 B1.6151 
N798 X-206.292 Y-35.043 Z-10.346 A180.0695 B1.5734 
N799 X-206.292 Y-34.156 Z-10.458 A180.4847 B1.5560 
N800 X-206.292 Y-33.131 Z-10.521 A180.7083 B1.5459 
N801 X-206.292 Y-31.962 Z-10.593 A180.9900 B1.5369 
N802 X-206.292 Y-30.648 Z-10.636 A181.1723 B1.5328 
N803 X-206.292 Y-29.193 Z-10.643 A181.2223 B1.5336 
N804 X-206.292 Y-27.607 Z-10.638 A181.2287 B1.5362 
N805 X-206.292 Y-25.905 Z-10.631 A181.2288 B1.5392 
N806 X-206.292 Y-24.104 Z-10.624 B1.5424 
N807 X-206.292 Y-22.229 Z-10.617 B1.5457 
N808 X-206.292 Y-20.305 Z-10.609 B1.5491 
N809 X-206.292 Y-18.358 Z-10.601 A181.2288 B1.5525 
N810 X-206.292 Y-16.413 Z-10.594 B1.5560 
N811 X-206.292 Y-14.496 Z-10.591 A181.2499 B1.5589 
N812 X-206.292 Y-12.624 Z-10.661 A181.5812 B1.5569 
N813 X-206.292 Y-10.802 Z-11.048 A183.3172 B1.5327 
N814 X-206.292 Y-9.000 Z-11.820 A186.9572 B1.4845 
N815 X-206.292 Y-7.192 Z-12.715 A191.6059 B1.4108 
N816 X-206.293 Y-5.387 Z-13.539 A196.5279 B1.2380 
N817 X-206.294 Y-3.638 Z-14.142 A201.0349 B1.0059 
N818 X-206.295 Y-2.024 Z-14.425 A204.5442 B0.8269 
N819 X-206.295 Y-0.585 Z-14.416 A206.9637 B0.7037 
N820 X-206.296 Y0.739 Z-14.285 A208.9282 B0.6054 
N821 X-206.296 Y2.063 Z-14.233 A211.3541 B0.5009 
N822 X-206.297 Y3.476 Z-14.349 A214.7950 B0.3761 
N823 X-206.297 Y4.987 Z-14.561 A219.0920 B0.2391 
N824 X-206.298 Y6.493 Z-14.687 A223.4432 B0.1144 
N825 X-206.298 Y7.870 Z-14.609 A227.1236 B0.0203 
N826 X-206.299 Y9.161 Z-14.403 A230.4483 B-0.0513 
N827 X-206.299 Y10.506 Z-14.191 A234.1704 B-0.1145 
N828 X-206.299 Y11.938 Z-13.972 A238.4485 B-0.1705 
N829 X-206.299 Y13.300 Z-13.637 A242.5281 B-0.2079 
N830 X-206.299 Y14.420 Z-13.129 A245.6593 B-0.2209 
N831 X-206.299 Y15.204 Z-12.458 A247.4350 B-0.2119 
N832 X-206.299 Y15.701 Z-11.687 A248.0616 B-0.1896 
N833 X-206.299 Y16.059 Z-10.893 A248.1471 B-0.1628 
N834 X-206.299 Y16.396 Z-10.130 A248.2052 B-0.1369 
N835 X-206.299 Y16.757 Z-9.424 A248.4508 B-0.1136 
N836 X-206.299 Y17.170 Z-8.790 A249.0267 B-0.0922 
N837 X-206.299 Y17.596 Z-8.217 A249.7793 B-0.0695 
N838 X-206.299 Y17.965 Z-7.680 A250.4034 B-0.0448 
N839 X-206.298 Y18.301 Z-7.193 A250.9935 B-0.0226 
N840 X-206.298 Y18.695 Z-6.784 A251.9458 B-0.0082 
N841 X-206.298 Y19.257 Z-6.482 A253.7298 B-0.0020 
N842 X-206.298 Y20.038 Z-6.274 A256.5471 B-0.0002 
N843 X-206.298 Y21.020 Z-6.117 A260.2986 B-0.0000 
N844 X-206.298 Y22.156 Z-5.958 A264.7700 B-0.0000 
N845 X-206.298 Y23.377 Z-5.752 A269.6637 
N846 X-206.298 Y24.613 Z-5.474 A274.7067 
N847 X-206.298 Y25.826 Z-5.116 A279.7665 
N848 X-206.298 Y27.000 Z-4.678 A284.7924 
N849 X-206.298 Y28.127 Z-4.157 A289.7834 
N850 X-206.298 Y29.227 Z-3.544 A294.8527 
N851 X-206.298 Y30.308 Z-2.820 A300.0980 
N852 X-206.298 Y31.347 Z-1.980 A305.4856 
N853 X-206.298 Y32.285 Z-1.055 A310.7917 
N854 X-206.298 Y33.156 Z-0.005 A316.2880 
N855 X-206.298 Y34.015 Z1.274 A322.4929 
N856 X-206.298 Y34.778 Z2.773 A329.2626 
N857 X-206.298 Y35.357 Z4.446 A336.3714 
N858 X-206.298 Y35.669 Z6.164 A343.3450 
N859 X-206.298 Y35.676 Z7.743 A349.5699 
N860 X-206.298 Y35.409 Z9.000 A354.4550 
N861 X-206.298 Y34.934 Z9.834 A357.6706 
N862 X-206.298 Y34.309 Z10.295 A359.4386 
N863 X-206.298 Y33.555 Z10.504 A0.2311 
N864 X-206.298 Y32.669 Z10.604 A0.6005 
N865 X-206.298 Y31.646 Z10.677 A0.8773 
N866 X-206.298 Y30.480 Z10.714 A1.0260 
N867 X-206.298 Y29.173 Z10.722 A1.0631 
N868 X-206.298 Y27.730 Z10.721 A1.0680 
N869 X-206.298 Y26.161 Z10.720 A1.0681 
N870 X-206.298 Y24.483 Z10.718 
N871 X-206.298 Y22.716 Z10.716 
N872 X-206.298 Y20.883 Z10.713 
N873 X-206.298 Y19.010 Z10.711 
N874 X-206.298 Y17.123 Z10.709 
N875 X-206.298 Y15.247 Z10.707 
N876 X-206.298 Y13.405 Z10.705 A1.0707 
N877 X-206.298 Y11.613 Z10.742 A1.2364 
N878 X-206.298 Y9.880 Z10.994 A2.3378 
N879 X-206.298 Y8.179 Z11.692 A5.4988 
N880 X-206.298 Y6.451 Z12.712 A10.4518 B-0.0000 
N881 X-206.298 Y4.662 Z13.790 A16.2844 B-0.0040 
N882 X-206.298 Y2.853 Z14.678 A22.0090 B-0.0351 
N883 X-206.299 Y1.125 Z15.219 A26.8220 B-0.0825 
N884 X-206.299 Y-0.457 Z15.419 A30.5340 B-0.1139 
N885 X-206.299 Y-1.898 Z15.378 A33.4108 B-0.1310 
N886 X-206.299 Y-3.279 Z15.255 A36.1078 B-0.1369 
N887 X-206.299 Y-4.699 Z15.170 A39.2749 B-0.1236 
N888 X-206.299 Y-6.164 Z15.098 A42.8823 B-0.0868 
N889 X-206.299 Y-7.555 Z14.893 A46.1758 B-0.0362 
N890 X-206.298 Y-8.802 Z14.518 A48.8060 B0.0183 
N891 X-206.298 Y-10.020 Z14.097 A51.4228 B0.0861 
N892 X-206.298 Y-11.307 Z13.705 A54.5580 B0.1794 
N893 X-206.297 Y-12.586 Z13.277 A57.8376 B0.2890 
N894 X-206.297 Y-13.708 Z12.734 A60.5533 B0.3924 
N895 X-206.296 Y-14.554 Z12.048 A62.1684 B0.4677 
N896 X-206.296 Y-15.143 Z11.263 A62.7524 B0.5102 
N897 X-206.296 Y-15.597 Z10.461 A62.8383 B0.5347 
N898 X-206.296 Y-16.014 Z9.701 A62.8745 B0.5560 
N899 X-206.296 Y-16.439 Z9.011 A63.0793 B0.5807 
N900 X-206.296 Y-16.924 Z8.422 A63.7143 B0.6181 
N901 X-206.295 Y-17.456 Z7.927 A64.7372 B0.6679 
N902 X-206.295 Y-17.971 Z7.493 A65.8598 B0.7195 
N903 X-206.295 Y-18.479 Z7.122 A67.1101 B0.7738 
N904 X-206.295 Y-19.041 Z6.833 A68.7459 B0.8405 
N905 X-206.294 Y-19.736 Z6.642 A71.0984 B0.9336 
N906 X-206.294 Y-20.604 Z6.533 A74.3084 B1.0598 
N907 X-206.293 Y-21.625 Z6.461 A78.2429 B1.2155 
N908 X-206.292 Y-22.754 Z6.378 A82.6907 B1.3931 
N909 X-206.292 Y-23.952 Z6.250 A87.4800 B1.5862 
N910 X-206.291 Y-25.167 Z6.054 A92.4017 B1.7867 
N911 X-206.290 Y-26.354 Z5.780 A97.2892 B1.9885 
N912 X-206.289 Y-27.502 Z5.430 A102.1138 B2.1905 
N913 X-206.288 Y-28.642 Z4.993 A107.0337 B2.3967 
N914 X-206.287 Y-29.853 Z4.426 A112.4344 B2.6096 
N915 X-206.286 Y-31.134 Z3.683 A118.4260 B2.7964 
N916 X-206.286 Y-32.139 Z2.942 A123.4700 B2.8948 
N917 X-206.286 Y-33.007 Z2.164 A128.1714 B2.9315 
N918 X-206.286 Y-33.929 Z1.192 A133.5779 B2.9327 
N919 X-206.286 Y-34.848 Z0.003 A139.6461 B2.8959 
N920 X-206.286 Y-35.645 Z-1.330 A145.9088 B2.8160 
N921 X-206.287 Y-36.268 Z-2.764 A152.1952 B2.6956 
N922 X-206.287 Y-36.691 Z-4.272 A158.4658 B2.5426 
N923 X-206.288 Y-36.886 Z-5.793 A164.5593 B2.3700 
N924 X-206.289 Y-36.834 Z-7.221 A170.1541 B2.1955 
N925 X-206.290 Y-36.547 Z-8.420 A174.8060 B2.0410 
N926 X-206.290 Y-36.065 Z-9.277 A178.1287 B1.9260 
N927 X-206.290 Y-35.434 Z-9.746 A179.9517 B1.8607 
N928 X-206.290 Y-34.676 Z-9.922 A180.6350 B1.8344 
N929 X-206.291 Y-33.790 Z-9.974 A180.8294 B1.8255 
N930 X-206.291 Y-32.770 Z-10.008 A180.9573 B1.8198 
N931 X-206.291 Y-31.613 Z-10.048 A181.1236 B1.8145 
N932 X-206.291 Y-30.319 Z-10.068 A181.2218 B1.8129 
N933 X-206.291 Y-28.897 Z-10.068 A181.2475 B1.8146 
N934 X-206.291 Y-27.358 Z-10.062 A181.2506 B1.8174 
N935 X-206.291 Y-25.718 Z-10.055 A181.2506 B1.8206 
N936 X-206.291 Y-23.998 Z-10.048 B1.8239 
N937 X-206.291 Y-22.221 Z-10.040 B1.8274 
N938 X-206.291 Y-20.412 Z-10.032 A181.2506 B1.8308 
N939 X-206.290 Y-18.594 Z-10.024 B1.8344 
N940 X-206.290 Y-16.792 Z-10.016 B1.8378 
N941 X-206.290 Y-15.024 Z-10.010 A181.2570 B1.8411 
N942 X-206.290 Y-13.306 Z-10.040 A181.4164 B1.8410 
N943 X-206.291 Y-11.639 Z-10.297 A182.5594 B1.8200 
N944 X-206.291 Y-9.987 Z-11.059 A186.0112 B1.7496 
N945 X-206.291 Y-8.270 Z-12.200 A191.5312 B1.6286 
N946 X-206.292 Y-6.429 Z-13.451 A198.2557 B1.4087 
N947 X-206.294 Y-4.506 Z-14.502 A205.0111 B1.0610 
N948 X-206.295 Y-2.636 Z-15.145 A210.7926 B0.7479 
N949 X-206.296 Y-0.963 Z-15.317 A214.9892 B0.5346 
N950 X-206.297 Y0.467 Z-15.101 A217.6405 B0.4020 
N951 X-206.297 Y1.761 Z-14.709 A219.5878 B0.3067 
N952 X-206.297 Y3.080 Z-14.343 A221.8642 B0.2088 
N953 X-206.298 Y4.445 Z-14.007 A224.5813 B0.1077 
N954 X-206.298 Y5.743 Z-13.581 A227.0714 B0.0268 
N955 X-206.298 Y6.913 Z-13.027 A229.0200 B-0.0266 
N956 X-206.299 Y8.045 Z-12.445 A230.9369 B-0.0675 
N957 X-206.299 Y9.228 Z-11.912 A233.3131 B-0.1064 
N958 X-206.299 Y10.405 Z-11.384 A235.8928 B-0.1365 
N959 X-206.299 Y11.429 Z-10.776 A237.9576 B-0.1475 
N960 X-206.299 Y12.179 Z-10.044 A238.9344 B-0.1374 
N961 X-206.299 Y12.728 Z-9.258 A239.1392 B-0.1173 
N962 X-206.299 Y13.203 Z-8.506 A239.1655 B-0.0965 
N963 X-206.299 Y13.669 Z-7.831 A239.3297 B-0.0786 
N964 X-206.299 Y14.184 Z-7.271 A239.9318 B-0.0650 
N965 X-206.299 Y14.736 Z-6.817 A240.9214 B-0.0529 
N966 X-206.299 Y15.243 Z-6.420 A241.9162 B-0.0375 
N967 X-206.298 Y15.728 Z-6.087 A242.9988 B-0.0207 
N968 X-206.298 Y16.286 Z-5.859 A244.5874 B-0.0085 
N969 X-206.298 Y17.021 Z-5.763 A247.1246 B-0.0027 
N970 X-206.298 Y17.965 Z-5.772 A250.6907 B-0.0008 
N971 X-206.298 Y19.086 Z-5.823 A255.0810 B-0.0002 
N972 X-206.298 Y20.335 Z-5.855 A260.0446 B-0.0000 
N973 X-206.298 Y21.642 Z-5.819 A265.2817 B-0.0000 
N974 X-206.298 Y22.943 Z-5.695 A270.5317 
N975 X-206.298 Y24.202 Z-5.479 A275.6765 
N976 X-206.298 Y25.410 Z-5.174 A280.7008 
N977 X-206.298 Y26.567 Z-4.786 A285.6289 
N978 X-206.298 Y27.692 Z-4.306 A290.5739 
N979 X-206.298 Y28.817 Z-3.717 A295.7099 
N980 X-206.298 Y29.924 Z-3.006 A301.0350 
N981 X-206.298 Y30.931 Z-2.213 A306.2201 
N982 X-206.298 Y31.830 Z-1.351 A311.2528 
N983 X-206.298 Y32.725 Z-0.316 A316.7817 
N984 X-206.298 Y33.603 Z0.947 A322.9970 
N985 X-206.298 Y34.368 Z2.402 A329.6313 
N986 X-206.298 Y34.951 Z4.002 A336.4899 
N987 X-206.298 Y35.285 Z5.640 A343.1937 
N988 X-206.298 Y35.340 Z7.158 A349.2182 
N989 X-206.298 Y35.139 Z8.398 A354.0655 
N990 X-206.298 Y34.738 Z9.251 A357.3722 
N991 X-206.298 Y34.192 Z9.741 A359.2635 
N992 X-206.298 Y33.523 Z9.986 A0.1989 
N993 X-206.298 Y32.731 Z10.099 A0.6293 
N994 X-206.298 Y31.809 Z10.163 A0.8736 
N995 X-206.298 Y30.752 Z10.197 A1.0053 
N996 X-206.298 Y29.560 Z10.204 A1.0376 
N997 X-206.298 Y28.237 Z10.203 A1.0389 
N998 X-206.298 Y26.791 Z10.202 
N999 X-206.298 Y25.238 Z10.201 
N1000 X-206.298 Y23.597 Z10.200 
N1001 X-206.298 Y21.888 Z10.199 
N1002 X-206.298 Y20.137 Z10.198 
N1003 X-206.298 Y18.367 Z10.197 
N1004 X-206.298 Y16.603 Z10.195 
N1005 X-206.298 Y14.866 Z10.194 
N1006 X-206.298 Y13.170 Z10.195 A1.0452 
N1007 X-206.298 Y11.528 Z10.244 A1.2575 
N1008 X-206.298 Y9.938 Z10.538 A2.5361 
N1009 X-206.298 Y8.350 Z11.379 A6.3074 
N1010 X-206.298 Y6.649 Z12.709 A12.6495 
N1011 X-206.298 Y4.720 Z14.240 A20.7540 B-0.0052 
N1012 X-206.299 Y2.625 Z15.512 A28.9350 B-0.0412 
N1013 X-206.299 Y0.589 Z16.229 A35.7421 B-0.0648 
N1014 X-206.299 Y-1.213 Z16.389 A40.7041 B-0.0613 
N1015 X-206.299 Y-2.654 Z16.038 A43.4966 B-0.0524 
N1016 X-206.299 Y-3.859 Z15.414 A45.0049 B-0.0449 
N1017 X-206.298 Y-5.042 Z14.758 A46.4963 B-0.0277 
N1018 X-206.298 Y-6.188 Z14.060 A47.8963 B-0.0023 
N1019 X-206.298 Y-7.244 Z13.285 A48.9260 B0.0237 
N1020 X-206.298 Y-8.252 Z12.484 A49.8264 B0.0527 
N1021 X-206.298 Y-9.265 Z11.717 A50.9184 B0.0933 
N1022 X-206.298 Y-10.256 Z10.975 A52.1072 B0.1431 
N1023 X-206.298 Y-11.150 Z10.215 A53.0374 B0.1889 
N1024 X-206.297 Y-11.881 Z9.407 A53.3760 B0.2137 
N1025 X-206.297 Y-12.506 Z8.612 A53.4181 B0.2254 
N1026 X-206.297 Y-13.074 Z7.874 A53.4195 B0.2344 
N1027 X-206.297 Y-13.604 Z7.215 A53.4907 B0.2457 
N1028 X-206.297 Y-14.177 Z6.697 A54.0698 B0.2791 
N1029 X-206.297 Y-14.830 Z6.341 A55.3488 B0.3438 
N1030 X-206.297 Y-15.517 Z6.100 A57.0799 B0.4288 
N1031 X-206.296 Y-16.237 Z5.957 A59.2225 B0.5320 
N1032 X-206.296 Y-17.016 Z5.907 A61.8435 B0.6561 
N1033 X-206.295 Y-17.893 Z5.944 A65.0722 B0.8072 
N1034 X-206.294 Y-18.891 Z6.041 A68.9344 B0.9873 
N1035 X-206.293 Y-19.992 Z6.153 A73.2940 B1.1908 
N1036 X-206.292 Y-21.169 Z6.240 A78.0001 B1.4107 
N1037 X-206.291 Y-22.400 Z6.272 A82.9393 B1.6413 
N1038 X-206.290 Y-23.645 Z6.227 A87.9575 B1.8748 
N1039 X-206.289 Y-24.870 Z6.095 A92.9304 B2.1052 
N1040 X-206.288 Y-26.067 Z5.877 A97.8506 B2.3322 
N1041 X-206.287 Y-27.285 Z5.560 A102.9428 B2.5641 
N1042 X-206.286 Y-28.650 Z5.083 A108.8043 B2.8143 
N1043 X-206.285 Y-30.165 Z4.379 A115.5813 B3.0480 
N1044 X-206.285 Y-31.238 Z3.716 A120.6904 B3.1669 
N1045 X-206.285 Y-32.090 Z3.068 A125.0221 B3.2182 
N1046 X-206.284 Y-32.987 Z2.270 A129.8827 B3.2395 
N1047 X-206.285 Y-33.962 Z1.233 A135.6451 B3.2317 
N1048 X-206.285 Y-34.910 Z-0.028 A142.0305 B3.1843 
N1049 X-206.285 Y-35.708 Z-1.424 A148.5328 B3.0929 
N1050 X-206.286 Y-36.295 Z-2.875 A154.8446 B2.9629 
N1051 X-206.286 Y-36.658 Z-4.323 A160.8405 B2.8048 
N1052 X-206.287 Y-36.793 Z-5.707 A166.3744 B2.6331 
N1053 X-206.288 Y-36.710 Z-6.958 A171.2754 B2.4644 
N1054 X-206.288 Y-36.432 Z-8.007 A175.3521 B2.3145 
N1055 X-206.289 Y-35.986 Z-8.790 A178.3978 B2.1985 
N1056 X-206.289 Y-35.403 Z-9.256 A180.2273 B2.1275 
N1057 X-206.289 Y-34.700 Z-9.446 A180.9826 B2.0980 
N1058 X-206.289 Y-33.874 Z-9.495 A181.1876 B2.0904 
N1059 X-206.289 Y-32.919 Z-9.502 A181.2310 B2.0896 
N1060 X-206.289 Y-31.831 Z-9.502 A181.2525 B2.0903 
N1061 X-206.289 Y-30.611 Z-9.500 A181.2672 B2.0918 
N1062 X-206.289 Y-29.267 Z-9.495 A181.2702 B2.0944 
N1063 X-206.289 Y-27.808 Z-9.488 A181.2702 B2.0974 
N1064 X-206.289 Y-26.253 Z-9.481 B2.1006 
N1065 X-206.289 Y-24.619 Z-9.473 A181.2703 B2.1040 
N1066 X-206.289 Y-22.931 Z-9.465 B2.1075 
N1067 X-206.289 Y-21.212 Z-9.457 B2.1111 
N1068 X-206.289 Y-19.486 Z-9.449 A181.2703 B2.1147 
N1069 X-206.289 Y-17.772 Z-9.441 B2.1182 
N1070 X-206.289 Y-16.090 Z-9.433 A181.2703 B2.1217 
N1071 X-206.289 Y-14.452 Z-9.431 A181.2933 B2.1245 
N1072 X-206.289 Y-12.865 Z-9.496 A181.6048 B2.1199 
N1073 X-206.289 Y-11.313 Z-9.933 A183.5257 B2.0714 
N1074 X-206.290 Y-9.709 Z-11.041 A188.5520 B1.9333 
N1075 X-206.291 Y-7.879 Z-12.671 A196.5092 B1.6728 
N1076 X-206.293 Y-5.671 Z-14.467 A206.4922 B1.1935 
N1077 X-206.296 Y-3.302 Z-15.736 A215.8042 B0.6413 
N1078 X-206.297 Y-1.109 Z-16.266 A223.0489 B0.2437 
N1079 X-206.298 Y0.614 Z-16.073 A227.3998 B0.0278 
N1080 X-206.298 Y1.746 Z-15.274 A228.5687 B-0.0243 
N1081 X-206.298 Y2.664 Z-14.281 A228.6003 B-0.0235 
N1082 X-206.298 Y3.574 Z-13.284 B-0.0213 
N1083 X-206.298 Y4.480 Z-12.292 B-0.0192 
N1084 X-206.298 Y5.374 Z-11.313 B-0.0171 
N1085 X-206.298 Y6.248 Z-10.356 B-0.0151 
N1086 X-206.298 Y7.093 Z-9.431 B-0.0131 
N1087 X-206.298 Y7.899 Z-8.548 B-0.0112 
N1088 X-206.298 Y8.657 Z-7.718 B-0.0094 
N1089 X-206.298 Y9.360 Z-6.948 B-0.0077 
N1090 X-206.298 Y10.001 Z-6.245 B-0.0062 
N1091 X-206.298 Y10.584 Z-5.618 A228.6296 B-0.0051 
N1092 X-206.298 Y11.155 Z-5.111 A228.9635 B-0.0059 
N1093 X-206.298 Y11.795 Z-4.789 A230.0380 B-0.0090 
N1094 X-206.298 Y12.539 Z-4.661 A232.0164 B-0.0110 
N1095 X-206.298 Y13.354 Z-4.667 A234.6519 B-0.0087 
N1096 X-206.298 Y14.228 Z-4.767 A237.7973 B-0.0047 
N1097 X-206.298 Y15.181 Z-4.939 A241.4665 B-0.0020 
N1098 X-206.298 Y16.228 Z-5.154 A245.6431 B-0.0007 
N1099 X-206.298 Y17.373 Z-5.377 A250.2776 B-0.0002 
N1100 X-206.298 Y18.606 Z-5.569 A255.2762 B-0.0000 
N1101 X-206.298 Y19.894 Z-5.694 A260.4891 B-0.0000 
N1102 X-206.298 Y21.210 Z-5.730 A265.8080 
N1103 X-206.298 Y22.531 Z-5.664 A271.1602 
N1104 X-206.298 Y23.840 Z-5.491 A276.5073 
N1105 X-206.298 Y25.146 Z-5.204 A281.9293 
N1106 X-206.298 Y26.507 Z-4.773 A287.7180 
N1107 X-206.298 Y27.916 Z-4.169 A293.9369 
N1108 X-206.298 Y29.193 Z-3.449 A299.8868 
N1109 X-206.298 Y30.245 Z-2.699 A305.1226 
N1110 X-206.298 Y31.209 Z-1.860 A310.3042 
N1111 X-206.298 Y32.178 Z-0.836 A316.0160 
N1112 X-206.298 Y33.113 Z0.398 A322.2911 
N1113 X-206.298 Y33.912 Z1.777 A328.7416 
N1114 X-206.298 Y34.504 Z3.205 A334.9840 
N1115 X-206.298 Y34.867 Z4.605 A340.7971 
N1116 X-206.298 Y35.007 Z5.906 A346.0153 
N1117 X-206.298 Y34.943 Z7.060 A350.5345 
N1118 X-206.298 Y34.700 Z8.035 A354.3072 
N1119 X-206.298 Y34.301 Z8.806 A357.2846 
N1120 X-206.298 Y33.764 Z9.331 A359.3174 
N1121 X-206.298 Y33.102 Z9.595 A0.3365 
N1122 X-206.298 Y32.317 Z9.684 A0.6754 
N1123 X-206.298 Y31.405 Z9.707 A0.7512 
N1124 X-206.298 Y30.360 Z9.713 A0.7585 
N1125 X-206.298 Y29.183 Z9.718 A0.7585 
N1126 X-206.298 Y27.879 Z9.724 
N1127 X-206.298 Y26.459 Z9.730 
N1128 X-206.298 Y24.937 Z9.736 
N1129 X-206.298 Y23.333 Z9.743 
N1130 X-206.298 Y21.669 Z9.750 
N1131 X-206.298 Y19.968 Z9.757 
N1132 X-206.298 Y18.254 Z9.765 
N1133 X-206.298 Y16.549 Z9.772 
N1134 X-206.298 Y14.871 Z9.779 
N1135 X-206.298 Y13.236 Z9.787 A0.7634 
N1136 X-206.298 Y11.650 Z9.838 A0.9501 
N1137 X-206.298 Y10.112 Z10.126 A2.1670 
N1138 X-206.298 Y8.566 Z11.028 A6.1410 
N1139 X-206.298 Y6.851 Z12.574 A13.3849 
N1140 X-206.298 Y4.763 Z14.461 A23.2214 B-0.0044 
N1141 X-206.298 Y2.395 Z15.994 A33.1855 B-0.0356 
N1142 X-206.299 Y0.135 Z16.747 A41.0954 B-0.0414 
N1143 X-206.298 Y-1.736 Z16.765 A46.3312 B-0.0159 
N1144 X-206.298 Y-2.973 Z16.083 A48.0690 B0.0009 
N1145 X-206.298 Y-3.906 Z15.115 A48.1727 B0.0029 
N1146 X-206.298 Y-4.821 Z14.128 A48.1727 B0.0034 
N1147 X-206.298 Y-5.735 Z13.143 B0.0040 
N1148 X-206.298 Y-6.640 Z12.166 B0.0046 
N1149 X-206.298 Y-7.530 Z11.206 B0.0052 
N1150 X-206.298 Y-8.394 Z10.273 B0.0058 
N1151 X-206.298 Y-9.224 Z9.378 B0.0063 
N1152 X-206.298 Y-10.009 Z8.531 B0.0068 
N1153 X-206.298 Y-10.742 Z7.740 B0.0073 
N1154 X-206.298 Y-11.416 Z7.014 A48.1735 B0.0078 
N1155 X-206.298 Y-12.031 Z6.360 A48.2023 B0.0095 
N1156 X-206.298 Y-12.643 Z5.835 A48.5869 B0.0285 
N1157 X-206.298 Y-13.341 Z5.510 A49.8150 B0.0896 
N1158 X-206.298 Y-14.107 Z5.350 A51.7693 B0.1880 
N1159 X-206.297 Y-14.928 Z5.318 A54.3166 B0.3167 
N1160 X-206.296 Y-15.804 Z5.384 A57.3795 B0.4707 
N1161 X-206.296 Y-16.740 Z5.519 A60.8933 B0.6460 
N1162 X-206.295 Y-17.751 Z5.699 A64.8631 B0.8431 
N1163 X-206.294 Y-18.841 Z5.893 A69.2271 B1.0599 
N1164 X-206.293 Y-19.995 Z6.066 A73.8831 B1.2916 
N1165 X-206.292 Y-21.203 Z6.192 A78.7595 B1.5342 
N1166 X-206.291 Y-22.438 Z6.246 A83.7433 B1.7812 
N1167 X-206.290 Y-23.668 Z6.215 A88.7153 B2.0262 
N1168 X-206.289 Y-24.882 Z6.097 A93.6496 B2.2678 
N1169 X-206.288 Y-26.122 Z5.881 A98.7480 B2.5145 
N1170 X-206.286 Y-27.558 Z5.508 A104.7655 B2.7910 
N1171 X-206.285 Y-29.376 Z4.821 A112.6566 B3.0884 
N1172 X-206.284 Y-30.639 Z4.145 A118.4690 B3.2444 
N1173 X-206.284 Y-31.509 Z3.553 A122.7316 B3.3102 
N1174 X-206.284 Y-32.371 Z2.863 A127.2040 B3.3443 
N1175 X-206.284 Y-33.319 Z1.968 A132.4837 B3.3544 
N1176 X-206.284 Y-34.308 Z0.826 A138.6056 B3.3308 
N1177 X-206.284 Y-35.220 Z-0.518 A145.1843 B3.2631 
N1178 X-206.285 Y-35.945 Z-1.963 A151.7231 B3.1516 
N1179 X-206.285 Y-36.441 Z-3.420 A157.9304 B3.0056 
N1180 X-206.286 Y-36.702 Z-4.819 A163.6340 B2.8394 
N1181 X-206.287 Y-36.741 Z-6.094 A168.6859 B2.6697 
N1182 X-206.288 Y-36.580 Z-7.196 A172.9815 B2.5114 
N1183 X-206.288 Y-36.249 Z-8.091 A176.4524 B2.3763 
N1184 X-206.289 Y-35.771 Z-8.737 A178.9668 B2.2756 
N1185 X-206.289 Y-35.164 Z-9.093 A180.3609 B2.2185 
N1186 X-206.289 Y-34.438 Z-9.219 A180.8564 B2.1974 
N1187 X-206.289 Y-33.588 Z-9.248 A180.9677 B2.1922 
N1188 X-206.289 Y-32.607 Z-9.252 A180.9824 B2.1911 
N1189 X-206.289 Y-31.493 Z-9.252 A180.9826 B2.1906 
N1190 X-206.289 Y-30.249 Z-9.253 B2.1900 
N1191 X-206.289 Y-28.883 Z-9.253 B2.1893 
N1192 X-206.289 Y-27.407 Z-9.254 B2.1886 
N1193 X-206.289 Y-25.839 Z-9.254 B2.1878 
N1194 X-206.289 Y-24.201 Z-9.255 B2.1870 
N1195 X-206.289 Y-22.515 Z-9.255 B2.1862 
N1196 X-206.289 Y-20.805 Z-9.256 B2.1854 
N1197 X-206.289 Y-19.095 Z-9.256 B2.1846 
N1198 X-206.289 Y-17.406 Z-9.257 B2.1838 
N1199 X-206.289 Y-15.754 Z-9.257 A180.9829 B2.1829 
N1200 X-206.289 Y-14.153 Z-9.267 A181.0225 B2.1811 
N1201 X-206.289 Y-12.606 Z-9.372 A181.4662 B2.1689 
N1202 X-206.289 Y-11.094 Z-9.916 A183.8274 B2.1031 
N1203 X-206.290 Y-9.515 Z-11.122 A189.2976 B1.9442 
N1204 X-206.291 Y-7.694 Z-12.802 A197.5405 B1.6555 
N1205 X-206.293 Y-5.508 Z-14.566 A207.4725 B1.1524 
N1206 X-206.296 Y-3.218 Z-15.749 A216.3966 B0.6151 
N1207 X-206.297 Y-1.133 Z-16.215 A223.2025 B0.2382 
N1208 X-206.298 Y0.492 Z-15.997 A227.1990 B0.0374 
N1209 X-206.298 Y1.573 Z-15.220 A228.2496 B-0.0108 
N1210 X-206.298 Y2.469 Z-14.264 A228.2867 B-0.0115 
N1211 X-206.298 Y3.363 Z-13.295 B-0.0105 
N1212 X-206.298 Y4.263 Z-12.321 B-0.0095 
N1213 X-206.298 Y5.165 Z-11.343 B-0.0086 
N1214 X-206.298 Y11.949 Z-3.996 
N1215 G00 X-206.306 Y49.273 Z-37.266 
;RAPORT("TB123456","Spiral Rough Rhombic:105 End")
;trailer : concat=None
; points cnt = 1170
N1217 MSG (" --- GROUPED OF SUBPROGRAM --- ")
N1218 FGROUP()
N1219 TRAFOOF
; PROGRAM NAME: B12345614
; ORDER       : B123456
; OPER. NAME  : Spiral Finish Rhombic:106
; OPER. DESCR.: Spiral Finish rhombic shroud
; OPER. TYPE  : rhombMillFinish
; GEO. OPTION : 2
; MACHINE     : HSTM_500_SIM840D_Py
;             : HSTM500 - HAMUEL: 5-axis milling machine - SIM840D Traori PP_Script
; CONTROL     : SINUMERIK 840D
; created:   2023-06-06 12:03:41.085614
;-------DODATKOWE DANE-------------------
; PROGRAMISTA : Mariusz Malec
; PARTID      : 306T001953P1010_-
;  ae         : 24.0
;  lean_angle : 1.0
;  pln_offset : 0.25
;----------------------------------------
;RAPORT("TB123456","Spiral Finish Rhombic:106")
N10 TRAFOOF
N11 D0
N12 G90 G94
N13 G0 G53 D0 Z550 B0
N14 STOPRE
M9 ; chlodziwo wyl
; --- Spiral Finish Rhombic:106 - Spiral Finish rhombic shroud ---
N16 ;ToolChange : concat=None ,current_tdmid=None, PP.tdmId=941292
N17 TRAFOOF
N18 G0 G53 D0 Z550 B0
N19 STOPRE
N20 MSG(" TLID=941292 D=40.0 R=6.0 Ang=0.0 Len=90.0 ")
N21 S2148 M03
N22 STOPRE
N23 CYCLE832(0.01,1,1)
N24 G0 G53 A1.0000 B0.0000
N25 TRAORI
N26 G54 D1
N27 D1 
N28 X-206.298 Y55.029 Z58.607 A1.0000 
N29 M348 ; chlodziwo mgla
N30 X-206.298 Y55.902 Z8.614 
N31 G01 X-206.298 Y45.902 Z8.614 F800 
N32 X-206.298 Y40.902 Z8.614 
N33 X-206.298 Y40.635 Z8.614 
N34 X-206.298 Y40.368 Z8.614 
N35 X-206.298 Y40.102 Z8.614 
N36 X-206.298 Y39.835 Z8.614 
N37 X-206.298 Y39.568 Z8.614 
N38 X-206.298 Y39.302 Z8.614 
N39 X-206.298 Y39.035 Z8.614 
N40 X-206.298 Y38.768 Z8.614 
N41 X-206.298 Y38.502 Z8.614 
N42 X-206.298 Y38.235 Z8.614 
N43 X-206.298 Y37.968 Z8.614 
N44 X-206.298 Y37.702 Z8.614 
N45 X-206.298 Y37.435 Z8.614 
N46 X-206.298 Y37.168 Z8.614 
N47 X-206.298 Y36.902 Z8.614 
N48 X-206.298 Y36.635 Z8.614 
N49 X-206.298 Y36.368 Z8.614 
N50 X-206.298 Y36.102 Z8.614 
N51 X-206.298 Y35.835 Z8.614 
N52 X-206.298 Y35.568 Z8.614 
N53 X-206.298 Y35.302 Z8.614 
N54 X-206.298 Y35.035 Z8.614 
N55 X-206.298 Y34.768 Z8.614 
N56 X-206.298 Y34.502 Z8.614 
N57 X-206.298 Y34.235 Z8.614 
N58 X-206.298 Y33.968 Z8.614 
N59 X-206.298 Y33.702 Z8.614 
N60 X-206.298 Y33.435 Z8.614 
N61 X-206.298 Y33.168 Z8.614 
N62 X-206.298 Y32.902 Z8.614 
N63 X-206.298 Y32.635 Z8.614 
N64 X-206.298 Y32.368 Z8.614 
N65 X-206.298 Y32.102 Z8.614 
N66 X-206.298 Y31.835 Z8.614 
N67 X-206.298 Y31.568 Z8.614 
N68 X-206.298 Y31.302 Z8.614 
N69 X-206.298 Y31.035 Z8.614 
N70 X-206.298 Y30.768 Z8.614 
N71 X-206.298 Y30.502 Z8.614 
N72 X-206.298 Y30.235 Z8.614 
N73 X-206.298 Y29.968 Z8.614 
N74 X-206.298 Y29.702 Z8.614 
N75 X-206.298 Y29.435 Z8.614 
N76 X-206.298 Y29.168 Z8.614 
N77 X-206.298 Y28.902 Z8.614 
N78 X-206.298 Y28.635 Z8.614 
N79 X-206.298 Y28.368 Z8.614 
N80 X-206.298 Y28.102 Z8.614 
N81 X-206.298 Y27.835 Z8.614 
N82 X-206.298 Y27.568 Z8.614 
N83 X-206.298 Y27.302 Z8.614 
N84 X-206.298 Y27.035 Z8.614 
N85 X-206.298 Y26.768 Z8.614 
N86 X-206.298 Y26.502 Z8.614 
N87 X-206.298 Y26.235 Z8.614 
N88 X-206.298 Y25.968 Z8.614 
N89 X-206.298 Y25.702 Z8.614 
N90 X-206.298 Y25.435 Z8.614 
N91 X-206.298 Y25.168 Z8.614 
N92 X-206.298 Y24.902 Z8.614 
N93 X-206.298 Y24.635 Z8.614 
N94 X-206.298 Y24.368 Z8.614 
N95 X-206.298 Y24.102 Z8.614 
N96 X-206.298 Y23.835 Z8.614 
N97 X-206.298 Y23.568 Z8.614 
N98 X-206.298 Y23.302 Z8.614 
N99 X-206.298 Y23.035 Z8.614 
N100 X-206.298 Y22.768 Z8.614 
N101 X-206.298 Y22.502 Z8.614 
N102 X-206.298 Y22.235 Z8.614 
N103 X-206.298 Y21.968 Z8.614 
N104 X-206.298 Y21.702 Z8.614 
N105 X-206.298 Y21.435 Z8.614 
N106 X-206.298 Y21.168 Z8.614 
N107 X-206.298 Y20.902 Z8.614 
N108 X-206.298 Y-7.812 Z8.614 
N109 X-206.298 Y-8.079 Z8.614 
N110 X-206.298 Y-8.345 Z8.614 
N111 X-206.298 Y-8.612 Z8.614 
N112 X-206.298 Y-8.879 Z8.614 
N113 X-206.298 Y-9.145 Z8.614 
N114 X-206.298 Y-9.412 Z8.614 
N115 X-206.298 Y-9.679 Z8.614 
N116 X-206.298 Y-9.945 Z8.614 
N117 X-206.298 Y-10.212 Z8.614 
N118 X-206.298 Y-10.479 Z8.614 
N119 X-206.298 Y-10.745 Z8.614 
N120 X-206.298 Y-11.012 Z8.614 
N121 X-206.298 Y-11.279 Z8.614 
N122 X-206.298 Y-11.545 Z8.614 
N123 X-206.298 Y-11.812 Z8.614 
N124 X-206.298 Y-12.079 Z8.614 
N125 X-206.298 Y-12.345 Z8.614 
N126 X-206.298 Y-12.612 Z8.614 
N127 X-206.298 Y-12.879 Z8.614 
N128 X-206.298 Y-13.145 Z8.614 
N129 X-206.298 Y-13.412 Z8.614 
N130 X-206.298 Y-13.679 Z8.614 
N131 X-206.298 Y-13.945 Z8.614 
N132 X-206.298 Y-14.212 Z8.614 
N133 X-206.298 Y-14.479 Z8.614 
N134 X-206.298 Y-14.745 Z8.614 
N135 X-206.298 Y-15.012 Z8.614 
N136 X-206.298 Y-15.279 Z8.614 
N137 X-206.298 Y-15.545 Z8.614 
N138 X-206.298 Y-15.812 Z8.614 
N139 X-206.298 Y-16.079 Z8.614 
N140 X-206.298 Y-16.345 Z8.614 
N141 X-206.298 Y-16.612 Z8.614 
N142 X-206.298 Y-16.879 Z8.614 
N143 X-206.298 Y-17.145 Z8.614 
N144 X-206.298 Y-17.412 Z8.614 
N145 X-206.298 Y-17.679 Z8.614 
N146 X-206.298 Y-17.945 Z8.614 
N147 X-206.298 Y-18.212 Z8.614 
N148 X-206.298 Y-18.479 Z8.614 
N149 X-206.298 Y-18.745 Z8.614 
N150 X-206.298 Y-19.012 Z8.614 
N151 X-206.298 Y-19.279 Z8.614 
N152 X-206.298 Y-19.545 Z8.614 
N153 X-206.298 Y-19.812 Z8.614 
N154 X-206.298 Y-20.079 Z8.614 
N155 X-206.298 Y-20.345 Z8.614 
N156 X-206.298 Y-20.612 Z8.614 
N157 X-206.298 Y-20.879 Z8.614 
N158 X-206.298 Y-21.145 Z8.614 
N159 X-206.298 Y-21.412 Z8.614 
N160 X-206.298 Y-21.679 Z8.614 
N161 X-206.298 Y-21.945 Z8.614 
N162 X-206.298 Y-22.212 Z8.614 
N163 X-206.298 Y-22.479 Z8.614 
N164 X-206.298 Y-22.745 Z8.614 
N165 X-206.298 Y-23.012 Z8.614 
N166 X-206.298 Y-23.279 Z8.614 
N167 X-206.298 Y-23.545 Z8.614 
N168 X-206.298 Y-23.812 Z8.614 
N169 X-206.298 Y-24.079 Z8.614 
N170 X-206.298 Y-24.345 Z8.614 
N171 X-206.298 Y-24.612 Z8.614 
N172 X-206.298 Y-24.879 Z8.614 
N173 X-206.298 Y-25.145 Z8.614 
N174 X-206.298 Y-25.412 Z8.614 
N175 X-206.298 Y-25.679 Z8.614 
N176 X-206.298 Y-25.945 Z8.614 
N177 X-206.298 Y-26.212 Z8.614 
N178 X-206.298 Y-26.479 Z8.614 
N179 X-206.298 Y-26.745 Z8.614 
N180 X-206.298 Y-27.012 Z8.614 
N181 X-206.298 Y-27.279 Z8.614 
N182 X-206.298 Y-27.545 Z8.614 
N183 X-206.298 Y-27.812 Z8.614 
N184 X-206.298 Y-27.987 Z18.613 
N185 G00 X-206.298 Y-28.859 Z68.605 
N186 ; DELTA A > 40.1
N187 TRAFOOF
N188 D1
N189 STOPRE
N190 G00 G54 Z296.000
N191 G01 A48.0000 F10000
N192 TRAORI
N193 G54 D1
N194 STOPRE
N195 TRANS 
N196 G00 X-206.298 Y-35.746 Z66.964 A48.0000 
N197 X-206.298 Y1.412 Z33.507 
N198 G01 X-206.298 Y8.843 Z26.816 F800 
N199 X-206.298 Y5.433 Z23.159 
N200 X-206.298 Y5.251 Z22.964 
N201 X-206.298 Y5.069 Z22.769 
N202 X-206.298 Y4.887 Z22.574 
N203 X-206.298 Y4.706 Z22.379 
N204 X-206.298 Y4.524 Z22.184 
N205 X-206.298 Y4.342 Z21.989 
N206 X-206.298 Y4.160 Z21.794 
N207 X-206.298 Y3.978 Z21.599 
N208 X-206.298 Y3.796 Z21.404 
N209 X-206.298 Y3.614 Z21.209 
N210 X-206.298 Y3.433 Z21.014 
N211 X-206.298 Y3.251 Z20.819 
N212 X-206.298 Y3.069 Z20.624 
N213 X-206.298 Y2.887 Z20.429 
N214 X-206.298 Y2.705 Z20.234 
N215 X-206.298 Y2.523 Z20.039 
N216 X-206.298 Y2.341 Z19.844 
N217 X-206.298 Y2.160 Z19.649 
N218 X-206.298 Y1.978 Z19.454 
N219 X-206.298 Y1.796 Z19.259 
N220 X-206.298 Y1.614 Z19.063 
N221 X-206.298 Y1.432 Z18.868 
N222 X-206.298 Y1.250 Z18.673 
N223 X-206.298 Y1.068 Z18.478 
N224 X-206.298 Y0.886 Z18.283 
N225 X-206.298 Y0.705 Z18.088 
N226 X-206.298 Y0.523 Z17.893 
N227 X-206.298 Y0.341 Z17.698 
N228 X-206.298 Y0.159 Z17.503 
N229 X-206.298 Y-0.023 Z17.308 
N230 X-206.298 Y-0.205 Z17.113 
N231 X-206.298 Y-0.387 Z16.918 
N232 X-206.298 Y-0.568 Z16.723 
N233 X-206.298 Y-0.750 Z16.528 
N234 X-206.298 Y-0.932 Z16.333 
N235 X-206.298 Y-1.114 Z16.138 
N236 X-206.298 Y-1.296 Z15.943 
N237 X-206.298 Y-1.478 Z15.748 
N238 X-206.298 Y-1.660 Z15.553 
N239 X-206.298 Y-1.842 Z15.358 
N240 X-206.298 Y-2.023 Z15.163 
N241 X-206.298 Y-2.205 Z14.968 
N242 X-206.298 Y-2.387 Z14.773 
N243 X-206.298 Y-2.569 Z14.578 
N244 X-206.298 Y-2.751 Z14.383 
N245 X-206.298 Y-2.933 Z14.188 
N246 X-206.298 Y-3.115 Z13.993 
N247 X-206.298 Y-3.296 Z13.798 
N248 X-206.298 Y-3.478 Z13.603 
N249 X-206.298 Y-3.660 Z13.408 
N250 X-206.298 Y-3.842 Z13.213 
N251 X-206.298 Y-4.024 Z13.018 
N252 X-206.298 Y-4.206 Z12.823 
N253 X-206.298 Y-4.388 Z12.628 
N254 X-206.298 Y-4.570 Z12.433 
N255 X-206.298 Y-4.751 Z12.238 
N256 X-206.298 Y-4.933 Z12.042 
N257 X-206.298 Y-5.115 Z11.847 
N258 X-206.298 Y-5.297 Z11.652 
N259 X-206.298 Y-5.479 Z11.457 
N260 X-206.298 Y-5.661 Z11.262 
N261 X-206.298 Y-5.843 Z11.067 
N262 X-206.298 Y-6.024 Z10.872 
N263 X-206.298 Y-6.206 Z10.677 
N264 X-206.298 Y-6.388 Z10.482 
N265 X-206.298 Y-6.570 Z10.287 
N266 X-206.298 Y-6.752 Z10.092 
N267 X-206.298 Y-6.934 Z9.897 
N268 X-206.298 Y-7.116 Z9.702 
N269 X-206.298 Y-7.298 Z9.507 
N270 X-206.298 Y-7.479 Z9.312 
N271 X-206.298 Y-7.661 Z9.117 
N272 X-206.298 Y-7.843 Z8.922 
N273 X-206.298 Y-8.025 Z8.727 
N274 X-206.298 Y-8.207 Z8.532 
N275 X-206.298 Y-22.822 Z-7.141 
N276 X-206.298 Y-23.004 Z-7.336 
N277 X-206.298 Y-23.186 Z-7.531 
N278 X-206.298 Y-23.368 Z-7.726 
N279 X-206.298 Y-23.550 Z-7.921 
N280 X-206.298 Y-23.732 Z-8.116 
N281 X-206.298 Y-23.914 Z-8.311 
N282 X-206.298 Y-24.095 Z-8.506 
N283 X-206.298 Y-24.277 Z-8.701 
N284 X-206.298 Y-24.459 Z-8.896 
N285 X-206.298 Y-24.641 Z-9.091 
N286 X-206.298 Y-24.823 Z-9.286 
N287 X-206.298 Y-25.005 Z-9.481 
N288 X-206.298 Y-25.187 Z-9.677 
N289 X-206.298 Y-25.368 Z-9.872 
N290 X-206.298 Y-25.550 Z-10.067 
N291 X-206.298 Y-25.732 Z-10.262 
N292 X-206.298 Y-25.914 Z-10.457 
N293 X-206.298 Y-26.096 Z-10.652 
N294 X-206.298 Y-26.278 Z-10.847 
N295 X-206.298 Y-26.460 Z-11.042 
N296 X-206.298 Y-26.642 Z-11.237 
N297 X-206.298 Y-26.823 Z-11.432 
N298 X-206.298 Y-27.005 Z-11.627 
N299 X-206.298 Y-27.187 Z-11.822 
N300 X-206.298 Y-27.369 Z-12.017 
N301 X-206.298 Y-27.551 Z-12.212 
N302 X-206.298 Y-27.733 Z-12.407 
N303 X-206.298 Y-27.915 Z-12.602 
N304 X-206.298 Y-28.096 Z-12.797 
N305 X-206.298 Y-28.278 Z-12.992 
N306 X-206.298 Y-28.460 Z-13.187 
N307 X-206.298 Y-28.642 Z-13.382 
N308 X-206.298 Y-28.824 Z-13.577 
N309 X-206.298 Y-29.006 Z-13.772 
N310 X-206.298 Y-29.188 Z-13.967 
N311 X-206.298 Y-29.370 Z-14.162 
N312 X-206.298 Y-29.551 Z-14.357 
N313 X-206.298 Y-29.733 Z-14.552 
N314 X-206.298 Y-29.915 Z-14.747 
N315 X-206.298 Y-30.097 Z-14.942 
N316 X-206.298 Y-30.279 Z-15.137 
N317 X-206.298 Y-30.461 Z-15.332 
N318 X-206.298 Y-30.643 Z-15.527 
N319 X-206.298 Y-30.824 Z-15.722 
N320 X-206.298 Y-31.006 Z-15.917 
N321 X-206.298 Y-31.188 Z-16.112 
N322 X-206.298 Y-31.370 Z-16.307 
N323 X-206.298 Y-31.552 Z-16.502 
N324 X-206.298 Y-31.734 Z-16.698 
N325 X-206.298 Y-31.916 Z-16.893 
N326 X-206.298 Y-32.097 Z-17.088 
N327 X-206.298 Y-32.279 Z-17.283 
N328 X-206.298 Y-32.461 Z-17.478 
N329 X-206.298 Y-32.643 Z-17.673 
N330 X-206.298 Y-32.825 Z-17.868 
N331 X-206.298 Y-33.007 Z-18.063 
N332 X-206.298 Y-33.189 Z-18.258 
N333 X-206.298 Y-33.371 Z-18.453 
N334 X-206.298 Y-33.552 Z-18.648 
N335 X-206.298 Y-33.734 Z-18.843 
N336 X-206.298 Y-33.916 Z-19.038 
N337 X-206.298 Y-34.098 Z-19.233 
N338 X-206.298 Y-34.280 Z-19.428 
N339 X-206.298 Y-34.462 Z-19.623 
N340 X-206.298 Y-34.644 Z-19.818 
N341 X-206.298 Y-34.825 Z-20.013 
N342 X-206.298 Y-35.007 Z-20.208 
N343 X-206.298 Y-35.189 Z-20.403 
N344 X-206.298 Y-35.371 Z-20.598 
N345 X-206.298 Y-35.553 Z-20.793 
N346 X-206.298 Y-35.735 Z-20.988 
N347 X-206.298 Y-35.917 Z-21.183 
N348 X-206.298 Y-36.099 Z-21.378 
N349 X-206.298 Y-36.280 Z-21.573 
N350 X-206.298 Y-36.462 Z-21.768 
N351 X-206.298 Y-43.894 Z-15.077 
N352 G00 X-206.298 Y-81.051 Z18.380 
N353 ; DELTA A > 40.1
N354 TRAFOOF
N355 D1
N356 STOPRE
N357 G00 G54 Z296.000
N358 G01 A181.0564 F10000
N359 TRAORI
N360 G54 D1
N361 STOPRE
N362 TRANS 
N363 G00 X-203.548 Y-46.527 Z-68.001 A181.0564 B2.6056 
N364 X-205.821 Y-47.448 Z-18.061 
N365 G01 X-206.276 Y-47.632 Z-8.073 F800 
N366 X-206.276 Y-42.632 Z-8.068 
N367 X-206.276 Y-42.366 Z-8.068 
N368 X-206.276 Y-42.099 Z-8.068 
N369 X-206.276 Y-41.832 Z-8.067 
N370 X-206.276 Y-41.566 Z-8.067 
N371 X-206.276 Y-41.299 Z-8.067 
N372 X-206.276 Y-41.032 Z-8.067 
N373 X-206.276 Y-40.766 Z-8.066 
N374 X-206.276 Y-40.499 Z-8.066 
N375 X-206.276 Y-40.232 Z-8.066 
N376 X-206.276 Y-39.966 Z-8.066 
N377 X-206.276 Y-39.699 Z-8.065 
N378 X-206.276 Y-39.432 Z-8.065 
N379 X-206.276 Y-39.166 Z-8.065 
N380 X-206.276 Y-38.899 Z-8.064 
N381 X-206.276 Y-38.632 Z-8.064 
N382 X-206.276 Y-38.366 Z-8.064 
N383 X-206.276 Y-38.099 Z-8.064 
N384 X-206.276 Y-37.832 Z-8.063 
N385 X-206.276 Y-37.566 Z-8.063 
N386 X-206.276 Y-37.299 Z-8.063 
N387 X-206.276 Y-37.032 Z-8.063 
N388 X-206.276 Y-36.766 Z-8.062 
N389 X-206.276 Y-36.499 Z-8.062 
N390 X-206.276 Y-36.232 Z-8.062 
N391 X-206.276 Y-35.966 Z-8.062 
N392 X-206.276 Y-35.699 Z-8.061 
N393 X-206.276 Y-35.432 Z-8.061 
N394 X-206.276 Y-35.166 Z-8.061 
N395 X-206.276 Y-34.899 Z-8.061 
N396 X-206.276 Y-34.632 Z-8.060 
N397 X-206.276 Y-34.366 Z-8.060 
N398 X-206.276 Y-34.099 Z-8.060 
N399 X-206.276 Y-33.832 Z-8.060 
N400 X-206.276 Y-33.566 Z-8.059 
N401 X-206.276 Y-33.299 Z-8.059 
N402 X-206.276 Y-33.032 Z-8.059 
N403 X-206.276 Y-32.766 Z-8.059 
N404 X-206.276 Y-32.499 Z-8.058 
N405 X-206.276 Y-32.232 Z-8.058 
N406 X-206.276 Y-31.966 Z-8.058 
N407 X-206.276 Y-31.699 Z-8.058 
N408 X-206.276 Y-31.432 Z-8.057 
N409 X-206.276 Y-31.166 Z-8.057 
N410 X-206.276 Y-30.899 Z-8.057 
N411 X-206.276 Y-30.632 Z-8.057 
N412 X-206.276 Y-30.366 Z-8.056 
N413 X-206.276 Y-30.099 Z-8.056 
N414 X-206.276 Y-29.832 Z-8.056 
N415 X-206.276 Y-29.566 Z-8.055 
N416 X-206.276 Y-29.299 Z-8.055 
N417 X-206.276 Y-29.032 Z-8.055 
N418 X-206.276 Y-28.766 Z-8.055 
N419 X-206.276 Y-28.499 Z-8.054 
N420 X-206.276 Y-28.232 Z-8.054 
N421 X-206.276 Y-27.966 Z-8.054 
N422 X-206.276 Y-27.699 Z-8.054 
N423 X-206.276 Y-27.432 Z-8.053 
N424 X-206.276 Y-27.166 Z-8.053 
N425 X-206.276 Y-26.899 Z-8.053 
N426 X-206.276 Y-26.632 Z-8.053 
N427 X-206.276 Y-26.366 Z-8.052 
N428 X-206.276 Y-26.099 Z-8.052 
N429 X-206.276 Y-25.832 Z-8.052 
N430 X-206.276 Y-25.566 Z-8.052 
N431 X-206.276 Y-25.299 Z-8.051 
N432 X-206.276 Y-25.032 Z-8.051 
N433 X-206.276 Y-24.766 Z-8.051 
N434 X-206.276 Y-24.499 Z-8.051 
N435 X-206.276 Y-24.232 Z-8.050 
N436 X-206.276 Y-23.966 Z-8.050 
N437 X-206.276 Y-23.699 Z-8.050 
N438 X-206.276 Y-23.432 Z-8.050 
N439 X-206.276 Y-23.166 Z-8.049 
N440 X-206.276 Y-22.899 Z-8.049 
N441 X-206.276 Y-22.632 Z-8.049 
N442 X-206.276 Y6.108 Z-8.021 
N443 X-206.276 Y6.374 Z-8.021 
N444 X-206.276 Y6.641 Z-8.021 
N445 X-206.276 Y6.908 Z-8.020 
N446 X-206.276 Y7.174 Z-8.020 
N447 X-206.276 Y7.441 Z-8.020 
N448 X-206.276 Y7.708 Z-8.019 
N449 X-206.276 Y7.974 Z-8.019 
N450 X-206.276 Y8.241 Z-8.019 
N451 X-206.276 Y8.508 Z-8.019 
N452 X-206.276 Y8.774 Z-8.018 
N453 X-206.276 Y9.041 Z-8.018 
N454 X-206.276 Y9.308 Z-8.018 
N455 X-206.276 Y9.574 Z-8.018 
N456 X-206.276 Y9.841 Z-8.017 
N457 X-206.276 Y10.108 Z-8.017 
N458 X-206.276 Y10.374 Z-8.017 
N459 X-206.276 Y10.641 Z-8.017 
N460 X-206.276 Y10.908 Z-8.016 
N461 X-206.276 Y11.174 Z-8.016 
N462 X-206.276 Y11.441 Z-8.016 
N463 X-206.276 Y11.708 Z-8.016 
N464 X-206.276 Y11.974 Z-8.015 
N465 X-206.276 Y12.241 Z-8.015 
N466 X-206.276 Y12.508 Z-8.015 
N467 X-206.276 Y12.774 Z-8.015 
N468 X-206.276 Y13.041 Z-8.014 
N469 X-206.276 Y13.308 Z-8.014 
N470 X-206.276 Y13.574 Z-8.014 
N471 X-206.276 Y13.841 Z-8.014 
N472 X-206.276 Y14.108 Z-8.013 
N473 X-206.276 Y14.374 Z-8.013 
N474 X-206.276 Y14.641 Z-8.013 
N475 X-206.276 Y14.908 Z-8.013 
N476 X-206.276 Y15.174 Z-8.012 
N477 X-206.276 Y15.441 Z-8.012 
N478 X-206.276 Y15.708 Z-8.012 
N479 X-206.276 Y15.974 Z-8.011 
N480 X-206.276 Y16.241 Z-8.011 
N481 X-206.276 Y16.508 Z-8.011 
N482 X-206.276 Y16.774 Z-8.011 
N483 X-206.276 Y17.041 Z-8.010 
N484 X-206.276 Y17.308 Z-8.010 
N485 X-206.276 Y17.574 Z-8.010 
N486 X-206.276 Y17.841 Z-8.010 
N487 X-206.276 Y18.108 Z-8.009 
N488 X-206.276 Y18.374 Z-8.009 
N489 X-206.276 Y18.641 Z-8.009 
N490 X-206.276 Y18.908 Z-8.009 
N491 X-206.276 Y19.174 Z-8.008 
N492 X-206.276 Y19.441 Z-8.008 
N493 X-206.276 Y19.708 Z-8.008 
N494 X-206.276 Y19.974 Z-8.008 
N495 X-206.276 Y20.241 Z-8.007 
N496 X-206.276 Y20.508 Z-8.007 
N497 X-206.276 Y20.774 Z-8.007 
N498 X-206.276 Y21.041 Z-8.007 
N499 X-206.276 Y21.308 Z-8.006 
N500 X-206.276 Y21.574 Z-8.006 
N501 X-206.276 Y21.841 Z-8.006 
N502 X-206.276 Y22.108 Z-8.006 
N503 X-206.276 Y22.374 Z-8.005 
N504 X-206.276 Y22.641 Z-8.005 
N505 X-206.276 Y22.908 Z-8.005 
N506 X-206.276 Y23.174 Z-8.005 
N507 X-206.276 Y23.441 Z-8.004 
N508 X-206.276 Y23.708 Z-8.004 
N509 X-206.276 Y23.974 Z-8.004 
N510 X-206.276 Y24.241 Z-8.004 
N511 X-206.276 Y24.508 Z-8.003 
N512 X-206.276 Y24.774 Z-8.003 
N513 X-206.276 Y25.041 Z-8.003 
N514 X-206.276 Y25.308 Z-8.002 
N515 X-206.276 Y25.574 Z-8.002 
N516 X-206.276 Y25.841 Z-8.002 
N517 X-206.276 Y26.108 Z-8.002 
N518 X-205.821 Y26.292 Z-17.990 
N519 G00 X-203.548 Y27.213 Z-67.929 
N520 ; DELTA A > 40.1
N521 TRAFOOF
N522 D1
N523 STOPRE
N524 G00 G54 Z296.000
N525 G01 A228.0000 F10000
N526 TRAORI
N527 G54 D1
N528 STOPRE
N529 TRANS 
N530 G00 X-206.298 Y34.041 Z-66.371 A228.0000 B-0.0000 
N531 X-206.298 Y-3.117 Z-32.914 
N532 G01 X-206.298 Y-10.548 Z-26.223 F800 
N533 X-206.298 Y-7.138 Z-22.566 
N534 X-206.298 Y-6.956 Z-22.371 
N535 X-206.298 Y-6.774 Z-22.176 
N536 X-206.298 Y-6.592 Z-21.981 
N537 X-206.298 Y-6.411 Z-21.786 
N538 X-206.298 Y-6.229 Z-21.591 
N539 X-206.298 Y-6.047 Z-21.396 
N540 X-206.298 Y-5.865 Z-21.201 
N541 X-206.298 Y-5.683 Z-21.006 
N542 X-206.298 Y-5.501 Z-20.811 
N543 X-206.298 Y-5.319 Z-20.616 
N544 X-206.298 Y-5.138 Z-20.421 
N545 X-206.298 Y-4.956 Z-20.226 
N546 X-206.298 Y-4.774 Z-20.031 
N547 X-206.298 Y-4.592 Z-19.836 
N548 X-206.298 Y-4.410 Z-19.641 
N549 X-206.298 Y-4.228 Z-19.446 
N550 X-206.298 Y-4.046 Z-19.251 
N551 X-206.298 Y-3.864 Z-19.056 
N552 X-206.298 Y-3.683 Z-18.861 
N553 X-206.298 Y-3.501 Z-18.665 
N554 X-206.298 Y-3.319 Z-18.470 
N555 X-206.298 Y-3.137 Z-18.275 
N556 X-206.298 Y-2.955 Z-18.080 
N557 X-206.298 Y-2.773 Z-17.885 
N558 X-206.298 Y-2.591 Z-17.690 
N559 X-206.298 Y-2.410 Z-17.495 
N560 X-206.298 Y-2.228 Z-17.300 
N561 X-206.298 Y-2.046 Z-17.105 
N562 X-206.298 Y-1.864 Z-16.910 
N563 X-206.298 Y-1.682 Z-16.715 
N564 X-206.298 Y-1.500 Z-16.520 
N565 X-206.298 Y-1.318 Z-16.325 
N566 X-206.298 Y-1.136 Z-16.130 
N567 X-206.298 Y-0.955 Z-15.935 
N568 X-206.298 Y-0.773 Z-15.740 
N569 X-206.298 Y-0.591 Z-15.545 
N570 X-206.298 Y-0.409 Z-15.350 
N571 X-206.298 Y-0.227 Z-15.155 
N572 X-206.298 Y-0.045 Z-14.960 
N573 X-206.298 Y0.137 Z-14.765 
N574 X-206.298 Y0.318 Z-14.570 
N575 X-206.298 Y0.500 Z-14.375 
N576 X-206.298 Y0.682 Z-14.180 
N577 X-206.298 Y0.864 Z-13.985 
N578 X-206.298 Y1.046 Z-13.790 
N579 X-206.298 Y1.228 Z-13.595 
N580 X-206.298 Y1.410 Z-13.400 
N581 X-206.298 Y1.592 Z-13.205 
N582 X-206.298 Y1.773 Z-13.010 
N583 X-206.298 Y1.955 Z-12.815 
N584 X-206.298 Y2.137 Z-12.620 
N585 X-206.298 Y2.319 Z-12.425 
N586 X-206.298 Y2.501 Z-12.230 
N587 X-206.298 Y2.683 Z-12.035 
N588 X-206.298 Y2.865 Z-11.840 
N589 X-206.298 Y3.046 Z-11.644 
N590 X-206.298 Y3.228 Z-11.449 
N591 X-206.298 Y3.410 Z-11.254 
N592 X-206.298 Y3.592 Z-11.059 
N593 X-206.298 Y3.774 Z-10.864 
N594 X-206.298 Y3.956 Z-10.669 
N595 X-206.298 Y4.138 Z-10.474 
N596 X-206.298 Y4.320 Z-10.279 
N597 X-206.298 Y4.501 Z-10.084 
N598 X-206.298 Y4.683 Z-9.889 
N599 X-206.298 Y4.865 Z-9.694 
N600 X-206.298 Y5.047 Z-9.499 
N601 X-206.298 Y5.229 Z-9.304 
N602 X-206.298 Y5.411 Z-9.109 
N603 X-206.298 Y5.593 Z-8.914 
N604 X-206.298 Y5.774 Z-8.719 
N605 X-206.298 Y5.956 Z-8.524 
N606 X-206.298 Y6.138 Z-8.329 
N607 X-206.298 Y6.320 Z-8.134 
N608 X-206.298 Y6.502 Z-7.939 
N609 X-206.298 Y21.091 Z7.706 
N610 X-206.298 Y21.273 Z7.901 
N611 X-206.298 Y21.455 Z8.096 
N612 X-206.298 Y21.637 Z8.292 
N613 X-206.298 Y21.819 Z8.487 
N614 X-206.298 Y22.001 Z8.682 
N615 X-206.298 Y22.183 Z8.877 
N616 X-206.298 Y22.365 Z9.072 
N617 X-206.298 Y22.546 Z9.267 
N618 X-206.298 Y22.728 Z9.462 
N619 X-206.298 Y22.910 Z9.657 
N620 X-206.298 Y23.092 Z9.852 
N621 X-206.298 Y23.274 Z10.047 
N622 X-206.298 Y23.456 Z10.242 
N623 X-206.298 Y23.638 Z10.437 
N624 X-206.298 Y23.819 Z10.632 
N625 X-206.298 Y24.001 Z10.827 
N626 X-206.298 Y24.183 Z11.022 
N627 X-206.298 Y24.365 Z11.217 
N628 X-206.298 Y24.547 Z11.412 
N629 X-206.298 Y24.729 Z11.607 
N630 X-206.298 Y24.911 Z11.802 
N631 X-206.298 Y25.093 Z11.997 
N632 X-206.298 Y25.274 Z12.192 
N633 X-206.298 Y25.456 Z12.387 
N634 X-206.298 Y25.638 Z12.582 
N635 X-206.298 Y25.820 Z12.777 
N636 X-206.298 Y26.002 Z12.972 
N637 X-206.298 Y26.184 Z13.167 
N638 X-206.298 Y26.366 Z13.362 
N639 X-206.298 Y26.547 Z13.557 
N640 X-206.298 Y26.729 Z13.752 
N641 X-206.298 Y26.911 Z13.947 
N642 X-206.298 Y27.093 Z14.142 
N643 X-206.298 Y27.275 Z14.337 
N644 X-206.298 Y27.457 Z14.532 
N645 X-206.298 Y27.639 Z14.727 
N646 X-206.298 Y27.821 Z14.922 
N647 X-206.298 Y28.002 Z15.117 
N648 X-206.298 Y28.184 Z15.313 
N649 X-206.298 Y28.366 Z15.508 
N650 X-206.298 Y28.548 Z15.703 
N651 X-206.298 Y28.730 Z15.898 
N652 X-206.298 Y28.912 Z16.093 
N653 X-206.298 Y29.094 Z16.288 
N654 X-206.298 Y29.275 Z16.483 
N655 X-206.298 Y29.457 Z16.678 
N656 X-206.298 Y29.639 Z16.873 
N657 X-206.298 Y29.821 Z17.068 
N658 X-206.298 Y30.003 Z17.263 
N659 X-206.298 Y30.185 Z17.458 
N660 X-206.298 Y30.367 Z17.653 
N661 X-206.298 Y30.549 Z17.848 
N662 X-206.298 Y30.730 Z18.043 
N663 X-206.298 Y30.912 Z18.238 
N664 X-206.298 Y31.094 Z18.433 
N665 X-206.298 Y31.276 Z18.628 
N666 X-206.298 Y31.458 Z18.823 
N667 X-206.298 Y31.640 Z19.018 
N668 X-206.298 Y31.822 Z19.213 
N669 X-206.298 Y32.003 Z19.408 
N670 X-206.298 Y32.185 Z19.603 
N671 X-206.298 Y32.367 Z19.798 
N672 X-206.298 Y32.549 Z19.993 
N673 X-206.298 Y32.731 Z20.188 
N674 X-206.298 Y32.913 Z20.383 
N675 X-206.298 Y33.095 Z20.578 
N676 X-206.298 Y33.277 Z20.773 
N677 X-206.298 Y33.458 Z20.968 
N678 X-206.298 Y33.640 Z21.163 
N679 X-206.298 Y33.822 Z21.358 
N680 X-206.298 Y34.004 Z21.553 
N681 X-206.298 Y34.186 Z21.748 
N682 X-206.298 Y34.368 Z21.943 
N683 X-206.298 Y34.550 Z22.138 
N684 X-206.298 Y34.731 Z22.333 
N685 X-206.298 Y41.551 Z29.647 
N686 G00 X-206.298 Y78.709 Z-3.809 
;RAPORT("TB123456","Spiral Finish Rhombic:106 End")
;trailer : concat=None
; points cnt = 616
N688 M347 ; mgla wyl
N689 MSG (" --- KONIEC PODPROGRAMU --- ")
N690 FGROUP()
N691 TRAFOOF
N692 STOPRE
N693 G0 G53 D0 Z550.0 M9 M5
N694 G0 G53 Y150 A0 B0
N695 M17
