; PROGRAM NAME: D12345620
; ORDER       : D123456
; OPER. NAME  : Spiral Rough Airfoil:107
; OPER. DESCR.: spiral roughing airfoil/platformy i pioro pwk
; OPER. TYPE  : rouAirfoil
; GEO. OPTION : 3
; MACHINE     : HSTM_300HD_SIM840D_Py
;             : HSTM300/500 - HAMUEL: 5-axis milling machine-SIM840D Traori PP_Script
; CONTROL     : SINUMERIK 840D
; created:   2023-06-05 09:19:13.488913
;-------DODATKOWE DANE-------------------
; PROGRAMISTA : Mariusz Malec
; PARTID      : 301T002184P1010_-
;  ap         : 0.8
;  ae         : 8.0
;  lean_angle : 1.0
;  airf_offset: 0.7
;----------------------------------------
;RAPORT("TD123456","Spiral Rough Airfoil:107")
N10 TRAFOOF
N11 D0
N12 G90 G94
N13 G0 G53 D0 Z550
N14 STOPRE
M9 ; chlodziwo wyl
; --- Spiral Rough Airfoil:107 - spiral roughing airfoil/platformy i pioro pwk ---
N16 ;ToolChange : concat=None ,current_tdmid=None, PP.tdmId=958845
N17 TRAFOOF
N18 G0 G53 D0 X-200 Y150 Z550 B0
N19 T="7758845"
;RAPORT("TD123456","ToolChangeStart 7758845")
N20 M6
;RAPORT("TD123456","ToolChangeEnd")
N21 STOPRE
N22 MSG(" TLID=958845 D=16.0 R=4.0 Ang=0.0 Len=99.0 ")
N23 ; (Preloading tool)
N24 T="7740626"
N25 S15000 M03
N26 STOPRE
N27 CYCLE832(0.1,1,1)
N28 G0 G53 A52.9241 B0.0000
N29 TRAORI
N30 G54 D1
N31 D1 
N32 TRANS  X=R4
;shiftX 0.0
;pointsCnt 2222
N33 ;SPIRALA WYK BANDAZA
N34 ; DELTA A > 40.1
N35 TRAFOOF
N36 D1
N37 STOPRE
N38 G00 G54 Z287.000
N39 G01 A52.9241 F10000
N40 TRAORI
N41 G54 D1
N42 STOPRE
N43 TRANS  X=R4
N44 G00 X-202.235 Y-46.147 Z57.866 A52.9241 
N45 M346 ; chlodziwo mgla
N46 X-202.235 Y-6.255 Z27.722 
N47 G01 X-202.235 Y-4.124 Z25.431 F1225 
N48 X-202.235 Y-2.806 Z22.594 
N49 X-202.235 Y-2.428 Z19.488 
N50 X-202.235 Y-3.030 Z16.418 
N51 X-202.235 Y-4.550 Z13.683 
N52 X-202.233 Y-4.719 Z13.468 A52.9270 
N53 X-202.231 Y-4.915 Z13.218 A52.9310 
N54 X-202.229 Y-5.137 Z12.935 A52.9363 
N55 X-202.227 Y-5.401 Z12.599 A52.9440 
N56 X-202.224 Y-5.711 Z12.205 A52.9552 
N57 X-202.220 Y-6.070 Z11.747 A52.9706 
N58 X-202.217 Y-6.485 Z11.219 A52.9888 
N59 X-202.212 Y-6.956 Z10.618 A52.9994 
N60 X-202.207 Y-7.483 Z9.943 A52.9898 
N61 X-202.202 Y-8.064 Z9.199 A52.9774 
N62 X-202.196 Y-8.695 Z8.393 
N63 X-202.189 Y-9.369 Z7.534 
N64 X-202.183 Y-10.073 Z6.635 
N65 X-202.176 Y-10.798 Z5.710 A52.9791 
N66 X-202.169 Y-11.529 Z4.777 A52.9822 
N67 X-202.162 Y-12.253 Z3.853 A52.9878 
N68 X-202.156 Y-12.958 Z2.955 A52.9962 
N69 X-202.149 Y-13.631 Z2.096 A53.0060 
N70 X-202.143 Y-14.262 Z1.292 A53.0104 
N71 X-202.138 Y-14.842 Z0.551 A53.0055 
N72 X-202.133 Y-15.366 Z-0.119 A52.9824 
N73 X-202.129 Y-15.832 Z-0.712 A52.9774 
N74 X-202.125 Y-16.240 Z-1.231 
N75 X-202.122 Y-16.595 Z-1.675 A53.0373 
N76 X-202.120 Y-16.907 Z-2.043 A53.3322 
N77 X-202.119 Y-17.182 Z-2.330 A53.9389 
N78 X-202.119 Y-17.440 Z-2.547 A55.0381 
N79 X-202.122 Y-17.688 Z-2.687 A56.7465 
N80 X-202.126 Y-17.957 Z-2.763 A59.3308 
N81 X-202.133 Y-18.267 Z-2.781 A62.9928 
N82 X-202.141 Y-18.599 Z-2.760 A67.3200 
N83 X-202.151 Y-18.970 Z-2.727 A72.3649 
N84 X-202.160 Y-19.298 Z-2.704 A76.8837 
N85 X-202.170 Y-19.722 Z-2.693 A82.7622 
N86 X-202.182 Y-20.258 Z-2.724 A90.2679 
N87 X-202.187 Y-20.498 Z-2.757 A93.6457 
N88 X-202.192 Y-20.753 Z-2.806 A97.2809 
N89 X-202.196 Y-21.023 Z-2.875 A101.1793 
N90 X-202.201 Y-21.301 Z-2.965 A105.2810 
N91 X-202.205 Y-21.584 Z-3.080 A109.5666 
N92 X-202.208 Y-21.866 Z-3.219 A113.9717 
N93 X-202.210 Y-22.140 Z-3.381 A118.4327 
N94 X-202.211 Y-22.399 Z-3.563 A122.8663 
N95 X-202.212 Y-22.656 Z-3.777 A127.5546 
N96 X-202.211 Y-22.978 Z-4.107 A134.0257 
N97 X-202.209 Y-23.238 Z-4.442 A139.9561 
N98 X-202.205 Y-23.435 Z-4.764 A145.2358 
N99 X-202.200 Y-23.580 Z-5.066 A149.9164 
N100 X-202.196 Y-23.680 Z-5.336 A153.9135 
N101 X-202.188 Y-23.773 Z-5.723 A159.4210 
N102 X-202.178 Y-23.804 Z-6.129 A164.9908 
N103 X-202.169 Y-23.771 Z-6.462 A169.4333 
N104 X-202.157 Y-23.659 Z-6.787 A173.6892 
N105 X-202.147 Y-23.478 Z-7.024 A176.7641 
N106 X-202.137 Y-23.233 Z-7.180 A178.7668 
N107 X-202.127 Y-22.914 Z-7.276 A179.9983 
N108 X-202.116 Y-22.513 Z-7.329 A180.6827 
N109 X-202.103 Y-22.020 Z-7.354 A181.0197 
N110 X-202.089 Y-21.423 Z-7.362 A181.1533 
N111 X-202.072 Y-20.714 Z-7.362 A181.1803 
N112 X-202.052 Y-19.885 Z-7.359 A181.1659 
N113 X-202.029 Y-18.932 Z-7.356 A181.1470 
N114 X-202.004 Y-17.855 Z-7.355 A181.1462 
N115 X-201.975 Y-16.658 Z-7.354 
N116 X-201.944 Y-15.352 Z-7.353 
N117 X-201.910 Y-13.952 Z-7.352 
N118 X-201.875 Y-12.477 Z-7.351 A181.1483 
N119 X-201.839 Y-10.952 Z-7.350 A181.1516 
N120 X-201.802 Y-9.401 Z-7.349 A181.1576 
N121 X-201.765 Y-7.850 Z-7.348 A181.1661 
N122 X-201.728 Y-6.326 Z-7.347 A181.1751 
N123 X-201.693 Y-4.852 Z-7.346 A181.1795 
N124 X-201.659 Y-3.448 Z-7.345 A181.1767 
N125 X-201.628 Y-2.130 Z-7.344 A181.1608 
N126 X-201.599 Y-0.908 Z-7.344 A181.1462 
N127 X-201.572 Y0.215 Z-7.346 
N128 X-201.547 Y1.247 Z-7.351 A181.2091 
N129 X-201.523 Y2.183 Z-7.392 A181.8663 
N130 X-201.500 Y3.045 Z-7.512 A183.8981 
N131 X-201.473 Y3.866 Z-7.781 A188.6523 
N132 X-201.441 Y4.721 Z-8.211 A196.9788 
N133 X-201.407 Y5.674 Z-8.664 A207.8094 
N134 X-201.376 Y6.670 Z-8.913 A218.2561 
N135 X-201.357 Y7.565 Z-8.846 A225.8855 
N136 X-201.348 Y8.293 Z-8.508 A230.1830 
N137 X-201.347 Y8.898 Z-7.993 A232.1132 
N138 X-201.350 Y9.457 Z-7.371 A232.8273 
N139 X-201.355 Y10.020 Z-6.676 A233.0287 
N140 X-201.360 Y10.610 Z-5.924 A233.0542 
N141 X-201.366 Y11.234 Z-5.122 A233.0353 
N142 X-201.372 Y11.892 Z-4.280 A233.0150 
N143 X-201.379 Y12.576 Z-3.406 A233.0114 
N144 X-201.385 Y13.278 Z-2.511 
N145 X-201.392 Y13.986 Z-1.609 
N146 X-201.399 Y14.689 Z-0.714 A233.0161 
N147 X-201.405 Y15.375 Z0.158 A233.0268 
N148 X-201.411 Y16.031 Z0.994 A233.0376 
N149 X-201.417 Y16.650 Z1.781 A233.0432 
N150 X-201.422 Y17.221 Z2.509 A233.0394 
N151 X-201.427 Y17.740 Z3.171 A233.0205 
N152 X-201.431 Y18.204 Z3.762 A233.0114 
N153 X-201.435 Y18.613 Z4.281 
N154 X-201.438 Y18.968 Z4.731 A233.0166 
N155 X-201.441 Y19.281 Z5.107 A233.2355 
N156 X-201.442 Y19.557 Z5.407 A233.7274 
N157 X-201.442 Y19.810 Z5.633 A234.6535 
N158 X-201.440 Y20.055 Z5.789 A236.1808 
N159 X-201.436 Y20.315 Z5.876 A238.5345 
N160 X-201.430 Y20.605 Z5.904 A241.8351 
N161 X-201.421 Y20.971 Z5.887 A246.5359 
N162 X-201.412 Y21.279 Z5.858 A250.7001 
N163 X-201.402 Y21.689 Z5.827 A256.3418 
N164 X-201.392 Y22.086 Z5.814 A261.8412 
N165 X-201.386 Y22.352 Z5.819 A265.5546 
N166 X-201.379 Y22.656 Z5.841 A269.8036 
N167 X-201.372 Y22.989 Z5.888 A274.5158 
N168 X-201.366 Y23.351 Z5.968 A279.7054 
N169 X-201.360 Y23.730 Z6.087 A285.2719 
N170 X-201.355 Y24.114 Z6.249 A291.1110 
N171 X-201.352 Y24.410 Z6.406 A295.8068 
N172 X-201.350 Y24.694 Z6.587 A300.5299 
N173 X-201.349 Y24.957 Z6.789 A305.1830 
N174 X-201.349 Y25.194 Z7.003 A309.6621 
N175 X-201.350 Y25.403 Z7.225 A313.9235 
N176 X-201.351 Y25.585 Z7.452 A317.9990 
N177 X-201.353 Y25.740 Z7.676 A321.8034 
N178 X-201.356 Y25.867 Z7.892 A325.3151 
N179 X-201.363 Y26.067 Z8.335 A332.0940 
N180 X-201.371 Y26.187 Z8.767 A338.3129 
N181 X-201.379 Y26.231 Z9.108 A343.0294 
N182 X-201.390 Y26.218 Z9.504 A348.3682 
N183 X-201.400 Y26.139 Z9.820 A352.5477 
N184 X-201.411 Y25.976 Z10.094 A356.1192 
N185 X-201.421 Y25.750 Z10.271 A358.4082 
N186 X-201.431 Y25.455 Z10.379 A359.7932 
N187 X-201.441 Y25.077 Z10.438 A0.5596 
N188 X-201.453 Y24.612 Z10.467 A0.9304 
N189 X-201.467 Y24.045 Z10.477 A1.0799 
N190 X-201.483 Y23.369 Z10.479 A1.1149 
N191 X-201.502 Y22.574 Z10.477 A1.1040 
N192 X-201.524 Y21.653 Z10.475 A1.0852 
N193 X-201.549 Y20.607 Z10.475 A1.0826 
N194 X-201.577 Y19.437 Z10.475 
N195 X-201.608 Y18.153 Z10.475 
N196 X-201.641 Y16.768 Z10.476 
N197 X-201.676 Y15.302 Z10.476 A1.0833 
N198 X-201.713 Y13.777 Z10.477 A1.0834 
N199 X-201.750 Y12.218 Z10.477 A1.0833 
N200 X-201.787 Y10.652 Z10.477 A1.0835 
N201 X-201.824 Y9.107 Z10.478 A1.0847 
N202 X-201.860 Y7.606 Z10.478 A1.0882 
N203 X-201.894 Y6.173 Z10.479 A1.0942 
N204 X-201.927 Y4.825 Z10.480 A1.1052 
N205 X-201.957 Y3.573 Z10.481 A1.1133 
N206 X-201.984 Y2.426 Z10.482 A1.1282 
N207 X-202.009 Y1.382 Z10.480 A1.0891 
N208 X-202.032 Y0.442 Z10.482 A1.0826 
N209 X-202.053 Y-0.422 Z10.491 A1.1940 
N210 X-202.076 Y-1.213 Z10.650 A3.6149 
N211 X-202.106 Y-2.004 Z11.103 A11.0819 
N212 X-202.144 Y-2.912 Z11.722 A22.9474 
N213 X-202.181 Y-3.947 Z12.195 A35.7410 
N214 X-202.208 Y-4.944 Z12.316 A46.1231 
N215 X-202.219 Y-5.699 Z12.051 A51.5790 
N216 X-202.219 Y-6.238 Z11.539 A53.0332 
N217 X-202.215 Y-6.727 Z10.924 A53.1415 
N218 X-202.210 Y-7.246 Z10.253 A53.0899 
N219 X-202.204 Y-7.807 Z9.534 A53.0823 
N220 X-202.199 Y-8.410 Z8.764 
N221 X-202.192 Y-9.050 Z7.946 
N222 X-202.186 Y-9.721 Z7.089 A53.0826 
N223 X-202.180 Y-10.415 Z6.203 A53.0862 
N224 X-202.173 Y-11.120 Z5.302 A53.0892 
N225 X-202.166 Y-11.825 Z4.401 A53.0913 
N226 X-202.160 Y-12.519 Z3.515 A53.0911 
N227 X-202.153 Y-13.190 Z2.658 A53.0887 
N228 X-202.147 Y-13.828 Z1.843 A53.0838 
N229 X-202.142 Y-14.422 Z1.084 A53.0823 
N230 X-202.137 Y-14.968 Z0.388 
N231 X-202.132 Y-15.461 Z-0.240 
N232 X-202.128 Y-15.899 Z-0.799 A53.1050 
N233 X-202.125 Y-16.285 Z-1.277 A53.2464 
N234 X-202.122 Y-16.627 Z-1.683 A53.5658 
N235 X-202.121 Y-16.930 Z-2.011 A54.1618 
N236 X-202.121 Y-17.202 Z-2.264 A55.1360 
N237 X-202.122 Y-17.465 Z-2.450 A56.6538 
N238 X-202.126 Y-17.725 Z-2.566 A58.8153 
N239 X-202.131 Y-18.011 Z-2.623 A61.8460 
N240 X-202.138 Y-18.334 Z-2.634 A65.8200 
N241 X-202.146 Y-18.653 Z-2.620 A70.0309 
N242 X-202.157 Y-19.054 Z-2.599 A75.4808 
N243 X-202.165 Y-19.407 Z-2.591 A80.3533 
N244 X-202.172 Y-19.710 Z-2.597 A84.5554 
N245 X-202.180 Y-20.066 Z-2.624 A89.5293 
N246 X-202.188 Y-20.466 Z-2.687 A95.1911 
N247 X-202.196 Y-20.907 Z-2.798 A101.5539 
N248 X-202.200 Y-21.197 Z-2.898 A105.8497 
N249 X-202.203 Y-21.457 Z-3.008 A109.7930 
N250 X-202.206 Y-21.716 Z-3.139 A113.8565 
N251 X-202.208 Y-21.967 Z-3.289 A117.9624 
N252 X-202.210 Y-22.205 Z-3.456 A122.0327 
N253 X-202.210 Y-22.427 Z-3.635 A126.0295 
N254 X-202.210 Y-22.629 Z-3.825 A129.9138 
N255 X-202.209 Y-22.810 Z-4.020 A133.6333 
N256 X-202.208 Y-22.989 Z-4.245 A137.6470 
N257 X-202.203 Y-23.252 Z-4.659 A144.4991 
N258 X-202.198 Y-23.430 Z-5.039 A150.3524 
N259 X-202.191 Y-23.537 Z-5.368 A155.1452 
N260 X-202.185 Y-23.599 Z-5.684 A159.5704 
N261 X-202.174 Y-23.614 Z-6.102 A165.2264 
N262 X-202.164 Y-23.560 Z-6.426 A169.4932 
N263 X-202.154 Y-23.430 Z-6.720 A173.2750 
N264 X-202.143 Y-23.230 Z-6.942 A176.0799 
N265 X-202.133 Y-22.961 Z-7.099 A178.0305 
N266 X-202.121 Y-22.610 Z-7.207 A179.3559 
N267 X-202.109 Y-22.179 Z-7.275 A180.1855 
N268 X-202.096 Y-21.657 Z-7.315 A180.6827 
N269 X-202.080 Y-21.026 Z-7.337 A180.9605 
N270 X-202.062 Y-20.282 Z-7.346 A181.0976 
N271 X-202.041 Y-19.419 Z-7.348 A181.1554 
N272 X-202.018 Y-18.434 Z-7.347 A181.1736 
N273 X-201.991 Y-17.331 Z-7.343 A181.1749 
N274 X-201.962 Y-16.114 Z-7.340 A181.1710 
N275 X-201.931 Y-14.797 Z-7.336 A181.1706 
N276 X-201.898 Y-13.394 Z-7.332 A181.1706 
N277 X-201.863 Y-11.926 Z-7.328 A181.1785 
N278 X-201.827 Y-10.416 Z-7.325 A181.1911 
N279 X-201.790 Y-8.889 Z-7.321 A181.2072 
N280 X-201.754 Y-7.371 Z-7.317 A181.2207 
N281 X-201.718 Y-5.885 Z-7.312 A181.2239 
N282 X-201.684 Y-4.452 Z-7.307 A181.2051 
N283 X-201.652 Y-3.091 Z-7.303 A181.1868 
N284 X-201.621 Y-1.813 Z-7.301 
N285 X-201.593 Y-0.623 Z-7.305 A181.2729 
N286 X-201.566 Y0.472 Z-7.327 A181.6829 
N287 X-201.541 Y1.478 Z-7.377 A182.6550 
N288 X-201.516 Y2.406 Z-7.479 A184.6620 
N289 X-201.490 Y3.281 Z-7.666 A188.4207 
N290 X-201.462 Y4.147 Z-7.953 A194.5663 
N291 X-201.432 Y5.052 Z-8.280 A202.8048 
N292 X-201.403 Y5.996 Z-8.518 A211.7015 
N293 X-201.380 Y6.915 Z-8.549 A219.4380 
N294 X-201.365 Y7.742 Z-8.353 A225.0913 
N295 X-201.358 Y8.466 Z-7.972 A228.6956 
N296 X-201.356 Y9.117 Z-7.456 A230.8309 
N297 X-201.357 Y9.734 Z-6.843 A232.0384 
N298 X-201.361 Y10.341 Z-6.154 A232.6624 
N299 X-201.365 Y10.956 Z-5.403 A232.9293 
N300 X-201.371 Y11.588 Z-4.605 A232.9991 
N301 X-201.377 Y12.239 Z-3.772 A232.9892 
N302 X-201.384 Y12.907 Z-2.917 A232.9650 
N303 X-201.390 Y13.584 Z-2.054 A232.9577 
N304 X-201.396 Y14.259 Z-1.194 
N305 X-201.402 Y14.923 Z-0.351 A232.9583 
N306 X-201.408 Y15.563 Z0.462 A232.9611 
N307 X-201.414 Y16.171 Z1.234 A232.9588 
N308 X-201.419 Y16.737 Z1.954 A232.9577 
N309 X-201.424 Y17.258 Z2.614 
N310 X-201.428 Y17.730 Z3.212 
N311 X-201.432 Y18.153 Z3.743 A233.0217 
N312 X-201.435 Y18.533 Z4.196 A233.3083 
N313 X-201.436 Y18.878 Z4.574 A233.9256 
N314 X-201.437 Y19.197 Z4.875 A235.0072 
N315 X-201.435 Y19.496 Z5.100 A236.6077 
N316 X-201.433 Y19.795 Z5.265 A238.8394 
N317 X-201.428 Y20.087 Z5.370 A241.6142 
N318 X-201.422 Y20.397 Z5.432 A245.0650 
N319 X-201.415 Y20.718 Z5.459 A249.0417 
N320 X-201.408 Y21.047 Z5.469 A253.3528 
N321 X-201.399 Y21.431 Z5.479 A258.5376 
N322 X-201.391 Y21.783 Z5.499 A263.3663 
N323 X-201.384 Y22.092 Z5.531 A267.6576 
N324 X-201.378 Y22.436 Z5.587 A272.4810 
N325 X-201.371 Y22.811 Z5.677 A277.8426 
N326 X-201.367 Y23.091 Z5.765 A281.9261 
N327 X-201.364 Y23.321 Z5.853 A285.3597 
N328 X-201.361 Y23.555 Z5.958 A288.9376 
N329 X-201.358 Y23.789 Z6.081 A292.6233 
N330 X-201.356 Y24.019 Z6.220 A296.3684 
N331 X-201.355 Y24.239 Z6.373 A300.1216 
N332 X-201.355 Y24.447 Z6.540 A303.8357 
N333 X-201.355 Y24.687 Z6.764 A308.4174 
N334 X-201.356 Y24.919 Z7.022 A313.2580 
N335 X-201.358 Y25.115 Z7.284 A317.8090 
N336 X-201.361 Y25.273 Z7.541 A322.0017 
N337 X-201.364 Y25.400 Z7.789 A325.8657 
N338 X-201.371 Y25.546 Z8.170 A331.5020 
N339 X-201.379 Y25.637 Z8.561 A337.0031 
N340 X-201.387 Y25.664 Z8.906 A341.6633 
N341 X-201.398 Y25.622 Z9.290 A346.6730 
N342 X-201.409 Y25.505 Z9.611 A350.7370 
N343 X-201.421 Y25.314 Z9.875 A354.0200 
N344 X-201.433 Y25.051 Z10.084 A356.5919 
N345 X-201.445 Y24.705 Z10.242 A358.5256 
N346 X-201.458 Y24.274 Z10.348 A359.8407 
N347 X-201.472 Y23.743 Z10.411 A0.6207 
N348 X-201.488 Y23.110 Z10.439 A0.9899 
N349 X-201.506 Y22.364 Z10.447 A1.1108 
N350 X-201.527 Y21.499 Z10.446 A1.1199 
N351 X-201.551 Y20.512 Z10.443 A1.1012 
N352 X-201.577 Y19.405 Z10.442 A1.0900 
N353 X-201.606 Y18.185 Z10.441 
N354 X-201.638 Y16.863 Z10.441 
N355 X-201.671 Y15.456 Z10.441 
N356 X-201.707 Y13.984 Z10.441 
N357 X-201.743 Y12.470 Z10.441 
N358 X-201.779 Y10.942 Z10.441 A1.0907 
N359 X-201.816 Y9.424 Z10.441 A1.0920 
N360 X-201.851 Y7.942 Z10.441 A1.0952 
N361 X-201.885 Y6.518 Z10.441 A1.1008 
N362 X-201.917 Y5.172 Z10.442 A1.1112 
N363 X-201.948 Y3.915 Z10.442 A1.1206 
N364 X-201.975 Y2.758 Z10.443 A1.1350 
N365 X-202.000 Y1.701 Z10.442 A1.1075 
N366 X-202.023 Y0.745 Z10.442 A1.0900 
N367 X-202.044 Y-0.130 Z10.444 
N368 X-202.066 Y-0.928 Z10.557 A2.7857 
N369 X-202.095 Y-1.704 Z10.938 A8.9589 
N370 X-202.130 Y-2.559 Z11.512 A19.5252 
N371 X-202.166 Y-3.527 Z11.999 A31.4314 
N372 X-202.196 Y-4.517 Z12.221 A42.1575 
N373 X-202.213 Y-5.368 Z12.107 A49.5258 
N374 X-202.217 Y-5.982 Z11.697 A52.4910 
N375 X-202.214 Y-6.475 Z11.133 A53.0426 
N376 X-202.209 Y-6.969 Z10.500 A53.0394 
N377 X-202.204 Y-7.498 Z9.820 A53.0042 
N378 X-202.199 Y-8.067 Z9.095 A53.0034 
N379 X-202.193 Y-8.671 Z8.324 
N380 X-202.187 Y-9.306 Z7.515 
N381 X-202.181 Y-9.963 Z6.678 A53.0097 
N382 X-202.175 Y-10.634 Z5.824 A53.0166 
N383 X-202.169 Y-11.307 Z4.966 A53.0220 
N384 X-202.162 Y-11.973 Z4.118 A53.0220 
N385 X-202.156 Y-12.619 Z3.294 A53.0157 
N386 X-202.151 Y-13.236 Z2.508 A53.0034 
N387 X-202.145 Y-13.816 Z1.770 
N388 X-202.140 Y-14.352 Z1.088 
N389 X-202.136 Y-14.842 Z0.466 A53.0137 
N390 X-202.132 Y-15.286 Z-0.083 A53.1747 
N391 X-202.129 Y-15.688 Z-0.557 A53.5659 
N392 X-202.128 Y-16.056 Z-0.951 A54.3427 
N393 X-202.128 Y-16.400 Z-1.265 A55.6525 
N394 X-202.130 Y-16.737 Z-1.507 A57.6390 
N395 X-202.133 Y-17.063 Z-1.678 A60.2410 
N396 X-202.138 Y-17.401 Z-1.799 A63.5552 
N397 X-202.144 Y-17.738 Z-1.879 A67.3593 
N398 X-202.151 Y-18.078 Z-1.932 A71.5233 
N399 X-202.158 Y-18.426 Z-1.974 A76.0278 
N400 X-202.165 Y-18.791 Z-2.021 A80.8991 
N401 X-202.172 Y-19.107 Z-2.071 A85.2084 
N402 X-202.177 Y-19.421 Z-2.133 A89.5654 
N403 X-202.184 Y-19.770 Z-2.222 A94.5011 
N404 X-202.187 Y-20.021 Z-2.301 A98.1230 
N405 X-202.191 Y-20.261 Z-2.390 A101.6627 
N406 X-202.194 Y-20.508 Z-2.497 A105.3865 
N407 X-202.197 Y-20.759 Z-2.624 A109.2737 
N408 X-202.199 Y-21.003 Z-2.768 A113.2069 
N409 X-202.200 Y-21.216 Z-2.913 A116.7782 
N410 X-202.201 Y-21.420 Z-3.070 A120.3497 
N411 X-202.201 Y-21.611 Z-3.239 A123.8779 
N412 X-202.201 Y-21.787 Z-3.415 A127.3272 
N413 X-202.200 Y-21.946 Z-3.596 A130.6597 
N414 X-202.198 Y-22.136 Z-3.850 A135.0347 
N415 X-202.195 Y-22.301 Z-4.118 A139.3787 
N416 X-202.191 Y-22.430 Z-4.377 A143.3370 
N417 X-202.186 Y-22.537 Z-4.651 A147.3566 
N418 X-202.179 Y-22.632 Z-5.019 A152.4922 
N419 X-202.171 Y-22.671 Z-5.342 A156.8052 
N420 X-202.161 Y-22.658 Z-5.730 A161.8241 
N421 X-202.150 Y-22.577 Z-6.083 A166.2559 
N422 X-202.138 Y-22.422 Z-6.405 A170.2017 
N423 X-202.125 Y-22.187 Z-6.686 A173.5934 
N424 X-202.111 Y-21.877 Z-6.913 A176.3132 
N425 X-202.097 Y-21.475 Z-7.087 A178.4060 
N426 X-202.083 Y-20.984 Z-7.203 A179.8283 
N427 X-202.067 Y-20.395 Z-7.271 A180.6864 
N428 X-202.049 Y-19.704 Z-7.304 A181.1432 
N429 X-202.030 Y-18.905 Z-7.316 A181.3533 
N430 X-202.008 Y-17.994 Z-7.315 A181.4328 
N431 X-201.984 Y-16.973 Z-7.309 A181.4499 
N432 X-201.957 Y-15.846 Z-7.300 A181.4436 
N433 X-201.928 Y-14.622 Z-7.290 A181.4342 
N434 X-201.897 Y-13.315 Z-7.281 
N435 X-201.864 Y-11.942 Z-7.272 A181.4381 
N436 X-201.831 Y-10.523 Z-7.263 A181.4509 
N437 X-201.796 Y-9.080 Z-7.254 A181.4643 
N438 X-201.762 Y-7.636 Z-7.245 A181.4721 
N439 X-201.728 Y-6.211 Z-7.235 A181.4652 
N440 X-201.695 Y-4.826 Z-7.225 A181.4342 
N441 X-201.664 Y-3.499 Z-7.218 
N442 X-201.634 Y-2.233 Z-7.214 A181.4629 
N443 X-201.605 Y-1.046 Z-7.232 A181.8782 
N444 X-201.577 Y0.063 Z-7.280 A182.9029 
N445 X-201.550 Y1.097 Z-7.369 A184.8410 
N446 X-201.523 Y2.070 Z-7.499 A187.9134 
N447 X-201.497 Y3.001 Z-7.666 A192.2724 
N448 X-201.470 Y3.912 Z-7.839 A197.7239 
N449 X-201.446 Y4.811 Z-7.962 A203.6237 
N450 X-201.423 Y5.697 Z-8.001 A209.4917 
N451 X-201.404 Y6.567 Z-7.940 A215.1323 
N452 X-201.389 Y7.410 Z-7.764 A220.2589 
N453 X-201.377 Y8.211 Z-7.462 A224.5346 
N454 X-201.371 Y8.960 Z-7.039 A227.8462 
N455 X-201.368 Y9.661 Z-6.508 A230.2077 
N456 X-201.368 Y10.321 Z-5.885 A231.6882 
N457 X-201.371 Y10.954 Z-5.188 A232.4612 
N458 X-201.376 Y11.576 Z-4.437 A232.7656 
N459 X-201.381 Y12.200 Z-3.653 A232.8309 
N460 X-201.387 Y12.830 Z-2.852 A232.8168 
N461 X-201.393 Y13.464 Z-2.047 A232.7953 
N462 X-201.399 Y14.093 Z-1.251 A232.7858 
N463 X-201.404 Y14.708 Z-0.474 A232.7773 
N464 X-201.410 Y15.301 Z0.273 A232.7738 
N465 X-201.415 Y15.865 Z0.981 
N466 X-201.419 Y16.393 Z1.645 
N467 X-201.424 Y16.882 Z2.259 A232.7824 
N468 X-201.427 Y17.333 Z2.806 A232.9872 
N469 X-201.430 Y17.746 Z3.286 A233.4197 
N470 X-201.431 Y18.125 Z3.692 A234.1935 
N471 X-201.432 Y18.481 Z4.029 A235.4238 
N472 X-201.431 Y18.818 Z4.294 A237.1993 
N473 X-201.428 Y19.151 Z4.497 A239.5982 
N474 X-201.424 Y19.474 Z4.643 A242.5065 
N475 X-201.419 Y19.802 Z4.751 A245.9342 
N476 X-201.413 Y20.130 Z4.828 A249.7511 
N477 X-201.407 Y20.465 Z4.888 A253.9321 
N478 X-201.399 Y20.825 Z4.945 A258.6287 
N479 X-201.394 Y21.127 Z4.996 A262.6781 
N480 X-201.387 Y21.468 Z5.065 A267.3446 
N481 X-201.382 Y21.749 Z5.135 A271.2824 
N482 X-201.378 Y22.014 Z5.214 A275.0518 
N483 X-201.374 Y22.295 Z5.314 A279.1364 
N484 X-201.371 Y22.561 Z5.425 A283.1003 
N485 X-201.368 Y22.774 Z5.528 A286.3449 
N486 X-201.366 Y22.987 Z5.646 A289.7097 
N487 X-201.364 Y23.200 Z5.778 A293.1619 
N488 X-201.363 Y23.407 Z5.924 A296.6635 
N489 X-201.363 Y23.610 Z6.087 A300.2678 
N490 X-201.363 Y23.806 Z6.267 A303.9380 
N491 X-201.363 Y23.987 Z6.456 A307.5354 
N492 X-201.365 Y24.148 Z6.650 A311.0183 
N493 X-201.366 Y24.291 Z6.847 A314.3634 
N494 X-201.370 Y24.466 Z7.136 A319.0034 
N495 X-201.374 Y24.606 Z7.426 A323.3949 
N496 X-201.379 Y24.708 Z7.703 A327.4089 
N497 X-201.386 Y24.801 Z8.085 A332.6945 
N498 X-201.394 Y24.835 Z8.428 A337.2544 
N499 X-201.406 Y24.810 Z8.827 A342.3685 
N500 X-201.417 Y24.710 Z9.187 A346.8493 
N501 X-201.430 Y24.531 Z9.510 A350.7679 
N502 X-201.443 Y24.276 Z9.783 A354.0398 
N503 X-201.458 Y23.924 Z10.009 A356.7348 
N504 X-201.472 Y23.488 Z10.170 A358.6500 
N505 X-201.488 Y22.958 Z10.272 A359.8710 
N506 X-201.504 Y22.323 Z10.329 A0.5548 
N507 X-201.523 Y21.579 Z10.356 A0.8779 
N508 X-201.543 Y20.722 Z10.365 A1.0023 
N509 X-201.567 Y19.749 Z10.367 A1.0336 
N510 X-201.593 Y18.662 Z10.367 A1.0287 
N511 X-201.621 Y17.468 Z10.367 A1.0154 
N512 X-201.652 Y16.179 Z10.367 A1.0086 
N513 X-201.685 Y14.811 Z10.369 
N514 X-201.719 Y13.382 Z10.371 
N515 X-201.754 Y11.916 Z10.373 
N516 X-201.790 Y10.438 Z10.375 A1.0096 
N517 X-201.825 Y8.972 Z10.378 A1.0121 
N518 X-201.859 Y7.543 Z10.380 A1.0164 
N519 X-201.892 Y6.172 Z10.383 A1.0236 
N520 X-201.923 Y4.875 Z10.386 A1.0336 
N521 X-201.952 Y3.666 Z10.389 A1.0404 
N522 X-201.979 Y2.552 Z10.391 A1.0412 
N523 X-202.003 Y1.534 Z10.391 A1.0086 
N524 X-202.025 Y0.612 Z10.394 
N525 X-202.046 Y-0.235 Z10.416 A1.2904 
N526 X-202.069 Y-1.013 Z10.586 A3.8959 
N527 X-202.099 Y-1.787 Z11.010 A10.9538 
N528 X-202.133 Y-2.640 Z11.545 A21.3264 
N529 X-202.167 Y-3.581 Z11.965 A32.4389 
N530 X-202.194 Y-4.528 Z12.141 A42.3875 
N531 X-202.210 Y-5.348 Z12.016 A49.3414 
N532 X-202.214 Y-5.953 Z11.619 A52.2917 
N533 X-202.212 Y-6.442 Z11.072 A52.9285 
N534 X-202.207 Y-6.926 Z10.458 A52.9624 
N535 X-202.202 Y-7.441 Z9.799 A52.9298 
N536 X-202.197 Y-7.991 Z9.097 A52.9196 
N537 X-202.192 Y-8.573 Z8.356 
N538 X-202.186 Y-9.183 Z7.580 A52.9212 
N539 X-202.180 Y-9.813 Z6.781 A52.9329 
N540 X-202.174 Y-10.454 Z5.968 A52.9438 
N541 X-202.169 Y-11.094 Z5.154 A52.9492 
N542 X-202.163 Y-11.725 Z4.351 A52.9445 
N543 X-202.157 Y-12.337 Z3.573 A52.9216 
N544 X-202.152 Y-12.920 Z2.833 A52.9196 
N545 X-202.147 Y-13.470 Z2.137 
N546 X-202.142 Y-13.982 Z1.492 A52.9708 
N547 X-202.138 Y-14.457 Z0.917 A53.2384 
N548 X-202.136 Y-14.895 Z0.412 A53.7818 
N549 X-202.134 Y-15.302 Z-0.021 A54.7248 
N550 X-202.134 Y-15.683 Z-0.375 A56.1666 
N551 X-202.135 Y-16.050 Z-0.659 A58.2348 
N552 X-202.138 Y-16.412 Z-0.877 A60.9699 
N553 X-202.142 Y-16.769 Z-1.043 A64.2780 
N554 X-202.148 Y-17.125 Z-1.174 A68.0488 
N555 X-202.153 Y-17.470 Z-1.279 A72.0502 
N556 X-202.159 Y-17.801 Z-1.367 A76.1555 
N557 X-202.164 Y-18.125 Z-1.449 A80.3424 
N558 X-202.170 Y-18.456 Z-1.538 A84.7642 
N559 X-202.175 Y-18.738 Z-1.621 A88.6354 
N560 X-202.179 Y-19.047 Z-1.725 A92.9812 
N561 X-202.182 Y-19.284 Z-1.817 A96.4065 
N562 X-202.186 Y-19.533 Z-1.925 A100.0752 
N563 X-202.188 Y-19.790 Z-2.053 A103.9725 
N564 X-202.190 Y-20.001 Z-2.172 A107.2641 
N565 X-202.192 Y-20.207 Z-2.303 A110.5947 
N566 X-202.193 Y-20.409 Z-2.447 A113.9877 
N567 X-202.194 Y-20.605 Z-2.605 A117.4118 
N568 X-202.194 Y-20.791 Z-2.774 A120.8478 
N569 X-202.193 Y-20.964 Z-2.952 A124.2382 
N570 X-202.192 Y-21.122 Z-3.137 A127.5483 
N571 X-202.190 Y-21.271 Z-3.338 A130.9492 
N572 X-202.188 Y-21.424 Z-3.579 A134.8150 
N573 X-202.184 Y-21.548 Z-3.817 A138.4380 
N574 X-202.180 Y-21.654 Z-4.068 A142.0937 
N575 X-202.175 Y-21.749 Z-4.375 A146.3629 
N576 X-202.168 Y-21.805 Z-4.668 A150.2566 
N577 X-202.160 Y-21.827 Z-5.016 A154.7190 
N578 X-202.150 Y-21.798 Z-5.360 A158.9717 
N579 X-202.139 Y-21.710 Z-5.702 A163.0840 
N580 X-202.126 Y-21.551 Z-6.041 A167.0608 
N581 X-202.113 Y-21.316 Z-6.359 A170.7452 
N582 X-202.098 Y-21.002 Z-6.636 A173.9536 
N583 X-202.082 Y-20.597 Z-6.866 A176.6183 
N584 X-202.066 Y-20.099 Z-7.037 A178.6129 
N585 X-202.049 Y-19.508 Z-7.151 A179.9822 
N586 X-202.030 Y-18.819 Z-7.220 A180.8591 
N587 X-202.011 Y-18.028 Z-7.254 A181.3671 
N588 X-201.989 Y-17.135 Z-7.264 A181.6171 
N589 X-201.965 Y-16.140 Z-7.258 A181.7045 
N590 X-201.939 Y-15.048 Z-7.246 A181.7104 
N591 X-201.912 Y-13.870 Z-7.231 A181.6946 
N592 X-201.882 Y-12.616 Z-7.216 A181.6865 
N593 X-201.851 Y-11.303 Z-7.202 A181.6893 
N594 X-201.819 Y-9.949 Z-7.188 A181.6954 
N595 X-201.786 Y-8.575 Z-7.174 A181.6974 
N596 X-201.754 Y-7.200 Z-7.159 A181.6878 
N597 X-201.722 Y-5.844 Z-7.145 A181.6865 
N598 X-201.691 Y-4.521 Z-7.133 
N599 X-201.660 Y-3.245 Z-7.125 A181.7637 
N600 X-201.631 Y-2.031 Z-7.137 A182.1838 
N601 X-201.602 Y-0.882 Z-7.178 A183.2118 
N602 X-201.574 Y0.202 Z-7.257 A185.1313 
N603 X-201.547 Y1.229 Z-7.365 A188.0293 
N604 X-201.520 Y2.209 Z-7.484 A191.7937 
N605 X-201.495 Y3.154 Z-7.589 A196.2168 
N606 X-201.471 Y4.072 Z-7.657 A201.0425 
N607 X-201.450 Y4.968 Z-7.665 A205.9687 
N608 X-201.430 Y5.845 Z-7.600 A210.8420 
N609 X-201.414 Y6.704 Z-7.455 A215.5640 
N610 X-201.400 Y7.540 Z-7.219 A219.9595 
N611 X-201.389 Y8.347 Z-6.885 A223.8585 
N612 X-201.382 Y9.115 Z-6.452 A227.1067 
N613 X-201.379 Y9.838 Z-5.922 A229.5403 
N614 X-201.379 Y10.513 Z-5.304 A231.0976 
N615 X-201.381 Y11.153 Z-4.619 A231.9238 
N616 X-201.385 Y11.773 Z-3.889 A232.2647 
N617 X-201.390 Y12.387 Z-3.135 A232.3624 
N618 X-201.396 Y12.997 Z-2.375 A232.3689 
N619 X-201.401 Y13.602 Z-1.619 A232.3518 
N620 X-201.406 Y14.195 Z-0.880 A232.3289 
N621 X-201.411 Y14.768 Z-0.166 A232.2979 
N622 X-201.416 Y15.317 Z0.511 
N623 X-201.420 Y15.835 Z1.150 
N624 X-201.424 Y16.320 Z1.746 A232.3265 
N625 X-201.427 Y16.775 Z2.277 A232.6451 
N626 X-201.429 Y17.200 Z2.744 A233.2758 
N627 X-201.430 Y17.599 Z3.144 A234.3260 
N628 X-201.429 Y17.973 Z3.476 A235.8404 
N629 X-201.428 Y18.333 Z3.744 A237.8988 
N630 X-201.425 Y18.684 Z3.956 A240.5220 
N631 X-201.421 Y19.023 Z4.117 A243.5874 
N632 X-201.416 Y19.354 Z4.245 A247.0110 
N633 X-201.411 Y19.679 Z4.350 A250.6911 
N634 X-201.406 Y20.001 Z4.439 A254.5953 
N635 X-201.400 Y20.330 Z4.522 A258.7874 
N636 X-201.395 Y20.624 Z4.597 A262.6800 
N637 X-201.390 Y20.927 Z4.681 A266.7899 
N638 X-201.386 Y21.192 Z4.763 A270.4697 
N639 X-201.382 Y21.477 Z4.863 A274.5197 
N640 X-201.379 Y21.712 Z4.958 A277.9327 
N641 X-201.376 Y21.942 Z5.063 A281.3581 
N642 X-201.373 Y22.178 Z5.184 A284.9686 
N643 X-201.371 Y22.400 Z5.314 A288.4675 
N644 X-201.370 Y22.598 Z5.444 A291.7072 
N645 X-201.369 Y22.793 Z5.587 A295.0033 
N646 X-201.369 Y22.980 Z5.741 A298.3270 
N647 X-201.369 Y23.163 Z5.912 A301.7491 
N648 X-201.369 Y23.342 Z6.100 A305.3027 
N649 X-201.371 Y23.504 Z6.296 A308.7656 
N650 X-201.372 Y23.647 Z6.495 A312.1052 
N651 X-201.375 Y23.797 Z6.741 A316.0113 
N652 X-201.379 Y23.931 Z7.008 A320.0488 
N653 X-201.383 Y24.032 Z7.267 A323.7800 
N654 X-201.390 Y24.126 Z7.606 A328.4507 
N655 X-201.397 Y24.175 Z7.926 A332.6844 
N656 X-201.407 Y24.180 Z8.306 A337.5446 
N657 X-201.418 Y24.121 Z8.674 A342.0778 
N658 X-201.430 Y23.990 Z9.029 A346.3397 
N659 X-201.444 Y23.780 Z9.361 A350.2508 
N660 X-201.459 Y23.488 Z9.652 A353.6640 
N661 X-201.474 Y23.100 Z9.891 A356.4555 
N662 X-201.490 Y22.617 Z10.062 A358.4520 
N663 X-201.507 Y22.037 Z10.171 A359.7100 
N664 X-201.525 Y21.355 Z10.231 A0.4144 
N665 X-201.545 Y20.564 Z10.261 A0.7604 
N666 X-201.566 Y19.663 Z10.274 A0.9013 
N667 X-201.591 Y18.651 Z10.278 A0.9349 
N668 X-201.617 Y17.534 Z10.280 A0.9235 
N669 X-201.647 Y16.320 Z10.281 A0.9035 
N670 X-201.678 Y15.022 Z10.285 A0.8987 
N671 X-201.710 Y13.658 Z10.290 
N672 X-201.744 Y12.247 Z10.296 
N673 X-201.779 Y10.814 Z10.301 A0.8989 
N674 X-201.813 Y9.382 Z10.307 A0.9023 
N675 X-201.847 Y7.975 Z10.313 A0.9067 
N676 X-201.880 Y6.614 Z10.319 A0.9140 
N677 X-201.911 Y5.318 Z10.325 A0.9239 
N678 X-201.940 Y4.102 Z10.330 A0.9302 
N679 X-201.967 Y2.974 Z10.335 A0.9280 
N680 X-201.992 Y1.939 Z10.338 A0.8987 
N681 X-202.015 Y0.998 Z10.344 
N682 X-202.036 Y0.132 Z10.357 A1.0212 
N683 X-202.058 Y-0.657 Z10.471 A2.7236 
N684 X-202.085 Y-1.416 Z10.810 A8.2174 
N685 X-202.117 Y-2.218 Z11.301 A17.2450 
N686 X-202.149 Y-3.098 Z11.744 A27.5571 
N687 X-202.178 Y-4.015 Z12.005 A37.4542 
N688 X-202.199 Y-4.885 Z12.025 A45.6829 
N689 X-202.210 Y-5.596 Z11.777 A50.7142 
N690 X-202.211 Y-6.134 Z11.321 A52.5197 
N691 X-202.208 Y-6.609 Z10.760 A52.8821 
N692 X-202.203 Y-7.094 Z10.145 A52.8962 
N693 X-202.198 Y-7.607 Z9.488 A52.8653 
N694 X-202.193 Y-8.152 Z8.795 A52.8551 
N695 X-202.188 Y-8.724 Z8.068 
N696 X-202.182 Y-9.318 Z7.316 A52.8665 
N697 X-202.177 Y-9.924 Z6.549 A52.8824 
N698 X-202.171 Y-10.535 Z5.776 A52.8926 
N699 X-202.166 Y-11.139 Z5.009 A52.8920 
N700 X-202.160 Y-11.728 Z4.261 A52.8652 
N701 X-202.155 Y-12.295 Z3.543 A52.8551 
N702 X-202.150 Y-12.833 Z2.864 
N703 X-202.146 Y-13.342 Z2.229 A52.9318 
N704 X-202.143 Y-13.823 Z1.662 A53.3351 
N705 X-202.140 Y-14.276 Z1.162 A54.1342 
N706 X-202.140 Y-14.707 Z0.732 A55.4291 
N707 X-202.140 Y-15.113 Z0.372 A57.2366 
N708 X-202.141 Y-15.503 Z0.075 A59.5980 
N709 X-202.144 Y-15.876 Z-0.164 A62.4648 
N710 X-202.148 Y-16.246 Z-0.362 A65.8517 
N711 X-202.152 Y-16.593 Z-0.521 A69.4459 
N712 X-202.156 Y-16.931 Z-0.662 A73.2497 
N713 X-202.161 Y-17.255 Z-0.787 A77.1572 
N714 X-202.165 Y-17.567 Z-0.904 A81.1267 
N715 X-202.170 Y-17.874 Z-1.021 A85.1812 
N716 X-202.173 Y-18.144 Z-1.131 A88.8609 
N717 X-202.176 Y-18.414 Z-1.249 A92.6590 
N718 X-202.179 Y-18.656 Z-1.366 A96.1516 
N719 X-202.182 Y-18.904 Z-1.498 A99.8484 
N720 X-202.184 Y-19.115 Z-1.622 A103.0822 
N721 X-202.185 Y-19.327 Z-1.760 A106.4496 
N722 X-202.186 Y-19.531 Z-1.908 A109.8169 
N723 X-202.187 Y-19.718 Z-2.058 A113.0116 
N724 X-202.187 Y-19.897 Z-2.220 A116.2392 
N725 X-202.186 Y-20.069 Z-2.392 A119.4917 
N726 X-202.185 Y-20.232 Z-2.576 A122.7757 
N727 X-202.184 Y-20.380 Z-2.767 A126.0004 
N728 X-202.182 Y-20.518 Z-2.970 A129.2692 
N729 X-202.179 Y-20.650 Z-3.198 A132.7618 
N730 X-202.176 Y-20.760 Z-3.426 A136.0835 
N731 X-202.171 Y-20.861 Z-3.686 A139.7322 
N732 X-202.166 Y-20.937 Z-3.953 A143.3179 
N733 X-202.160 Y-20.991 Z-4.248 A147.1331 
N734 X-202.153 Y-21.012 Z-4.545 A150.8280 
N735 X-202.143 Y-20.993 Z-4.882 A154.9035 
N736 X-202.133 Y-20.925 Z-5.223 A158.8838 
N737 X-202.121 Y-20.798 Z-5.563 A162.7714 
N738 X-202.108 Y-20.606 Z-5.895 A166.5035 
N739 X-202.093 Y-20.334 Z-6.221 A170.1457 
N740 X-202.077 Y-19.982 Z-6.510 A173.3838 
N741 X-202.060 Y-19.540 Z-6.755 A176.1404 
N742 X-202.042 Y-19.004 Z-6.946 A178.3307 
N743 X-202.023 Y-18.377 Z-7.080 A179.9510 
N744 X-202.004 Y-17.656 Z-7.164 A181.0544 
N745 X-201.983 Y-16.839 Z-7.205 A181.7027 
N746 X-201.961 Y-15.927 Z-7.212 A182.0045 
N747 X-201.938 Y-14.923 Z-7.200 A182.0909 
N748 X-201.912 Y-13.834 Z-7.180 A182.0866 
N749 X-201.885 Y-12.670 Z-7.158 A182.0689 
N750 X-201.856 Y-11.443 Z-7.136 A182.0636 
N751 X-201.826 Y-10.169 Z-7.115 A182.0664 
N752 X-201.796 Y-8.865 Z-7.093 A182.0613 
N753 X-201.765 Y-7.551 Z-7.072 A182.0599 
N754 X-201.734 Y-6.242 Z-7.052 
N755 X-201.703 Y-4.952 Z-7.032 
N756 X-201.674 Y-3.700 Z-7.022 A182.2382 
N757 X-201.645 Y-2.495 Z-7.029 A182.7391 
N758 X-201.616 Y-1.345 Z-7.063 A183.8254 
N759 X-201.588 Y-0.249 Z-7.129 A185.7429 
N760 X-201.561 Y0.796 Z-7.220 A188.5718 
N761 X-201.535 Y1.798 Z-7.313 A192.1402 
N762 X-201.510 Y2.765 Z-7.384 A196.1978 
N763 X-201.486 Y3.703 Z-7.416 A200.5697 
N764 X-201.465 Y4.616 Z-7.395 A205.0755 
N765 X-201.446 Y5.509 Z-7.311 A209.5813 
N766 X-201.429 Y6.384 Z-7.155 A214.0102 
N767 X-201.415 Y7.240 Z-6.920 A218.2464 
N768 X-201.403 Y8.071 Z-6.597 A222.1227 
N769 X-201.395 Y8.869 Z-6.183 A225.4939 
N770 X-201.390 Y9.624 Z-5.676 A228.1722 
N771 X-201.389 Y10.331 Z-5.083 A230.0160 
N772 X-201.390 Y10.994 Z-4.420 A231.0713 
N773 X-201.394 Y11.627 Z-3.710 A231.5504 
N774 X-201.398 Y12.246 Z-2.975 A231.7061 
N775 X-201.403 Y12.856 Z-2.234 A231.7307 
N776 X-201.408 Y13.457 Z-1.500 A231.7170 
N777 X-201.412 Y14.044 Z-0.784 A231.6972 
N778 X-201.417 Y14.610 Z-0.095 A231.6631 
N779 X-201.421 Y15.149 Z0.557 A231.6491 
N780 X-201.425 Y15.657 Z1.169 
N781 X-201.428 Y16.133 Z1.741 
N782 X-201.431 Y16.578 Z2.253 A231.9026 
N783 X-201.432 Y16.996 Z2.699 A232.5198 
N784 X-201.433 Y17.389 Z3.077 A233.5926 
N785 X-201.432 Y17.765 Z3.388 A235.2092 
N786 X-201.430 Y18.128 Z3.634 A237.4328 
N787 X-201.426 Y18.493 Z3.827 A240.3369 
N788 X-201.421 Y18.846 Z3.970 A243.6996 
N789 X-201.416 Y19.198 Z4.085 A247.4644 
N790 X-201.411 Y19.534 Z4.184 A251.3548 
N791 X-201.405 Y19.857 Z4.273 A255.3104 
N792 X-201.400 Y20.175 Z4.359 A259.3764 
N793 X-201.395 Y20.468 Z4.442 A263.2463 
N794 X-201.390 Y20.749 Z4.528 A267.0556 
N795 X-201.386 Y21.015 Z4.619 A270.7501 
N796 X-201.383 Y21.282 Z4.721 A274.5458 
N797 X-201.380 Y21.505 Z4.817 A277.7951 
N798 X-201.377 Y21.736 Z4.928 A281.2483 
N799 X-201.375 Y21.966 Z5.053 A284.7748 
N800 X-201.373 Y22.163 Z5.172 A287.8995 
N801 X-201.372 Y22.359 Z5.305 A291.1096 
N802 X-201.371 Y22.551 Z5.449 A294.3786 
N803 X-201.371 Y22.737 Z5.606 A297.6792 
N804 X-201.371 Y22.913 Z5.773 A300.9803 
N805 X-201.372 Y23.078 Z5.948 A304.2515 
N806 X-201.373 Y23.229 Z6.131 A307.4638 
N807 X-201.375 Y23.387 Z6.350 A311.1248 
N808 X-201.378 Y23.529 Z6.582 A314.8021 
N809 X-201.381 Y23.648 Z6.813 A318.2870 
N810 X-201.385 Y23.766 Z7.102 A322.4623 
N811 X-201.391 Y23.854 Z7.400 A326.5787 
N812 X-201.398 Y23.914 Z7.735 A331.0254 
N813 X-201.407 Y23.933 Z8.079 A335.4396 
N814 X-201.418 Y23.897 Z8.474 A340.3543 
N815 X-201.431 Y23.791 Z8.858 A345.0248 
N816 X-201.444 Y23.607 Z9.217 A349.3192 
N817 X-201.460 Y23.330 Z9.546 A353.2350 
N818 X-201.475 Y22.964 Z9.806 A356.3397 
N819 X-201.491 Y22.502 Z9.991 A358.5411 
N820 X-201.507 Y21.943 Z10.101 A359.8486 
N821 X-201.525 Y21.285 Z10.155 A0.4915 
N822 X-201.543 Y20.523 Z10.178 A0.7409 
N823 X-201.564 Y19.650 Z10.186 A0.8074 
N824 X-201.588 Y18.668 Z10.190 A0.8070 
N825 X-201.614 Y17.580 Z10.194 A0.7917 
N826 X-201.643 Y16.393 Z10.199 A0.7806 
N827 X-201.673 Y15.122 Z10.206 
N828 X-201.706 Y13.780 Z10.213 
N829 X-201.739 Y12.390 Z10.221 
N830 X-201.773 Y10.973 Z10.229 A0.7811 
N831 X-201.807 Y9.554 Z10.238 A0.7842 
N832 X-201.841 Y8.155 Z10.246 A0.7889 
N833 X-201.874 Y6.799 Z10.255 A0.7968 
N834 X-201.905 Y5.504 Z10.263 A0.8077 
N835 X-201.934 Y4.285 Z10.271 A0.8150 
N836 X-201.961 Y3.153 Z10.278 A0.8122 
N837 X-201.986 Y2.112 Z10.283 A0.7806 
N838 X-202.009 Y1.163 Z10.290 
N839 X-202.031 Y0.292 Z10.304 A0.8912 
N840 X-202.052 Y-0.501 Z10.409 A2.4377 
N841 X-202.079 Y-1.258 Z10.729 A7.5773 
N842 X-202.110 Y-2.045 Z11.199 A16.1257 
N843 X-202.141 Y-2.895 Z11.625 A25.8405 
N844 X-202.170 Y-3.781 Z11.896 A35.3324 
N845 X-202.192 Y-4.644 Z11.960 A43.6298 
N846 X-202.205 Y-5.393 Z11.787 A49.4954 
N847 X-202.209 Y-5.965 Z11.390 A52.0791 
N848 X-202.206 Y-6.443 Z10.866 A52.7545 
N849 X-202.202 Y-6.913 Z10.281 A52.8444 
N850 X-202.198 Y-7.404 Z9.654 A52.8189 
N851 X-202.193 Y-7.924 Z8.992 A52.7986 
N852 X-202.188 Y-8.470 Z8.301 
N853 X-202.183 Y-9.037 Z7.585 A52.8059 
N854 X-202.178 Y-9.616 Z6.854 A52.8206 
N855 X-202.172 Y-10.199 Z6.117 A52.8278 
N856 X-202.167 Y-10.777 Z5.386 A52.8261 
N857 X-202.162 Y-11.342 Z4.670 A52.7986 
N858 X-202.157 Y-11.887 Z3.983 
N859 X-202.152 Y-12.407 Z3.329 
N860 X-202.148 Y-12.901 Z2.720 A52.9355 
N861 X-202.145 Y-13.374 Z2.175 A53.4530 
N862 X-202.144 Y-13.827 Z1.696 A54.4594 
N863 X-202.143 Y-14.263 Z1.286 A56.0502 
N864 X-202.144 Y-14.679 Z0.941 A58.1882 
N865 X-202.146 Y-15.079 Z0.651 A60.8551 
N866 X-202.149 Y-15.463 Z0.409 A63.9667 
N867 X-202.153 Y-15.839 Z0.203 A67.5098 
N868 X-202.157 Y-16.189 Z0.028 A71.1774 
N869 X-202.160 Y-16.523 Z-0.131 A74.9654 
N870 X-202.164 Y-16.840 Z-0.277 A78.7847 
N871 X-202.168 Y-17.140 Z-0.417 A82.5953 
N872 X-202.171 Y-17.426 Z-0.554 A86.3700 
N873 X-202.174 Y-17.691 Z-0.688 A90.0042 
N874 X-202.176 Y-17.935 Z-0.821 A93.4645 
N875 X-202.178 Y-18.177 Z-0.963 A97.0160 
N876 X-202.180 Y-18.390 Z-1.100 A100.2407 
N877 X-202.181 Y-18.603 Z-1.249 A103.5787 
N878 X-202.182 Y-18.797 Z-1.398 A106.7490 
N879 X-202.182 Y-18.984 Z-1.556 A109.9199 
N880 X-202.182 Y-19.162 Z-1.722 A113.0906 
N881 X-202.181 Y-19.328 Z-1.894 A116.1980 
N882 X-202.181 Y-19.484 Z-2.075 A119.3058 
N883 X-202.179 Y-19.632 Z-2.267 A122.4645 
N884 X-202.177 Y-19.767 Z-2.467 A125.5847 
N885 X-202.175 Y-19.891 Z-2.678 A128.7506 
N886 X-202.171 Y-20.003 Z-2.902 A131.9824 
N887 X-202.168 Y-20.099 Z-3.133 A135.1694 
N888 X-202.163 Y-20.182 Z-3.390 A138.5850 
N889 X-202.157 Y-20.243 Z-3.653 A141.9524 
N890 X-202.151 Y-20.283 Z-3.940 A145.5112 
N891 X-202.143 Y-20.294 Z-4.243 A149.1524 
N892 X-202.135 Y-20.269 Z-4.557 A152.8054 
N893 X-202.124 Y-20.202 Z-4.886 A156.5410 
N894 X-202.112 Y-20.081 Z-5.229 A160.3549 
N895 X-202.099 Y-19.896 Z-5.576 A164.1510 
N896 X-202.084 Y-19.647 Z-5.909 A167.7730 
N897 X-202.068 Y-19.313 Z-6.230 A171.2662 
N898 X-202.051 Y-18.896 Z-6.511 A174.3602 
N899 X-202.032 Y-18.392 Z-6.745 A176.9957 
N900 X-202.013 Y-17.795 Z-6.927 A179.1261 
N901 X-201.994 Y-17.108 Z-7.051 A180.6949 
N902 X-201.973 Y-16.330 Z-7.119 A181.7036 
N903 X-201.952 Y-15.462 Z-7.142 A182.2413 
N904 X-201.929 Y-14.509 Z-7.135 A182.4583 
N905 X-201.905 Y-13.474 Z-7.112 A182.5131 
N906 X-201.880 Y-12.366 Z-7.084 A182.5155 
N907 X-201.852 Y-11.197 Z-7.054 A182.5103 
N908 X-201.824 Y-9.981 Z-7.023 A182.5052 
N909 X-201.795 Y-8.732 Z-6.991 A182.4858 
N910 X-201.766 Y-7.469 Z-6.962 A182.4833 
N911 X-201.736 Y-6.205 Z-6.933 
N912 X-201.707 Y-4.952 Z-6.906 A182.5254 
N913 X-201.678 Y-3.732 Z-6.893 A182.8067 
N914 X-201.650 Y-2.551 Z-6.897 A183.4481 
N915 X-201.622 Y-1.416 Z-6.926 A184.6826 
N916 X-201.594 Y-0.327 Z-6.983 A186.7101 
N917 X-201.567 Y0.719 Z-7.059 A189.5819 
N918 X-201.541 Y1.727 Z-7.131 A193.1147 
N919 X-201.517 Y2.703 Z-7.176 A197.0658 
N920 X-201.494 Y3.652 Z-7.180 A201.2834 
N921 X-201.473 Y4.579 Z-7.131 A205.6202 
N922 X-201.454 Y5.486 Z-7.018 A209.9566 
N923 X-201.438 Y6.375 Z-6.836 A214.2262 
N924 X-201.424 Y7.245 Z-6.576 A218.3214 
N925 X-201.413 Y8.087 Z-6.230 A222.0504 
N926 X-201.405 Y8.895 Z-5.794 A225.2554 
N927 X-201.400 Y9.659 Z-5.270 A227.7788 
N928 X-201.399 Y10.375 Z-4.666 A229.5053 
N929 X-201.400 Y11.046 Z-3.998 A230.4749 
N930 X-201.403 Y11.687 Z-3.288 A230.8876 
N931 X-201.407 Y12.311 Z-2.559 A230.9916 
N932 X-201.412 Y12.924 Z-1.830 A230.9845 
N933 X-201.416 Y13.526 Z-1.115 A230.9601 
N934 X-201.420 Y14.111 Z-0.423 A230.9450 
N935 X-201.424 Y14.671 Z0.240 A230.9193 
N936 X-201.427 Y15.201 Z0.862 A230.9089 
N937 X-201.431 Y15.697 Z1.442 
N938 X-201.434 Y16.159 Z1.982 
N939 X-201.436 Y16.590 Z2.462 A231.1590 
N940 X-201.437 Y16.997 Z2.876 A231.8407 
N941 X-201.437 Y17.381 Z3.218 A233.0370 
N942 X-201.435 Y17.752 Z3.494 A234.8462 
N943 X-201.432 Y18.118 Z3.707 A237.3338 
N944 X-201.427 Y18.484 Z3.866 A240.5084 
N945 X-201.422 Y18.855 Z3.984 A244.2858 
N946 X-201.415 Y19.215 Z4.078 A248.3328 
N947 X-201.409 Y19.561 Z4.164 A252.4679 
N948 X-201.404 Y19.883 Z4.243 A256.4944 
N949 X-201.399 Y20.186 Z4.321 A260.4176 
N950 X-201.393 Y20.494 Z4.408 A264.5375 
N951 X-201.389 Y20.751 Z4.489 A268.0413 
N952 X-201.385 Y21.025 Z4.586 A271.8747 
N953 X-201.382 Y21.255 Z4.678 A275.1719 
N954 X-201.379 Y21.483 Z4.780 A278.5106 
N955 X-201.377 Y21.718 Z4.898 A282.0356 
N956 X-201.375 Y21.918 Z5.011 A285.1373 
N957 X-201.374 Y22.114 Z5.133 A288.2617 
N958 X-201.372 Y22.308 Z5.268 A291.4633 
N959 X-201.372 Y22.496 Z5.414 A294.6837 
N960 X-201.372 Y22.672 Z5.567 A297.8476 
N961 X-201.372 Y22.840 Z5.729 A301.0118 
N962 X-201.372 Y22.997 Z5.899 A304.1528 
N963 X-201.374 Y23.155 Z6.093 A307.5397 
N964 X-201.376 Y23.306 Z6.305 A311.0601 
N965 X-201.378 Y23.437 Z6.521 A314.4592 
N966 X-201.382 Y23.562 Z6.764 A318.1348 
N967 X-201.386 Y23.679 Z7.050 A322.2576 
N968 X-201.391 Y23.764 Z7.329 A326.1213 
N969 X-201.399 Y23.833 Z7.687 A330.8958 
N970 X-201.408 Y23.857 Z8.050 A335.5787 
N971 X-201.419 Y23.829 Z8.442 A340.5161 
N972 X-201.432 Y23.727 Z8.846 A345.4919 
N973 X-201.446 Y23.539 Z9.222 A350.0493 
N974 X-201.462 Y23.255 Z9.551 A354.0100 
N975 X-201.477 Y22.886 Z9.800 A357.0060 
N976 X-201.492 Y22.421 Z9.968 A359.0510 
N977 X-201.508 Y21.864 Z10.061 A0.1802 
N978 X-201.525 Y21.205 Z10.102 A0.6677 
N979 X-201.544 Y20.441 Z10.115 A0.7961 
N980 X-201.565 Y19.569 Z10.118 A0.7919 
N981 X-201.588 Y18.586 Z10.122 A0.7648 
N982 X-201.614 Y17.498 Z10.127 A0.7574 
N983 X-201.643 Y16.312 Z10.135 
N984 X-201.674 Y15.041 Z10.143 
N985 X-201.706 Y13.701 Z10.152 
N986 X-201.739 Y12.313 Z10.161 
N987 X-201.773 Y10.900 Z10.171 A0.7587 
N988 X-201.807 Y9.486 Z10.181 A0.7615 
N989 X-201.841 Y8.093 Z10.190 A0.7666 
N990 X-201.874 Y6.744 Z10.200 A0.7753 
N991 X-201.905 Y5.456 Z10.209 A0.7863 
N992 X-201.934 Y4.246 Z10.218 A0.7937 
N993 X-201.961 Y3.122 Z10.225 A0.7849 
N994 X-201.986 Y2.089 Z10.231 A0.7574 
N995 X-202.008 Y1.148 Z10.239 
N996 X-202.030 Y0.284 Z10.260 A0.9705 
N997 X-202.052 Y-0.503 Z10.384 A2.8029 
N998 X-202.078 Y-1.257 Z10.719 A8.2585 
N999 X-202.109 Y-2.041 Z11.175 A16.7208 
N1000 X-202.140 Y-2.878 Z11.576 A26.1091 
N1001 X-202.167 Y-3.742 Z11.828 A35.2307 
N1002 X-202.189 Y-4.584 Z11.888 A43.2494 
N1003 X-202.202 Y-5.321 Z11.727 A49.0540 
N1004 X-202.206 Y-5.893 Z11.354 A51.7986 
N1005 X-202.204 Y-6.368 Z10.854 A52.6148 
N1006 X-202.201 Y-6.827 Z10.291 A52.7586 
N1007 X-202.196 Y-7.301 Z9.688 A52.7422 
N1008 X-202.192 Y-7.801 Z9.054 A52.7158 
N1009 X-202.187 Y-8.324 Z8.393 A52.7145 
N1010 X-202.182 Y-8.865 Z7.712 A52.7200 
N1011 X-202.177 Y-9.416 Z7.017 A52.7268 
N1012 X-202.172 Y-9.970 Z6.319 A52.7254 
N1013 X-202.167 Y-10.519 Z5.627 A52.7145 
N1014 X-202.162 Y-11.056 Z4.953 
N1015 X-202.158 Y-11.573 Z4.303 
N1016 X-202.153 Y-12.069 Z3.685 A52.7621 
N1017 X-202.150 Y-12.545 Z3.120 A53.1041 
N1018 X-202.148 Y-13.005 Z2.615 A53.8797 
N1019 X-202.147 Y-13.452 Z2.175 A55.2540 
N1020 X-202.148 Y-13.890 Z1.798 A57.2780 
N1021 X-202.150 Y-14.312 Z1.478 A59.8753 
N1022 X-202.152 Y-14.718 Z1.205 A62.9314 
N1023 X-202.155 Y-15.106 Z0.968 A66.3432 
N1024 X-202.159 Y-15.472 Z0.762 A69.9556 
N1025 X-202.162 Y-15.823 Z0.571 A73.7454 
N1026 X-202.165 Y-16.151 Z0.394 A77.5326 
N1027 X-202.168 Y-16.455 Z0.228 A81.2531 
N1028 X-202.171 Y-16.737 Z0.068 A84.8835 
N1029 X-202.173 Y-16.998 Z-0.086 A88.3762 
N1030 X-202.175 Y-17.244 Z-0.241 A91.8127 
N1031 X-202.176 Y-17.481 Z-0.401 A95.2338 
N1032 X-202.177 Y-17.692 Z-0.555 A98.4219 
N1033 X-202.178 Y-17.897 Z-0.716 A101.6242 
N1034 X-202.178 Y-18.088 Z-0.880 A104.7363 
N1035 X-202.178 Y-18.269 Z-1.050 A107.8267 
N1036 X-202.178 Y-18.439 Z-1.224 A110.8672 
N1037 X-202.177 Y-18.599 Z-1.406 A113.9007 
N1038 X-202.175 Y-18.747 Z-1.594 A116.9025 
N1039 X-202.174 Y-18.886 Z-1.790 A119.9115 
N1040 X-202.171 Y-19.014 Z-1.994 A122.9168 
N1041 X-202.169 Y-19.130 Z-2.207 A125.9308 
N1042 X-202.165 Y-19.235 Z-2.429 A128.9768 
N1043 X-202.161 Y-19.326 Z-2.662 A132.0448 
N1044 X-202.157 Y-19.402 Z-2.905 A135.1516 
N1045 X-202.152 Y-19.462 Z-3.162 A138.3394 
N1046 X-202.146 Y-19.501 Z-3.425 A141.4976 
N1047 X-202.139 Y-19.520 Z-3.715 A144.8760 
N1048 X-202.130 Y-19.510 Z-4.015 A148.2977 
N1049 X-202.121 Y-19.469 Z-4.329 A151.7831 
N1050 X-202.111 Y-19.387 Z-4.658 A155.3673 
N1051 X-202.099 Y-19.256 Z-4.999 A159.0229 
N1052 X-202.085 Y-19.071 Z-5.343 A162.6652 
N1053 X-202.070 Y-18.819 Z-5.687 A166.3167 
N1054 X-202.054 Y-18.493 Z-6.019 A169.8496 
N1055 X-202.036 Y-18.084 Z-6.325 A173.1542 
N1056 X-202.017 Y-17.588 Z-6.592 A176.1235 
N1057 X-201.998 Y-17.007 Z-6.806 A178.6220 
N1058 X-201.978 Y-16.336 Z-6.958 A180.5484 
N1059 X-201.957 Y-15.580 Z-7.047 A181.8422 
N1060 X-201.936 Y-14.741 Z-7.081 A182.5838 
N1061 X-201.914 Y-13.822 Z-7.078 A182.9380 
N1062 X-201.891 Y-12.827 Z-7.053 A183.0786 
N1063 X-201.867 Y-11.764 Z-7.018 A183.1242 
N1064 X-201.841 Y-10.644 Z-6.978 A183.1297 
N1065 X-201.814 Y-9.478 Z-6.935 A183.1152 
N1066 X-201.787 Y-8.281 Z-6.891 A183.0799 
N1067 X-201.759 Y-7.070 Z-6.850 
N1068 X-201.731 Y-5.853 Z-6.810 
N1069 X-201.703 Y-4.647 Z-6.776 A183.1935 
N1070 X-201.675 Y-3.466 Z-6.758 A183.5924 
N1071 X-201.648 Y-2.319 Z-6.759 A184.4202 
N1072 X-201.620 Y-1.210 Z-6.785 A185.8933 
N1073 X-201.593 Y-0.139 Z-6.836 A188.1739 
N1074 X-201.567 Y0.898 Z-6.899 A191.2373 
N1075 X-201.542 Y1.905 Z-6.948 A194.8559 
N1076 X-201.518 Y2.885 Z-6.962 A198.8042 
N1077 X-201.496 Y3.842 Z-6.930 A202.9600 
N1078 X-201.476 Y4.778 Z-6.841 A207.1957 
N1079 X-201.458 Y5.697 Z-6.687 A211.4185 
N1080 X-201.442 Y6.599 Z-6.462 A215.5811 
N1081 X-201.429 Y7.479 Z-6.158 A219.5288 
N1082 X-201.419 Y8.324 Z-5.764 A222.9961 
N1083 X-201.412 Y9.127 Z-5.278 A225.8071 
N1084 X-201.409 Y9.882 Z-4.711 A227.8843 
N1085 X-201.409 Y10.590 Z-4.075 A229.2124 
N1086 X-201.411 Y11.260 Z-3.390 A229.8925 
N1087 X-201.414 Y11.903 Z-2.676 A230.1240 
N1088 X-201.418 Y12.530 Z-1.956 A230.1329 
N1089 X-201.422 Y13.144 Z-1.245 A230.0851 
N1090 X-201.425 Y13.743 Z-0.557 A230.0536 
N1091 X-201.429 Y14.320 Z0.102 A230.0423 
N1092 X-201.432 Y14.867 Z0.725 A230.0346 
N1093 X-201.435 Y15.380 Z1.306 
N1094 X-201.437 Y15.857 Z1.844 
N1095 X-201.440 Y16.300 Z2.341 A230.0880 
N1096 X-201.441 Y16.718 Z2.765 A230.6139 
N1097 X-201.441 Y17.116 Z3.120 A231.6743 
N1098 X-201.439 Y17.499 Z3.403 A233.3850 
N1099 X-201.436 Y17.873 Z3.625 A235.7544 
N1100 X-201.431 Y18.236 Z3.790 A238.6956 
N1101 X-201.426 Y18.607 Z3.917 A242.2806 
N1102 X-201.420 Y18.970 Z4.012 A246.2380 
N1103 X-201.413 Y19.322 Z4.092 A250.3689 
N1104 X-201.407 Y19.652 Z4.168 A254.4381 
N1105 X-201.402 Y19.960 Z4.241 A258.3698 
N1106 X-201.397 Y20.267 Z4.321 A262.4201 
N1107 X-201.392 Y20.539 Z4.400 A266.0820 
N1108 X-201.388 Y20.815 Z4.491 A269.8985 
N1109 X-201.385 Y21.046 Z4.577 A273.1629 
N1110 X-201.381 Y21.286 Z4.678 A276.6363 
N1111 X-201.379 Y21.513 Z4.784 A279.9927 
N1112 X-201.377 Y21.716 Z4.891 A283.0753 
N1113 X-201.375 Y21.919 Z5.011 A286.2629 
N1114 X-201.374 Y22.122 Z5.144 A289.5371 
N1115 X-201.373 Y22.304 Z5.276 A292.5866 
N1116 X-201.372 Y22.481 Z5.420 A295.6718 
N1117 X-201.372 Y22.651 Z5.573 A298.7717 
N1118 X-201.373 Y22.816 Z5.738 A301.9355 
N1119 X-201.374 Y22.979 Z5.923 A305.2737 
N1120 X-201.375 Y23.128 Z6.115 A308.5508 
N1121 X-201.377 Y23.260 Z6.310 A311.7413 
N1122 X-201.380 Y23.402 Z6.554 A315.5347 
N1123 X-201.384 Y23.524 Z6.807 A319.2956 
N1124 X-201.388 Y23.623 Z7.069 A323.0233 
N1125 X-201.394 Y23.715 Z7.401 A327.5732 
N1126 X-201.402 Y23.768 Z7.735 A331.9897 
N1127 X-201.412 Y23.782 Z8.127 A337.0193 
N1128 X-201.424 Y23.735 Z8.543 A342.2423 
N1129 X-201.437 Y23.609 Z8.945 A347.1851 
N1130 X-201.452 Y23.398 Z9.302 A351.5096 
N1131 X-201.467 Y23.087 Z9.607 A355.1950 
N1132 X-201.482 Y22.691 Z9.827 A357.8610 
N1133 X-201.498 Y22.198 Z9.968 A359.5793 
N1134 X-201.514 Y21.614 Z10.039 A0.4480 
N1135 X-201.531 Y20.928 Z10.066 A0.7670 
N1136 X-201.550 Y20.135 Z10.073 A0.8115 
N1137 X-201.571 Y19.233 Z10.075 A0.7780 
N1138 X-201.596 Y18.224 Z10.079 A0.7533 
N1139 X-201.623 Y17.111 Z10.086 
N1140 X-201.652 Y15.903 Z10.094 
N1141 X-201.683 Y14.615 Z10.103 
N1142 X-201.715 Y13.266 Z10.113 
N1143 X-201.749 Y11.875 Z10.123 A0.7538 
N1144 X-201.783 Y10.467 Z10.133 A0.7559 
N1145 X-201.817 Y9.064 Z10.143 A0.7598 
N1146 X-201.850 Y7.690 Z10.153 A0.7666 
N1147 X-201.882 Y6.365 Z10.163 A0.7775 
N1148 X-201.912 Y5.106 Z10.172 A0.7861 
N1149 X-201.940 Y3.927 Z10.181 A0.7894 
N1150 X-201.967 Y2.835 Z10.187 A0.7533 
N1151 X-201.991 Y1.838 Z10.195 
N1152 X-202.013 Y0.920 Z10.203 
N1153 X-202.034 Y0.088 Z10.258 A1.4986 
N1154 X-202.058 Y-0.680 Z10.451 A4.5054 
N1155 X-202.086 Y-1.435 Z10.838 A11.1126 
N1156 X-202.116 Y-2.225 Z11.264 A19.6647 
N1157 X-202.144 Y-3.052 Z11.599 A28.5645 
N1158 X-202.169 Y-3.885 Z11.779 A36.9125 
N1159 X-202.188 Y-4.682 Z11.784 A44.1304 
N1160 X-202.200 Y-5.375 Z11.589 A49.2260 
N1161 X-202.203 Y-5.924 Z11.212 A51.6760 
N1162 X-202.201 Y-6.391 Z10.724 A52.4864 
N1163 X-202.198 Y-6.840 Z10.177 A52.6541 
N1164 X-202.194 Y-7.302 Z9.593 A52.6385 
N1165 X-202.189 Y-7.785 Z8.982 A52.6100 
N1166 X-202.185 Y-8.287 Z8.350 A52.6053 
N1167 X-202.180 Y-8.803 Z7.703 A52.6120 
N1168 X-202.176 Y-9.326 Z7.048 A52.6102 
N1169 X-202.171 Y-9.848 Z6.393 A52.6026 
N1170 X-202.167 Y-10.364 Z5.749 
N1171 X-202.162 Y-10.867 Z5.121 
N1172 X-202.158 Y-11.353 Z4.516 A52.6418 
N1173 X-202.155 Y-11.823 Z3.957 A52.9346 
N1174 X-202.152 Y-12.279 Z3.448 A53.6061 
N1175 X-202.151 Y-12.727 Z3.000 A54.8523 
N1176 X-202.152 Y-13.169 Z2.614 A56.7880 
N1177 X-202.154 Y-13.604 Z2.283 A59.3917 
N1178 X-202.156 Y-14.026 Z1.996 A62.4998 
N1179 X-202.159 Y-14.428 Z1.742 A65.9322 
N1180 X-202.162 Y-14.804 Z1.513 A69.5276 
N1181 X-202.165 Y-15.162 Z1.300 A73.2687 
N1182 X-202.168 Y-15.489 Z1.103 A76.9299 
N1183 X-202.170 Y-15.794 Z0.913 A80.5650 
N1184 X-202.172 Y-16.078 Z0.730 A84.1198 
N1185 X-202.174 Y-16.340 Z0.551 A87.5716 
N1186 X-202.175 Y-16.584 Z0.373 A90.9307 
N1187 X-202.176 Y-16.813 Z0.195 A94.2203 
N1188 X-202.176 Y-17.022 Z0.020 A97.3624 
N1189 X-202.176 Y-17.219 Z-0.158 A100.4452 
N1190 X-202.176 Y-17.405 Z-0.341 A103.5137 
N1191 X-202.175 Y-17.577 Z-0.525 A106.4848 
N1192 X-202.174 Y-17.738 Z-0.715 A109.4398 
N1193 X-202.173 Y-17.889 Z-0.911 A112.3732 
N1194 X-202.171 Y-18.028 Z-1.112 A115.2778 
N1195 X-202.168 Y-18.156 Z-1.319 A118.1708 
N1196 X-202.166 Y-18.273 Z-1.534 A121.0622 
N1197 X-202.162 Y-18.378 Z-1.755 A123.9532 
N1198 X-202.159 Y-18.471 Z-1.983 A126.8417 
N1199 X-202.154 Y-18.551 Z-2.220 A129.7636 
N1200 X-202.150 Y-18.615 Z-2.464 A132.6734 
N1201 X-202.144 Y-18.666 Z-2.720 A135.6589 
N1202 X-202.138 Y-18.699 Z-2.986 A138.6847 
N1203 X-202.131 Y-18.712 Z-3.260 A141.7366 
N1204 X-202.123 Y-18.704 Z-3.546 A144.8518 
N1205 X-202.115 Y-18.669 Z-3.848 A148.0774 
N1206 X-202.105 Y-18.603 Z-4.164 A151.3967 
N1207 X-202.094 Y-18.500 Z-4.492 A154.7974 
N1208 X-202.081 Y-18.352 Z-4.832 A158.3007 
N1209 X-202.067 Y-18.148 Z-5.184 A161.9031 
N1210 X-202.052 Y-17.888 Z-5.530 A165.4754 
N1211 X-202.035 Y-17.555 Z-5.873 A169.0507 
N1212 X-202.017 Y-17.145 Z-6.195 A172.5026 
N1213 X-201.998 Y-16.651 Z-6.486 A175.7381 
N1214 X-201.978 Y-16.073 Z-6.724 A178.5474 
N1215 X-201.957 Y-15.411 Z-6.895 A180.7416 
N1216 X-201.937 Y-14.668 Z-6.994 A182.2379 
N1217 X-201.916 Y-13.849 Z-7.033 A183.1370 
N1218 X-201.895 Y-12.956 Z-7.029 A183.6145 
N1219 X-201.873 Y-11.993 Z-7.000 A183.8393 
N1220 X-201.849 Y-10.969 Z-6.955 A183.9217 
N1221 X-201.825 Y-9.892 Z-6.902 A183.9280 
N1222 X-201.800 Y-8.774 Z-6.844 A183.8947 
N1223 X-201.774 Y-7.628 Z-6.787 A183.8628 
N1224 X-201.747 Y-6.466 Z-6.733 
N1225 X-201.721 Y-5.295 Z-6.679 
N1226 X-201.694 Y-4.136 Z-6.638 A184.0905 
N1227 X-201.668 Y-2.997 Z-6.612 A184.6360 
N1228 X-201.641 Y-1.885 Z-6.609 A185.7029 
N1229 X-201.615 Y-0.804 Z-6.633 A187.4909 
N1230 X-201.588 Y0.249 Z-6.678 A190.1051 
N1231 X-201.563 Y1.276 Z-6.723 A193.4095 
N1232 X-201.538 Y2.280 Z-6.742 A197.1487 
N1233 X-201.515 Y3.263 Z-6.719 A201.1532 
N1234 X-201.494 Y4.228 Z-6.644 A205.3127 
N1235 X-201.475 Y5.175 Z-6.507 A209.5098 
N1236 X-201.458 Y6.106 Z-6.300 A213.6691 
N1237 X-201.444 Y7.017 Z-6.018 A217.7164 
N1238 X-201.432 Y7.897 Z-5.648 A221.3756 
N1239 X-201.424 Y8.731 Z-5.182 A224.3411 
N1240 X-201.420 Y9.513 Z-4.630 A226.5168 
N1241 X-201.419 Y10.249 Z-4.009 A227.9669 
N1242 X-201.420 Y10.946 Z-3.339 A228.8001 
N1243 X-201.422 Y11.613 Z-2.639 A229.1685 
N1244 X-201.425 Y12.257 Z-1.928 A229.2459 
N1245 X-201.428 Y12.885 Z-1.224 A229.2040 
N1246 X-201.432 Y13.496 Z-0.541 A229.1509 
N1247 X-201.435 Y14.084 Z0.111 A229.1271 
N1248 X-201.437 Y14.644 Z0.728 
N1249 X-201.440 Y15.168 Z1.304 
N1250 X-201.442 Y15.653 Z1.836 
N1251 X-201.444 Y16.102 Z2.328 
N1252 X-201.445 Y16.520 Z2.756 A229.4691 
N1253 X-201.445 Y16.918 Z3.111 A230.3572 
N1254 X-201.443 Y17.304 Z3.393 A231.9563 
N1255 X-201.440 Y17.686 Z3.608 A234.3237 
N1256 X-201.435 Y18.065 Z3.766 A237.3881 
N1257 X-201.429 Y18.439 Z3.881 A241.0054 
N1258 X-201.422 Y18.806 Z3.967 A245.0017 
N1259 X-201.415 Y19.171 Z4.040 A249.2732 
N1260 X-201.409 Y19.520 Z4.111 A253.5689 
N1261 X-201.403 Y19.836 Z4.182 A257.5924 
N1262 X-201.398 Y20.127 Z4.255 A261.4103 
N1263 X-201.393 Y20.420 Z4.338 A265.3420 
N1264 X-201.389 Y20.669 Z4.419 A268.7613 
N1265 X-201.386 Y20.918 Z4.510 A272.2583 
N1266 X-201.383 Y21.157 Z4.609 A275.6917 
N1267 X-201.380 Y21.367 Z4.706 A278.7714 
N1268 X-201.378 Y21.580 Z4.816 A281.9831 
N1269 X-201.376 Y21.788 Z4.936 A285.2092 
N1270 X-201.375 Y21.973 Z5.054 A288.1701 
N1271 X-201.374 Y22.155 Z5.184 A291.1928 
N1272 X-201.373 Y22.334 Z5.325 A294.2599 
N1273 X-201.373 Y22.506 Z5.475 A297.3492 
N1274 X-201.373 Y22.670 Z5.634 A300.4421 
N1275 X-201.374 Y22.825 Z5.802 A303.5221 
N1276 X-201.375 Y22.968 Z5.977 A306.5715 
N1277 X-201.377 Y23.121 Z6.188 A310.0932 
N1278 X-201.379 Y23.257 Z6.405 A313.5368 
N1279 X-201.382 Y23.373 Z6.624 A316.8655 
N1280 X-201.387 Y23.498 Z6.910 A321.0238 
N1281 X-201.392 Y23.594 Z7.198 A325.0618 
N1282 X-201.399 Y23.672 Z7.539 A329.6660 
N1283 X-201.407 Y23.712 Z7.896 A334.3444 
N1284 X-201.419 Y23.706 Z8.328 A339.8680 
N1285 X-201.432 Y23.627 Z8.762 A345.3256 
N1286 X-201.446 Y23.459 Z9.157 A350.2061 
N1287 X-201.461 Y23.199 Z9.482 A354.1823 
N1288 X-201.476 Y22.842 Z9.730 A357.2076 
N1289 X-201.491 Y22.399 Z9.892 A359.1963 
N1290 X-201.506 Y21.863 Z9.982 A0.3044 
N1291 X-201.522 Y21.230 Z10.021 A0.7751 
N1292 X-201.540 Y20.494 Z10.031 A0.8824 
N1293 X-201.560 Y19.650 Z10.032 A0.8554 
N1294 X-201.583 Y18.697 Z10.034 A0.8168 
N1295 X-201.609 Y17.637 Z10.040 
N1296 X-201.637 Y16.478 Z10.047 
N1297 X-201.667 Y15.230 Z10.055 
N1298 X-201.699 Y13.911 Z10.064 
N1299 X-201.732 Y12.541 Z10.073 A0.8171 
N1300 X-201.765 Y11.142 Z10.082 A0.8183 
N1301 X-201.799 Y9.737 Z10.091 A0.8207 
N1302 X-201.833 Y8.349 Z10.100 A0.8255 
N1303 X-201.865 Y7.001 Z10.109 A0.8341 
N1304 X-201.896 Y5.711 Z10.118 A0.8454 
N1305 X-201.925 Y4.495 Z10.126 A0.8537 
N1306 X-201.953 Y3.363 Z10.132 A0.8465 
N1307 X-201.978 Y2.322 Z10.138 A0.8168 
N1308 X-202.001 Y1.372 Z10.145 
N1309 X-202.022 Y0.500 Z10.163 A0.9836 
N1310 X-202.044 Y-0.291 Z10.269 A2.5605 
N1311 X-202.069 Y-1.041 Z10.570 A7.4346 
N1312 X-202.099 Y-1.808 Z11.008 A15.4067 
N1313 X-202.129 Y-2.615 Z11.403 A24.3401 
N1314 X-202.156 Y-3.447 Z11.670 A33.1287 
N1315 X-202.178 Y-4.261 Z11.765 A40.9708 
N1316 X-202.193 Y-5.000 Z11.671 A47.1423 
N1317 X-202.200 Y-5.599 Z11.379 A50.6767 
N1318 X-202.200 Y-6.078 Z10.946 A52.0010 
N1319 X-202.197 Y-6.515 Z10.440 A52.3304 
N1320 X-202.193 Y-6.954 Z9.894 A52.3556 
N1321 X-202.189 Y-7.410 Z9.323 A52.3275 
N1322 X-202.185 Y-7.884 Z8.732 A52.3167 
N1323 X-202.181 Y-8.372 Z8.126 A52.3216 
N1324 X-202.177 Y-8.867 Z7.511 A52.3214 
N1325 X-202.173 Y-9.362 Z6.894 A52.3054 
N1326 X-202.168 Y-9.853 Z6.287 
N1327 X-202.164 Y-10.334 Z5.692 
N1328 X-202.161 Y-10.802 Z5.117 A52.3579 
N1329 X-202.158 Y-11.257 Z4.584 A52.6659 
N1330 X-202.155 Y-11.700 Z4.097 A53.3327 
N1331 X-202.155 Y-12.136 Z3.665 A54.5559 
N1332 X-202.155 Y-12.570 Z3.293 A56.4767 
N1333 X-202.157 Y-13.008 Z2.974 A59.1545 
N1334 X-202.160 Y-13.437 Z2.698 A62.4175 
N1335 X-202.164 Y-13.850 Z2.450 A66.0318 
N1336 X-202.167 Y-14.237 Z2.222 A69.7857 
N1337 X-202.170 Y-14.606 Z2.004 A73.6713 
N1338 X-202.173 Y-14.942 Z1.797 A77.4481 
N1339 X-202.175 Y-15.249 Z1.595 A81.1133 
N1340 X-202.177 Y-15.533 Z1.396 A84.6694 
N1341 X-202.178 Y-15.793 Z1.199 A88.0985 
N1342 X-202.178 Y-16.032 Z1.003 A91.4012 
N1343 X-202.178 Y-16.252 Z0.806 A94.5978 
N1344 X-202.178 Y-16.456 Z0.608 A97.7006 
N1345 X-202.177 Y-16.641 Z0.409 A100.6861 
N1346 X-202.176 Y-16.813 Z0.207 A103.6103 
N1347 X-202.175 Y-16.972 Z0.000 A106.4896 
N1348 X-202.173 Y-17.118 Z-0.210 A109.3210 
N1349 X-202.170 Y-17.251 Z-0.425 A112.1016 
N1350 X-202.167 Y-17.372 Z-0.645 A114.8562 
N1351 X-202.164 Y-17.480 Z-0.870 A117.5823 
N1352 X-202.160 Y-17.576 Z-1.100 A120.2939 
N1353 X-202.156 Y-17.659 Z-1.336 A122.9971 
N1354 X-202.152 Y-17.730 Z-1.577 A125.6927 
N1355 X-202.146 Y-17.787 Z-1.823 A128.3874 
N1356 X-202.141 Y-17.832 Z-2.078 A131.1221 
N1357 X-202.135 Y-17.862 Z-2.339 A133.8754 
N1358 X-202.128 Y-17.877 Z-2.607 A136.6577 
N1359 X-202.121 Y-17.875 Z-2.882 A139.4861 
N1360 X-202.113 Y-17.855 Z-3.169 A142.3914 
N1361 X-202.104 Y-17.814 Z-3.466 A145.3856 
N1362 X-202.095 Y-17.748 Z-3.776 A148.4838 
N1363 X-202.084 Y-17.653 Z-4.100 A151.7064 
N1364 X-202.072 Y-17.522 Z-4.440 A155.0886 
N1365 X-202.059 Y-17.348 Z-4.791 A158.5961 
N1366 X-202.044 Y-17.126 Z-5.147 A162.2006 
N1367 X-202.028 Y-16.842 Z-5.512 A165.9453 
N1368 X-202.010 Y-16.488 Z-5.868 A169.7049 
N1369 X-201.991 Y-16.060 Z-6.203 A173.3694 
N1370 X-201.971 Y-15.549 Z-6.499 A176.7776 
N1371 X-201.951 Y-14.957 Z-6.730 A179.6401 
N1372 X-201.931 Y-14.286 Z-6.885 A181.7779 
N1373 X-201.911 Y-13.541 Z-6.966 A183.2133 
N1374 X-201.891 Y-12.726 Z-6.990 A184.0897 
N1375 X-201.870 Y-11.845 Z-6.973 A184.5691 
N1376 X-201.849 Y-10.901 Z-6.928 A184.7853 
N1377 X-201.826 Y-9.902 Z-6.866 A184.8391 
N1378 X-201.803 Y-8.857 Z-6.796 A184.8146 
N1379 X-201.779 Y-7.775 Z-6.723 A184.7619 
N1380 X-201.754 Y-6.670 Z-6.654 
N1381 X-201.729 Y-5.548 Z-6.585 
N1382 X-201.704 Y-4.422 Z-6.521 A184.8702 
N1383 X-201.679 Y-3.307 Z-6.472 A185.2612 
N1384 X-201.653 Y-2.209 Z-6.444 A186.0891 
N1385 X-201.628 Y-1.133 Z-6.443 A187.5880 
N1386 X-201.602 Y-0.077 Z-6.468 A189.9159 
N1387 X-201.576 Y0.959 Z-6.501 A193.0152 
N1388 X-201.551 Y1.978 Z-6.517 A196.6425 
N1389 X-201.528 Y2.980 Z-6.493 A200.5874 
N1390 X-201.506 Y3.967 Z-6.417 A204.7256 
N1391 X-201.487 Y4.938 Z-6.278 A208.9228 
N1392 X-201.469 Y5.892 Z-6.068 A213.0742 
N1393 X-201.454 Y6.826 Z-5.782 A217.1090 
N1394 X-201.443 Y7.729 Z-5.409 A220.7972 
N1395 X-201.434 Y8.582 Z-4.938 A223.7661 
N1396 X-201.430 Y9.377 Z-4.378 A225.8407 
N1397 X-201.429 Y10.123 Z-3.750 A227.1358 
N1398 X-201.429 Y10.831 Z-3.078 A227.8573 
N1399 X-201.431 Y11.512 Z-2.383 A228.1928 
N1400 X-201.434 Y12.171 Z-1.682 A228.2881 
N1401 X-201.436 Y12.810 Z-0.991 A228.2643 
N1402 X-201.439 Y13.428 Z-0.322 A228.2101 
N1403 X-201.441 Y14.021 Z0.316 A228.1736 
N1404 X-201.444 Y14.583 Z0.915 
N1405 X-201.446 Y15.109 Z1.474 
N1406 X-201.447 Y15.595 Z1.990 
N1407 X-201.449 Y16.042 Z2.462 A228.2169 
N1408 X-201.450 Y16.460 Z2.868 A228.6450 
N1409 X-201.449 Y16.855 Z3.201 A229.6203 
N1410 X-201.446 Y17.243 Z3.459 A231.3842 
N1411 X-201.442 Y17.633 Z3.649 A234.0220 
N1412 X-201.436 Y18.018 Z3.783 A237.3429 
N1413 X-201.430 Y18.404 Z3.883 A241.2252 
N1414 X-201.423 Y18.775 Z3.961 A245.3274 
N1415 X-201.416 Y19.133 Z4.029 A249.5652 
N1416 X-201.410 Y19.467 Z4.094 A253.7000 
N1417 X-201.404 Y19.777 Z4.161 A257.6558 
N1418 X-201.399 Y20.084 Z4.237 A261.6917 
N1419 X-201.394 Y20.346 Z4.310 A265.2096 
N1420 X-201.390 Y20.621 Z4.398 A268.9849 
N1421 X-201.387 Y20.845 Z4.479 A272.1308 
N1422 X-201.384 Y21.077 Z4.574 A275.4614 
N1423 X-201.381 Y21.304 Z4.679 A278.7922 
N1424 X-201.379 Y21.501 Z4.780 A281.7641 
N1425 X-201.377 Y21.699 Z4.893 A284.8339 
N1426 X-201.376 Y21.897 Z5.019 A287.9872 
N1427 X-201.375 Y22.078 Z5.146 A290.9701 
N1428 X-201.374 Y22.252 Z5.282 A293.9578 
N1429 X-201.374 Y22.421 Z5.428 A296.9721 
N1430 X-201.374 Y22.584 Z5.584 A300.0232 
N1431 X-201.375 Y22.745 Z5.757 A303.2209 
N1432 X-201.376 Y22.895 Z5.938 A306.3897 
N1433 X-201.377 Y23.032 Z6.124 A309.5076 
N1434 X-201.380 Y23.174 Z6.345 A313.0451 
N1435 X-201.383 Y23.305 Z6.587 A316.7363 
N1436 X-201.387 Y23.414 Z6.828 A320.2695 
N1437 X-201.392 Y23.524 Z7.141 A324.6848 
N1438 X-201.399 Y23.601 Z7.457 A328.9764 
N1439 X-201.407 Y23.650 Z7.838 A333.9971 
N1440 X-201.418 Y23.652 Z8.244 A339.2068 
N1441 X-201.431 Y23.588 Z8.677 A344.6836 
N1442 X-201.445 Y23.431 Z9.089 A349.8062 
N1443 X-201.460 Y23.174 Z9.432 A354.0125 
N1444 X-201.475 Y22.835 Z9.679 A357.0332 
N1445 X-201.490 Y22.403 Z9.847 A359.0946 
N1446 X-201.505 Y21.878 Z9.942 A0.2773 
N1447 X-201.521 Y21.261 Z9.984 A0.7999 
N1448 X-201.538 Y20.540 Z9.996 A0.9356 
N1449 X-201.558 Y19.713 Z9.997 A0.9134 
N1450 X-201.580 Y18.776 Z9.997 A0.8688 
N1451 X-201.605 Y17.733 Z10.002 A0.8678 
N1452 X-201.633 Y16.589 Z10.009 
N1453 X-201.663 Y15.355 Z10.016 
N1454 X-201.694 Y14.048 Z10.023 
N1455 X-201.727 Y12.688 Z10.031 A0.8684 
N1456 X-201.760 Y11.296 Z10.039 A0.8695 
N1457 X-201.794 Y9.895 Z10.047 A0.8716 
N1458 X-201.828 Y8.510 Z10.055 A0.8761 
N1459 X-201.860 Y7.161 Z10.063 A0.8843 
N1460 X-201.891 Y5.868 Z10.071 A0.8958 
N1461 X-201.920 Y4.647 Z10.078 A0.9046 
N1462 X-201.948 Y3.510 Z10.084 A0.9000 
N1463 X-201.973 Y2.463 Z10.089 A0.8678 
N1464 X-201.996 Y1.507 Z10.095 
N1465 X-202.017 Y0.630 Z10.109 A0.9856 
N1466 X-202.039 Y-0.164 Z10.200 A2.3284 
N1467 X-202.064 Y-0.910 Z10.472 A6.6992 
N1468 X-202.093 Y-1.663 Z10.897 A14.3093 
N1469 X-202.122 Y-2.453 Z11.296 A23.0304 
N1470 X-202.149 Y-3.266 Z11.581 A31.7140 
N1471 X-202.171 Y-4.066 Z11.703 A39.5478 
N1472 X-202.188 Y-4.804 Z11.648 A45.9095 
N1473 X-202.196 Y-5.417 Z11.407 A49.9280 
N1474 X-202.197 Y-5.905 Z11.018 A51.6638 
N1475 X-202.195 Y-6.335 Z10.548 A52.1909 
N1476 X-202.192 Y-6.755 Z10.035 A52.2776 
N1477 X-202.188 Y-7.185 Z9.497 A52.2552 
N1478 X-202.185 Y-7.632 Z8.941 A52.2391 
N1479 X-202.181 Y-8.091 Z8.373 A52.2419 
N1480 X-202.177 Y-8.556 Z7.798 A52.2417 
N1481 X-202.173 Y-9.021 Z7.221 A52.2212 
N1482 X-202.169 Y-9.481 Z6.653 
N1483 X-202.165 Y-9.934 Z6.096 
N1484 X-202.162 Y-10.377 Z5.559 A52.3097 
N1485 X-202.159 Y-10.811 Z5.063 A52.7099 
N1486 X-202.158 Y-11.238 Z4.610 A53.5137 
N1487 X-202.157 Y-11.662 Z4.210 A54.8998 
N1488 X-202.159 Y-12.088 Z3.865 A57.0054 
N1489 X-202.161 Y-12.517 Z3.572 A59.8649 
N1490 X-202.165 Y-12.946 Z3.314 A63.3306 
N1491 X-202.169 Y-13.361 Z3.077 A67.1414 
N1492 X-202.172 Y-13.748 Z2.852 A71.0220 
N1493 X-202.175 Y-14.110 Z2.635 A74.9133 
N1494 X-202.177 Y-14.441 Z2.423 A78.7030 
N1495 X-202.179 Y-14.747 Z2.211 A82.3900 
N1496 X-202.180 Y-15.025 Z2.001 A85.9310 
N1497 X-202.181 Y-15.279 Z1.791 A89.3191 
N1498 X-202.181 Y-15.509 Z1.580 A92.5631 
N1499 X-202.180 Y-15.720 Z1.368 A95.6892 
N1500 X-202.179 Y-15.913 Z1.153 A98.7171 
N1501 X-202.178 Y-16.089 Z0.934 A101.6584 
N1502 X-202.176 Y-16.249 Z0.711 A104.5226 
N1503 X-202.173 Y-16.394 Z0.484 A107.3159 
N1504 X-202.170 Y-16.524 Z0.253 A110.0464 
N1505 X-202.167 Y-16.639 Z0.017 A112.7271 
N1506 X-202.163 Y-16.740 Z-0.223 A115.3613 
N1507 X-202.159 Y-16.827 Z-0.468 A117.9539 
N1508 X-202.154 Y-16.900 Z-0.716 A120.5134 
N1509 X-202.149 Y-16.959 Z-0.969 A123.0538 
N1510 X-202.143 Y-17.005 Z-1.227 A125.5892 
N1511 X-202.137 Y-17.038 Z-1.489 A128.1246 
N1512 X-202.131 Y-17.058 Z-1.756 A130.6719 
N1513 X-202.124 Y-17.064 Z-2.027 A133.2446 
N1514 X-202.116 Y-17.056 Z-2.305 A135.8569 
N1515 X-202.108 Y-17.033 Z-2.589 A138.5237 
N1516 X-202.100 Y-16.994 Z-2.881 A141.2632 
N1517 X-202.091 Y-16.937 Z-3.183 A144.0951 
N1518 X-202.081 Y-16.858 Z-3.495 A147.0373 
N1519 X-202.070 Y-16.755 Z-3.819 A150.1075 
N1520 X-202.058 Y-16.624 Z-4.153 A153.3082 
N1521 X-202.045 Y-16.456 Z-4.500 A156.6719 
N1522 X-202.030 Y-16.244 Z-4.863 A160.2465 
N1523 X-202.014 Y-15.982 Z-5.230 A163.9400 
N1524 X-201.997 Y-15.660 Z-5.597 A167.7469 
N1525 X-201.978 Y-15.267 Z-5.956 A171.6146 
N1526 X-201.958 Y-14.797 Z-6.286 A175.3686 
N1527 X-201.938 Y-14.250 Z-6.559 A178.6777 
N1528 X-201.918 Y-13.626 Z-6.758 A181.3366 
N1529 X-201.898 Y-12.931 Z-6.880 A183.2878 
N1530 X-201.879 Y-12.170 Z-6.933 A184.6023 
N1531 X-201.859 Y-11.346 Z-6.931 A185.3848 
N1532 X-201.839 Y-10.464 Z-6.888 A185.7641 
N1533 X-201.819 Y-9.527 Z-6.817 A185.8774 
N1534 X-201.797 Y-8.543 Z-6.734 A185.8632 
N1535 X-201.775 Y-7.520 Z-6.646 A185.8071 
N1536 X-201.752 Y-6.469 Z-6.561 A185.8042 
N1537 X-201.729 Y-5.396 Z-6.474 
N1538 X-201.705 Y-4.311 Z-6.390 A185.8603 
N1539 X-201.681 Y-3.230 Z-6.320 A186.1779 
N1540 X-201.656 Y-2.156 Z-6.271 A186.9151 
N1541 X-201.632 Y-1.095 Z-6.252 A188.3383 
N1542 X-201.606 Y-0.047 Z-6.262 A190.6228 
N1543 X-201.581 Y0.990 Z-6.282 A193.7117 
N1544 X-201.556 Y2.017 Z-6.284 A197.3560 
N1545 X-201.533 Y3.033 Z-6.245 A201.3368 
N1546 X-201.511 Y4.037 Z-6.152 A205.5084 
N1547 X-201.492 Y5.027 Z-5.990 A209.7214 
N1548 X-201.475 Y5.998 Z-5.753 A213.8465 
N1549 X-201.461 Y6.944 Z-5.433 A217.7696 
N1550 X-201.450 Y7.854 Z-5.024 A221.2474 
N1551 X-201.442 Y8.708 Z-4.519 A223.9258 
N1552 X-201.439 Y9.500 Z-3.927 A225.6558 
N1553 X-201.438 Y10.243 Z-3.276 A226.6069 
N1554 X-201.439 Y10.951 Z-2.593 A227.0546 
N1555 X-201.441 Y11.636 Z-1.898 A227.2303 
N1556 X-201.443 Y12.301 Z-1.210 A227.2687 
N1557 X-201.445 Y12.945 Z-0.538 A227.2451 
N1558 X-201.447 Y13.562 Z0.107 A227.2006 
N1559 X-201.449 Y14.149 Z0.716 A227.1642 
N1560 X-201.450 Y14.701 Z1.285 
N1561 X-201.452 Y15.213 Z1.811 
N1562 X-201.453 Y15.687 Z2.298 
N1563 X-201.454 Y16.123 Z2.723 A227.4337 
N1564 X-201.454 Y16.530 Z3.085 A228.0879 
N1565 X-201.452 Y16.919 Z3.375 A229.3759 
N1566 X-201.448 Y17.305 Z3.589 A231.5209 
N1567 X-201.443 Y17.693 Z3.734 A234.5601 
N1568 X-201.436 Y18.097 Z3.832 A238.4560 
N1569 X-201.428 Y18.488 Z3.904 A242.6923 
N1570 X-201.421 Y18.859 Z3.967 A246.9862 
N1571 X-201.414 Y19.214 Z4.028 A251.3015 
N1572 X-201.408 Y19.531 Z4.089 A255.2988 
N1573 X-201.403 Y19.833 Z4.156 A259.2040 
N1574 X-201.398 Y20.121 Z4.230 A263.0164 
N1575 X-201.394 Y20.380 Z4.307 A266.5156 
N1576 X-201.390 Y20.627 Z4.390 A269.9330 
N1577 X-201.386 Y20.869 Z4.483 A273.3630 
N1578 X-201.384 Y21.078 Z4.573 A276.3780 
N1579 X-201.381 Y21.290 Z4.675 A279.5215 
N1580 X-201.379 Y21.499 Z4.787 A282.6911 
N1581 X-201.378 Y21.684 Z4.897 A285.5789 
N1582 X-201.376 Y21.867 Z5.017 A288.5359 
N1583 X-201.376 Y22.049 Z5.149 A291.5510 
N1584 X-201.375 Y22.222 Z5.288 A294.5426 
N1585 X-201.375 Y22.387 Z5.435 A297.5236 
N1586 X-201.375 Y22.545 Z5.590 A300.5176 
N1587 X-201.376 Y22.694 Z5.754 A303.5088 
N1588 X-201.377 Y22.850 Z5.944 A306.8272 
N1589 X-201.379 Y22.992 Z6.143 A310.1198 
N1590 X-201.381 Y23.119 Z6.346 A313.3441 
N1591 X-201.384 Y23.252 Z6.593 A317.1100 
N1592 X-201.389 Y23.370 Z6.862 A321.0388 
N1593 X-201.394 Y23.466 Z7.143 A324.9935 
N1594 X-201.401 Y23.552 Z7.504 A329.9030 
N1595 X-201.410 Y23.598 Z7.885 A334.9195 
N1596 X-201.421 Y23.597 Z8.311 A340.4255 
N1597 X-201.435 Y23.519 Z8.772 A346.2928 
N1598 X-201.450 Y23.346 Z9.176 A351.3479 
N1599 X-201.465 Y23.071 Z9.494 A355.2896 
N1600 X-201.479 Y22.714 Z9.710 A357.9445 
N1601 X-201.493 Y22.266 Z9.846 A359.6283 
N1602 X-201.508 Y21.726 Z9.919 A0.5370 
N1603 X-201.524 Y21.093 Z9.949 A0.9096 
N1604 X-201.542 Y20.355 Z9.955 A0.9857 
N1605 X-201.562 Y19.509 Z9.954 A0.9515 
N1606 X-201.585 Y18.554 Z9.955 A0.9153 
N1607 X-201.610 Y17.494 Z9.960 
N1608 X-201.638 Y16.334 Z9.965 
N1609 X-201.668 Y15.087 Z9.971 
N1610 X-201.700 Y13.770 Z9.977 
N1611 X-201.732 Y12.405 Z9.984 A0.9164 
N1612 X-201.766 Y11.011 Z9.990 A0.9172 
N1613 X-201.800 Y9.614 Z9.997 A0.9192 
N1614 X-201.833 Y8.236 Z10.003 A0.9236 
N1615 X-201.865 Y6.900 Z10.010 A0.9318 
N1616 X-201.896 Y5.623 Z10.016 A0.9432 
N1617 X-201.924 Y4.421 Z10.022 A0.9516 
N1618 X-201.951 Y3.305 Z10.027 A0.9466 
N1619 X-201.976 Y2.280 Z10.030 A0.9153 
N1620 X-201.998 Y1.347 Z10.036 
N1621 X-202.019 Y0.492 Z10.050 A1.0618 
N1622 X-202.040 Y-0.281 Z10.156 A2.6382 
N1623 X-202.066 Y-1.014 Z10.463 A7.6010 
N1624 X-202.095 Y-1.762 Z10.906 A15.6360 
N1625 X-202.125 Y-2.547 Z11.300 A24.4865 
N1626 X-202.151 Y-3.353 Z11.569 A33.1332 
N1627 X-202.172 Y-4.132 Z11.670 A40.7444 
N1628 X-202.187 Y-4.837 Z11.593 A46.7119 
N1629 X-202.194 Y-5.411 Z11.336 A50.2450 
N1630 X-202.195 Y-5.868 Z10.946 A51.6689 
N1631 X-202.193 Y-6.277 Z10.489 A52.0667 
N1632 X-202.189 Y-6.680 Z9.996 A52.1179 
N1633 X-202.186 Y-7.094 Z9.482 A52.0952 
N1634 X-202.182 Y-7.521 Z8.954 A52.0848 
N1635 X-202.179 Y-7.957 Z8.416 A52.0897 
N1636 X-202.175 Y-8.396 Z7.875 A52.0818 
N1637 X-202.171 Y-8.834 Z7.335 A52.0626 
N1638 X-202.168 Y-9.266 Z6.806 
N1639 X-202.164 Y-9.691 Z6.286 
N1640 X-202.162 Y-10.109 Z5.797 A52.3013 
N1641 X-202.160 Y-10.521 Z5.348 A52.8931 
N1642 X-202.159 Y-10.930 Z4.944 A53.9730 
N1643 X-202.160 Y-11.338 Z4.593 A55.6730 
N1644 X-202.162 Y-11.755 Z4.290 A58.1255 
N1645 X-202.165 Y-12.177 Z4.032 A61.3102 
N1646 X-202.169 Y-12.596 Z3.803 A65.0206 
N1647 X-202.173 Y-13.003 Z3.588 A69.0176 
N1648 X-202.177 Y-13.385 Z3.378 A73.0626 
N1649 X-202.180 Y-13.743 Z3.168 A77.1004 
N1650 X-202.182 Y-14.067 Z2.961 A80.9583 
N1651 X-202.184 Y-14.364 Z2.750 A84.6740 
N1652 X-202.185 Y-14.635 Z2.535 A88.2357 
N1653 X-202.185 Y-14.881 Z2.318 A91.6404 
N1654 X-202.185 Y-15.103 Z2.096 A94.8972 
N1655 X-202.183 Y-15.305 Z1.869 A98.0240 
N1656 X-202.182 Y-15.486 Z1.637 A101.0316 
N1657 X-202.179 Y-15.648 Z1.400 A103.9293 
N1658 X-202.177 Y-15.791 Z1.158 A106.7265 
N1659 X-202.173 Y-15.916 Z0.910 A109.4322 
N1660 X-202.169 Y-16.023 Z0.657 A112.0549 
N1661 X-202.164 Y-16.112 Z0.400 A114.6000 
N1662 X-202.159 Y-16.184 Z0.138 A117.0720 
N1663 X-202.154 Y-16.240 Z-0.127 A119.4807 
N1664 X-202.148 Y-16.280 Z-0.396 A121.8392 
N1665 X-202.141 Y-16.305 Z-0.667 A124.1631 
N1666 X-202.134 Y-16.316 Z-0.942 A126.4698 
N1667 X-202.127 Y-16.314 Z-1.220 A128.7783 
N1668 X-202.119 Y-16.299 Z-1.501 A131.1077 
N1669 X-202.111 Y-16.272 Z-1.786 A133.4772 
N1670 X-202.103 Y-16.234 Z-2.076 A135.9047 
N1671 X-202.094 Y-16.182 Z-2.372 A138.4067 
N1672 X-202.084 Y-16.118 Z-2.674 A141.0002 
N1673 X-202.074 Y-16.038 Z-2.984 A143.7125 
N1674 X-202.064 Y-15.940 Z-3.305 A146.5666 
N1675 X-202.052 Y-15.821 Z-3.637 A149.5813 
N1676 X-202.040 Y-15.678 Z-3.979 A152.7523 
N1677 X-202.026 Y-15.502 Z-4.335 A156.1312 
N1678 X-202.012 Y-15.288 Z-4.704 A159.7255 
N1679 X-201.995 Y-15.026 Z-5.081 A163.5175 
N1680 X-201.978 Y-14.709 Z-5.458 A167.4384 
N1681 X-201.959 Y-14.325 Z-5.828 A171.4627 
N1682 X-201.939 Y-13.866 Z-6.169 A175.3799 
N1683 X-201.919 Y-13.335 Z-6.452 A178.8589 
N1684 X-201.899 Y-12.730 Z-6.663 A181.7401 
N1685 X-201.880 Y-12.058 Z-6.797 A183.9348 
N1686 X-201.861 Y-11.325 Z-6.857 A185.4519 
N1687 X-201.842 Y-10.533 Z-6.852 A186.3534 
N1688 X-201.823 Y-9.688 Z-6.800 A186.7795 
N1689 X-201.804 Y-8.791 Z-6.718 A186.9049 
N1690 X-201.784 Y-7.849 Z-6.621 A186.8975 
N1691 X-201.763 Y-6.868 Z-6.519 A186.8494 
N1692 X-201.741 Y-5.858 Z-6.418 A186.8482 
N1693 X-201.719 Y-4.825 Z-6.315 
N1694 X-201.697 Y-3.777 Z-6.215 A186.9325 
N1695 X-201.674 Y-2.728 Z-6.132 A187.3083 
N1696 X-201.650 Y-1.680 Z-6.073 A188.1925 
N1697 X-201.626 Y-0.637 Z-6.047 A189.8514 
N1698 X-201.601 Y0.403 Z-6.047 A192.4012 
N1699 X-201.576 Y1.440 Z-6.049 A195.7042 
N1700 X-201.552 Y2.473 Z-6.024 A199.5186 
N1701 X-201.530 Y3.500 Z-5.952 A203.6526 
N1702 X-201.509 Y4.516 Z-5.816 A207.9121 
N1703 X-201.490 Y5.517 Z-5.602 A212.1226 
N1704 X-201.475 Y6.492 Z-5.303 A216.0938 
N1705 X-201.463 Y7.431 Z-4.913 A219.6470 
N1706 X-201.454 Y8.321 Z-4.430 A222.5252 
N1707 X-201.449 Y9.149 Z-3.860 A224.5092 
N1708 X-201.447 Y9.921 Z-3.222 A225.6338 
N1709 X-201.447 Y10.651 Z-2.546 A226.1461 
N1710 X-201.449 Y11.354 Z-1.856 A226.3267 
N1711 X-201.450 Y12.035 Z-1.172 A226.3667 
N1712 X-201.452 Y12.694 Z-0.506 A226.3560 
N1713 X-201.453 Y13.327 Z0.134 A226.3299 
N1714 X-201.455 Y13.928 Z0.740 A226.2927 
N1715 X-201.456 Y14.490 Z1.304 A226.2798 
N1716 X-201.457 Y15.013 Z1.825 
N1717 X-201.458 Y15.495 Z2.305 
N1718 X-201.459 Y15.937 Z2.734 A226.4222 
N1719 X-201.458 Y16.344 Z3.097 A226.9208 
N1720 X-201.457 Y16.728 Z3.391 A227.9556 
N1721 X-201.454 Y17.106 Z3.611 A229.8036 
N1722 X-201.448 Y17.498 Z3.757 A232.7170 
N1723 X-201.441 Y17.897 Z3.839 A236.5402 
N1724 X-201.432 Y18.308 Z3.890 A241.0560 
N1725 X-201.424 Y18.704 Z3.934 A245.7005 
N1726 X-201.416 Y19.072 Z3.983 A250.1992 
N1727 X-201.410 Y19.416 Z4.040 A254.5340 
N1728 X-201.404 Y19.730 Z4.104 A258.5872 
N1729 X-201.399 Y20.005 Z4.172 A262.2206 
N1730 X-201.395 Y20.275 Z4.251 A265.8587 
N1731 X-201.391 Y20.514 Z4.331 A269.1483 
N1732 X-201.388 Y20.739 Z4.416 A272.3206 
N1733 X-201.385 Y20.970 Z4.515 A275.6351 
N1734 X-201.383 Y21.163 Z4.607 A278.4744 
N1735 X-201.381 Y21.358 Z4.710 A281.4103 
N1736 X-201.379 Y21.553 Z4.825 A284.4387 
N1737 X-201.378 Y21.732 Z4.941 A287.2934 
N1738 X-201.377 Y21.906 Z5.063 A290.1417 
N1739 X-201.376 Y22.076 Z5.196 A293.0436 
N1740 X-201.376 Y22.242 Z5.338 A295.9867 
N1741 X-201.376 Y22.402 Z5.490 A298.9498 
N1742 X-201.377 Y22.555 Z5.650 A301.9336 
N1743 X-201.377 Y22.699 Z5.818 A304.9246 
N1744 X-201.379 Y22.846 Z6.009 A308.1727 
N1745 X-201.381 Y22.989 Z6.220 A311.6059 
N1746 X-201.384 Y23.117 Z6.436 A314.9848 
N1747 X-201.387 Y23.243 Z6.688 A318.7660 
N1748 X-201.392 Y23.362 Z6.985 A323.0445 
N1749 X-201.398 Y23.456 Z7.292 A327.3319 
N1750 X-201.406 Y23.535 Z7.693 A332.7484 
N1751 X-201.417 Y23.567 Z8.124 A338.4218 
N1752 X-201.430 Y23.535 Z8.592 A344.4951 
N1753 X-201.445 Y23.406 Z9.050 A350.3412 
N1754 X-201.460 Y23.168 Z9.411 A354.8979 
N1755 X-201.474 Y22.847 Z9.643 A357.8066 
N1756 X-201.487 Y22.435 Z9.784 A359.5580 
N1757 X-201.501 Y21.941 Z9.857 A0.4739 
N1758 X-201.516 Y21.351 Z9.889 A0.8799 
N1759 X-201.533 Y20.662 Z9.898 A0.9930 
N1760 X-201.552 Y19.865 Z9.898 A0.9795 
N1761 X-201.573 Y18.959 Z9.898 A0.9406 
N1762 X-201.598 Y17.945 Z9.901 A0.9351 
N1763 X-201.625 Y16.827 Z9.906 
N1764 X-201.654 Y15.617 Z9.911 
N1765 X-201.685 Y14.329 Z9.916 
N1766 X-201.717 Y12.982 Z9.922 A0.9365 
N1767 X-201.750 Y11.599 Z9.928 A0.9368 
N1768 X-201.784 Y10.202 Z9.934 A0.9377 
N1769 X-201.817 Y8.815 Z9.940 A0.9403 
N1770 X-201.850 Y7.460 Z9.945 A0.9458 
N1771 X-201.881 Y6.158 Z9.951 A0.9557 
N1772 X-201.911 Y4.925 Z9.957 A0.9653 
N1773 X-201.938 Y3.775 Z9.962 A0.9718 
N1774 X-201.964 Y2.715 Z9.965 A0.9480 
N1775 X-201.987 Y1.749 Z9.969 A0.9351 
N1776 X-202.008 Y0.869 Z9.975 
N1777 X-202.028 Y0.070 Z10.018 A1.5348 
N1778 X-202.051 Y-0.664 Z10.218 A4.6344 
N1779 X-202.079 Y-1.387 Z10.629 A11.5608 
N1780 X-202.109 Y-2.144 Z11.070 A20.2855 
N1781 X-202.137 Y-2.933 Z11.413 A29.1693 
N1782 X-202.160 Y-3.717 Z11.603 A37.3412 
N1783 X-202.178 Y-4.450 Z11.621 A44.1513 
N1784 X-202.189 Y-5.075 Z11.460 A48.8694 
N1785 X-202.193 Y-5.565 Z11.142 A51.1664 
N1786 X-202.192 Y-5.974 Z10.731 A51.9500 
N1787 X-202.189 Y-6.359 Z10.275 A52.1279 
N1788 X-202.186 Y-6.746 Z9.795 A52.1280 
N1789 X-202.182 Y-7.145 Z9.300 A52.1107 
N1790 X-202.179 Y-7.553 Z8.796 A52.1103 
N1791 X-202.175 Y-7.965 Z8.287 A52.1115 
N1792 X-202.172 Y-8.377 Z7.777 A52.0928 
N1793 X-202.169 Y-8.785 Z7.276 
N1794 X-202.165 Y-9.186 Z6.783 
N1795 X-202.163 Y-9.582 Z6.317 A52.3003 
N1796 X-202.161 Y-9.974 Z5.887 A52.8497 
N1797 X-202.160 Y-10.366 Z5.499 A53.8634 
N1798 X-202.161 Y-10.759 Z5.158 A55.4640 
N1799 X-202.163 Y-11.158 Z4.865 A57.7606 
N1800 X-202.166 Y-11.569 Z4.615 A60.8136 
N1801 X-202.170 Y-11.985 Z4.395 A64.4966 
N1802 X-202.174 Y-12.390 Z4.192 A68.4987 
N1803 X-202.178 Y-12.781 Z3.989 A72.6559 
N1804 X-202.182 Y-13.141 Z3.789 A76.7266 
N1805 X-202.185 Y-13.476 Z3.584 A80.7272 
N1806 X-202.186 Y-13.783 Z3.373 A84.5744 
N1807 X-202.187 Y-14.062 Z3.157 A88.2441 
N1808 X-202.188 Y-14.314 Z2.936 A91.7419 
N1809 X-202.187 Y-14.542 Z2.708 A95.0767 
N1810 X-202.186 Y-14.746 Z2.474 A98.2668 
N1811 X-202.184 Y-14.928 Z2.232 A101.3244 
N1812 X-202.181 Y-15.089 Z1.984 A104.2560 
N1813 X-202.178 Y-15.229 Z1.729 A107.0674 
N1814 X-202.174 Y-15.347 Z1.467 A109.7631 
N1815 X-202.169 Y-15.445 Z1.199 A112.3481 
N1816 X-202.164 Y-15.522 Z0.927 A114.8276 
N1817 X-202.158 Y-15.579 Z0.650 A117.2079 
N1818 X-202.152 Y-15.618 Z0.370 A119.5002 
N1819 X-202.145 Y-15.638 Z0.087 A121.7203 
N1820 X-202.138 Y-15.642 Z-0.199 A123.8872 
N1821 X-202.130 Y-15.631 Z-0.487 A126.0230 
N1822 X-202.122 Y-15.607 Z-0.777 A128.1527 
N1823 X-202.113 Y-15.571 Z-1.070 A130.3031 
N1824 X-202.104 Y-15.523 Z-1.366 A132.4988 
N1825 X-202.095 Y-15.465 Z-1.666 A134.7611 
N1826 X-202.085 Y-15.397 Z-1.970 A137.1084 
N1827 X-202.076 Y-15.318 Z-2.280 A139.5584 
N1828 X-202.065 Y-15.228 Z-2.595 A142.1323 
N1829 X-202.054 Y-15.123 Z-2.919 A144.8575 
N1830 X-202.043 Y-15.002 Z-3.253 A147.7471 
N1831 X-202.030 Y-14.861 Z-3.595 A150.8026 
N1832 X-202.017 Y-14.694 Z-3.951 A154.0801 
N1833 X-202.003 Y-14.497 Z-4.316 A157.5516 
N1834 X-201.987 Y-14.258 Z-4.694 A161.2559 
N1835 X-201.970 Y-13.974 Z-5.072 A165.1083 
N1836 X-201.952 Y-13.631 Z-5.449 A169.1048 
N1837 X-201.933 Y-13.222 Z-5.809 A173.1091 
N1838 X-201.913 Y-12.742 Z-6.129 A176.8965 
N1839 X-201.894 Y-12.194 Z-6.389 A180.2405 
N1840 X-201.874 Y-11.577 Z-6.580 A183.0260 
N1841 X-201.855 Y-10.900 Z-6.693 A185.1446 
N1842 X-201.836 Y-10.167 Z-6.731 A186.5696 
N1843 X-201.818 Y-9.380 Z-6.707 A187.3914 
N1844 X-201.800 Y-8.545 Z-6.638 A187.7776 
N1845 X-201.781 Y-7.663 Z-6.542 A187.9083 
N1846 X-201.762 Y-6.740 Z-6.431 A187.9196 
N1847 X-201.742 Y-5.782 Z-6.313 A187.8853 
N1848 X-201.722 Y-4.798 Z-6.195 
N1849 X-201.701 Y-3.792 Z-6.077 A187.9167 
N1850 X-201.679 Y-2.775 Z-5.972 A188.1961 
N1851 X-201.657 Y-1.750 Z-5.889 A188.9186 
N1852 X-201.633 Y-0.721 Z-5.838 A190.3616 
N1853 X-201.609 Y0.312 Z-5.816 A192.6891 
N1854 X-201.585 Y1.349 Z-5.802 A195.8279 
N1855 X-201.561 Y2.390 Z-5.767 A199.5635 
N1856 X-201.538 Y3.430 Z-5.689 A203.6816 
N1857 X-201.517 Y4.464 Z-5.545 A207.9538 
N1858 X-201.499 Y5.482 Z-5.322 A212.1817 
N1859 X-201.483 Y6.472 Z-5.008 A216.1165 
N1860 X-201.471 Y7.420 Z-4.599 A219.5107 
N1861 X-201.463 Y8.315 Z-4.098 A222.1764 
N1862 X-201.458 Y9.149 Z-3.516 A223.9855 
N1863 X-201.456 Y9.927 Z-2.873 A224.9733 
N1864 X-201.456 Y10.663 Z-2.198 A225.3669 
N1865 X-201.457 Y11.371 Z-1.515 A225.4479 
N1866 X-201.458 Y12.056 Z-0.843 A225.4288 
N1867 X-201.459 Y12.718 Z-0.196 A225.4016 
N1868 X-201.460 Y13.352 Z0.421 A225.3856 
N1869 X-201.461 Y13.949 Z1.002 A225.3543 
N1870 X-201.462 Y14.507 Z1.539 A225.3509 
N1871 X-201.462 Y15.022 Z2.034 
N1872 X-201.463 Y15.498 Z2.492 
N1873 X-201.463 Y15.939 Z2.886 A225.6971 
N1874 X-201.461 Y16.351 Z3.213 A226.5100 
N1875 X-201.459 Y16.743 Z3.472 A227.9481 
N1876 X-201.455 Y17.122 Z3.660 A230.1251 
N1877 X-201.449 Y17.511 Z3.786 A233.2198 
N1878 X-201.441 Y17.897 Z3.859 A237.0200 
N1879 X-201.433 Y18.290 Z3.904 A241.3843 
N1880 X-201.425 Y18.667 Z3.944 A245.8422 
N1881 X-201.418 Y19.020 Z3.988 A250.1621 
N1882 X-201.411 Y19.359 Z4.040 A254.4528 
N1883 X-201.405 Y19.647 Z4.093 A258.1882 
N1884 X-201.400 Y19.942 Z4.158 A262.0898 
N1885 X-201.396 Y20.187 Z4.222 A265.3955 
N1886 X-201.392 Y20.443 Z4.300 A268.9200 
N1887 X-201.388 Y20.668 Z4.379 A272.0770 
N1888 X-201.386 Y20.882 Z4.463 A275.1530 
N1889 X-201.383 Y21.101 Z4.561 A278.3593 
N1890 X-201.381 Y21.302 Z4.661 A281.3666 
N1891 X-201.379 Y21.491 Z4.766 A284.2694 
N1892 X-201.377 Y21.678 Z4.882 A287.2401 
N1893 X-201.376 Y21.863 Z5.008 A290.2675 
N1894 X-201.376 Y22.035 Z5.139 A293.1823 
N1895 X-201.375 Y22.202 Z5.278 A296.1237 
N1896 X-201.375 Y22.363 Z5.427 A299.0799 
N1897 X-201.376 Y22.518 Z5.586 A302.0859 
N1898 X-201.377 Y22.675 Z5.767 A305.3235 
N1899 X-201.378 Y22.820 Z5.955 A308.5253 
N1900 X-201.380 Y22.951 Z6.147 A311.6693 
N1901 X-201.383 Y23.089 Z6.383 A315.3507 
N1902 X-201.387 Y23.214 Z6.639 A319.1778 
N1903 X-201.391 Y23.315 Z6.893 A322.8277 
N1904 X-201.397 Y23.418 Z7.241 A327.6536 
N1905 X-201.405 Y23.482 Z7.585 A332.2613 
N1906 X-201.415 Y23.508 Z8.013 A337.8502 
N1907 X-201.428 Y23.471 Z8.465 A343.6531 
N1908 X-201.443 Y23.347 Z8.905 A349.2176 
N1909 X-201.457 Y23.125 Z9.267 A353.7403 
N1910 X-201.472 Y22.811 Z9.527 A356.9587 
N1911 X-201.486 Y22.410 Z9.694 A359.0143 
N1912 X-201.500 Y21.920 Z9.789 A0.1976 
N1913 X-201.515 Y21.337 Z9.835 A0.7767 
N1914 X-201.532 Y20.654 Z9.851 A0.9815 
N1915 X-201.551 Y19.865 Z9.853 A0.9979 
N1916 X-201.572 Y18.969 Z9.852 A0.9581 
N1917 X-201.596 Y17.965 Z9.853 A0.9373 
N1918 X-201.623 Y16.859 Z9.858 
N1919 X-201.651 Y15.660 Z9.862 
N1920 X-201.682 Y14.382 Z9.867 
N1921 X-201.714 Y13.046 Z9.873 A0.9383 
N1922 X-201.747 Y11.671 Z9.878 A0.9391 
N1923 X-201.781 Y10.281 Z9.883 A0.9403 
N1924 X-201.814 Y8.899 Z9.889 A0.9433 
N1925 X-201.846 Y7.548 Z9.894 A0.9492 
N1926 X-201.878 Y6.248 Z9.900 A0.9597 
N1927 X-201.907 Y5.017 Z9.905 A0.9684 
N1928 X-201.935 Y3.868 Z9.910 A0.9740 
N1929 X-201.960 Y2.807 Z9.912 A0.9373 
N1930 X-201.983 Y1.842 Z9.917 
N1931 X-202.005 Y0.961 Z9.921 
N1932 X-202.025 Y0.167 Z9.970 A1.6232 
N1933 X-202.047 Y-0.558 Z10.149 A4.4379 
N1934 X-202.073 Y-1.261 Z10.523 A10.7286 
N1935 X-202.102 Y-1.985 Z10.937 A18.8060 
N1936 X-202.128 Y-2.726 Z11.268 A27.0064 
N1937 X-202.151 Y-3.467 Z11.478 A34.7903 
N1938 X-202.170 Y-4.173 Z11.543 A41.5361 
N1939 X-202.183 Y-4.810 Z11.462 A46.8701 
N1940 X-202.190 Y-5.346 Z11.242 A50.3731 
N1941 X-202.192 Y-5.788 Z10.912 A52.2048 
N1942 X-202.191 Y-6.170 Z10.511 A52.9159 
N1943 X-202.188 Y-6.529 Z10.070 A53.0753 
N1944 X-202.184 Y-6.889 Z9.608 A53.0652 
N1945 X-202.181 Y-7.257 Z9.136 A53.0461 
N1946 X-202.177 Y-7.631 Z8.659 A53.0432 
N1947 X-202.174 Y-8.006 Z8.179 A53.0210 
N1948 X-202.170 Y-8.378 Z7.706 
N1949 X-202.167 Y-8.745 Z7.240 
N1950 X-202.164 Y-9.111 Z6.789 A53.1467 
N1951 X-202.162 Y-9.478 Z6.375 A53.6604 
N1952 X-202.161 Y-9.847 Z6.001 A54.6417 
N1953 X-202.161 Y-10.224 Z5.669 A56.2180 
N1954 X-202.163 Y-10.608 Z5.380 A58.4539 
N1955 X-202.166 Y-11.002 Z5.132 A61.3892 
N1956 X-202.170 Y-11.404 Z4.913 A64.9493 
N1957 X-202.174 Y-11.807 Z4.707 A68.9492 
N1958 X-202.178 Y-12.187 Z4.507 A73.0120 
N1959 X-202.181 Y-12.549 Z4.302 A77.1201 
N1960 X-202.184 Y-12.884 Z4.093 A81.1279 
N1961 X-202.185 Y-13.189 Z3.879 A84.9628 
N1962 X-202.186 Y-13.467 Z3.658 A88.6353 
N1963 X-202.186 Y-13.719 Z3.431 A92.1494 
N1964 X-202.186 Y-13.945 Z3.196 A95.5038 
N1965 X-202.184 Y-14.148 Z2.953 A98.7075 
N1966 X-202.182 Y-14.328 Z2.704 A101.7719 
N1967 X-202.179 Y-14.485 Z2.446 A104.7041 
N1968 X-202.175 Y-14.620 Z2.181 A107.5106 
N1969 X-202.171 Y-14.733 Z1.909 A110.1973 
N1970 X-202.166 Y-14.824 Z1.631 A112.7695 
N1971 X-202.160 Y-14.893 Z1.347 A115.2324 
N1972 X-202.154 Y-14.942 Z1.059 A117.5916 
N1973 X-202.147 Y-14.970 Z0.766 A119.8565 
N1974 X-202.139 Y-14.979 Z0.472 A122.0422 
N1975 X-202.131 Y-14.971 Z0.175 A124.1676 
N1976 X-202.123 Y-14.947 Z-0.125 A126.2560 
N1977 X-202.114 Y-14.908 Z-0.426 A128.3348 
N1978 X-202.105 Y-14.857 Z-0.730 A130.4275 
N1979 X-202.095 Y-14.794 Z-1.036 A132.5539 
N1980 X-202.086 Y-14.721 Z-1.345 A134.7377 
N1981 X-202.076 Y-14.638 Z-1.657 A137.0035 
N1982 X-202.065 Y-14.544 Z-1.973 A139.3724 
N1983 X-202.054 Y-14.439 Z-2.294 A141.8571 
N1984 X-202.043 Y-14.322 Z-2.620 A144.4736 
N1985 X-202.031 Y-14.190 Z-2.955 A147.2526 
N1986 X-202.018 Y-14.040 Z-3.296 A150.1969 
N1987 X-202.005 Y-13.869 Z-3.646 A153.3171 
N1988 X-201.991 Y-13.669 Z-4.007 A156.6505 
N1989 X-201.976 Y-13.436 Z-4.374 A160.1662 
N1990 X-201.960 Y-13.162 Z-4.746 A163.8585 
N1991 X-201.942 Y-12.837 Z-5.117 A167.6984 
N1992 X-201.924 Y-12.454 Z-5.476 A171.5991 
N1993 X-201.904 Y-12.008 Z-5.808 A175.4124 
N1994 X-201.884 Y-11.495 Z-6.095 A178.9837 
N1995 X-201.865 Y-10.918 Z-6.324 A182.1534 
N1996 X-201.845 Y-10.280 Z-6.482 A184.7653 
N1997 X-201.827 Y-9.587 Z-6.561 A186.6913 
N1998 X-201.809 Y-8.845 Z-6.567 A187.9416 
N1999 X-201.791 Y-8.056 Z-6.516 A188.6512 
N2000 X-201.774 Y-7.224 Z-6.426 A188.9874 
N2001 X-201.756 Y-6.351 Z-6.311 A189.1018 
N2002 X-201.737 Y-5.441 Z-6.181 A189.0906 
N2003 X-201.718 Y-4.503 Z-6.048 A189.0780 
N2004 X-201.699 Y-3.537 Z-5.912 A189.0857 
N2005 X-201.679 Y-2.553 Z-5.789 A189.3363 
N2006 X-201.657 Y-1.555 Z-5.687 A190.0194 
N2007 X-201.635 Y-0.545 Z-5.615 A191.4082 
N2008 X-201.612 Y0.478 Z-5.572 A193.6750 
N2009 X-201.588 Y1.513 Z-5.538 A196.7689 
N2010 X-201.564 Y2.557 Z-5.484 A200.4893 
N2011 X-201.542 Y3.605 Z-5.385 A204.6130 
N2012 X-201.521 Y4.649 Z-5.219 A208.8884 
N2013 X-201.503 Y5.677 Z-4.970 A213.0996 
N2014 X-201.488 Y6.672 Z-4.625 A216.9177 
N2015 X-201.477 Y7.613 Z-4.175 A219.9666 
N2016 X-201.471 Y8.493 Z-3.635 A222.1283 
N2017 X-201.467 Y9.316 Z-3.028 A223.4921 
N2018 X-201.465 Y10.092 Z-2.377 A224.2083 
N2019 X-201.465 Y10.830 Z-1.707 A224.4715 
N2020 X-201.465 Y11.540 Z-1.039 A224.4878 
N2021 X-201.466 Y12.224 Z-0.389 A224.4317 
N2022 X-201.466 Y12.881 Z0.231 A224.3910 
N2023 X-201.467 Y13.507 Z0.817 A224.3797 
N2024 X-201.467 Y14.092 Z1.363 A224.3764 
N2025 X-201.467 Y14.634 Z1.866 
N2026 X-201.467 Y15.132 Z2.327 
N2027 X-201.467 Y15.594 Z2.750 A224.4393 
N2028 X-201.466 Y16.024 Z3.096 A225.0554 
N2029 X-201.463 Y16.437 Z3.373 A226.3360 
N2030 X-201.459 Y16.836 Z3.575 A228.4075 
N2031 X-201.454 Y17.224 Z3.715 A231.2044 
N2032 X-201.447 Y17.616 Z3.808 A234.7292 
N2033 X-201.439 Y18.002 Z3.867 A238.7518 
N2034 X-201.431 Y18.379 Z3.908 A243.0552 
N2035 X-201.423 Y18.740 Z3.946 A247.3869 
N2036 X-201.417 Y19.061 Z3.988 A251.3825 
N2037 X-201.411 Y19.370 Z4.035 A255.3204 
N2038 X-201.405 Y19.666 Z4.089 A259.1895 
N2039 X-201.400 Y19.931 Z4.148 A262.7261 
N2040 X-201.396 Y20.187 Z4.214 A266.1937 
N2041 X-201.392 Y20.439 Z4.291 A269.6819 
N2042 X-201.388 Y20.654 Z4.365 A272.7082 
N2043 X-201.385 Y20.874 Z4.452 A275.8751 
N2044 X-201.383 Y21.094 Z4.551 A279.1028 
N2045 X-201.381 Y21.285 Z4.647 A281.9796 
N2046 X-201.379 Y21.476 Z4.753 A284.9301 
N2047 X-201.377 Y21.665 Z4.871 A287.9418 
N2048 X-201.376 Y21.847 Z4.997 A290.9315 
N2049 X-201.376 Y22.019 Z5.129 A293.8639 
N2050 X-201.375 Y22.185 Z5.270 A296.8128 
N2051 X-201.376 Y22.344 Z5.419 A299.7649 
N2052 X-201.376 Y22.502 Z5.585 A302.8605 
N2053 X-201.377 Y22.655 Z5.765 A306.0546 
N2054 X-201.379 Y22.795 Z5.951 A309.2022 
N2055 X-201.381 Y22.921 Z6.141 A312.2842 
N2056 X-201.384 Y23.063 Z6.391 A316.1522 
N2057 X-201.387 Y23.182 Z6.642 A319.8814 
N2058 X-201.392 Y23.285 Z6.917 A323.7932 
N2059 X-201.399 Y23.379 Z7.260 A328.5196 
N2060 X-201.407 Y23.439 Z7.625 A333.3901 
N2061 X-201.417 Y23.455 Z8.041 A338.8043 
N2062 X-201.431 Y23.404 Z8.501 A344.6829 
N2063 X-201.445 Y23.263 Z8.935 A350.1744 
N2064 X-201.460 Y23.027 Z9.283 A354.5387 
N2065 X-201.475 Y22.690 Z9.529 A357.5952 
N2066 X-201.488 Y22.273 Z9.675 A359.4020 
N2067 X-201.502 Y21.770 Z9.754 A0.3829 
N2068 X-201.518 Y21.170 Z9.790 A0.8408 
N2069 X-201.535 Y20.470 Z9.802 A0.9916 
N2070 X-201.554 Y19.664 Z9.803 A0.9959 
N2071 X-201.576 Y18.749 Z9.803 A0.9598 
N2072 X-201.600 Y17.729 Z9.804 A0.9455 
N2073 X-201.627 Y16.607 Z9.808 
N2074 X-201.656 Y15.395 Z9.813 
N2075 X-201.687 Y14.109 Z9.818 
N2076 X-201.720 Y12.767 Z9.823 A0.9467 
N2077 X-201.753 Y11.392 Z9.828 A0.9475 
N2078 X-201.786 Y10.006 Z9.833 A0.9490 
N2079 X-201.819 Y8.633 Z9.839 A0.9527 
N2080 X-201.851 Y7.296 Z9.844 A0.9597 
N2081 X-201.882 Y6.013 Z9.849 A0.9713 
N2082 X-201.911 Y4.802 Z9.854 A0.9812 
N2083 X-201.938 Y3.675 Z9.859 A0.9838 
N2084 X-201.963 Y2.639 Z9.860 A0.9455 
N2085 X-201.985 Y1.700 Z9.865 
N2086 X-202.006 Y0.842 Z9.872 A0.9854 
N2087 X-202.026 Y0.075 Z9.936 A1.9150 
N2088 X-202.048 Y-0.628 Z10.138 A5.1205 
N2089 X-202.075 Y-1.312 Z10.519 A11.6214 
N2090 X-202.102 Y-2.012 Z10.915 A19.4714 
N2091 X-202.127 Y-2.718 Z11.222 A27.2556 
N2092 X-202.149 Y-3.422 Z11.423 A34.6614 
N2093 X-202.167 Y-4.093 Z11.493 A41.1367 
N2094 X-202.180 Y-4.707 Z11.437 A46.4455 
N2095 X-202.188 Y-5.243 Z11.260 A50.3312 
N2096 X-202.191 Y-5.689 Z10.978 A52.6643 
N2097 X-202.191 Y-6.063 Z10.616 A53.7158 
N2098 X-202.188 Y-6.402 Z10.207 A54.0362 
N2099 X-202.185 Y-6.732 Z9.773 A54.0783 
N2100 X-202.181 Y-7.067 Z9.327 A54.0626 
N2101 X-202.177 Y-7.406 Z8.875 A54.0457 
N2102 X-202.174 Y-7.747 Z8.421 A54.0227 
N2103 X-202.170 Y-8.087 Z7.973 
N2104 X-202.167 Y-8.424 Z7.529 
N2105 X-202.164 Y-8.762 Z7.107 A54.2592 
N2106 X-202.162 Y-9.105 Z6.718 A54.8631 
N2107 X-202.161 Y-9.454 Z6.366 A55.9594 
N2108 X-202.161 Y-9.811 Z6.052 A57.6297 
N2109 X-202.163 Y-10.177 Z5.778 A59.9190 
N2110 X-202.166 Y-10.554 Z5.538 A62.8553 
N2111 X-202.169 Y-10.943 Z5.322 A66.4089 
N2112 X-202.173 Y-11.328 Z5.121 A70.3164 
N2113 X-202.177 Y-11.704 Z4.920 A74.4219 
N2114 X-202.180 Y-12.054 Z4.718 A78.4812 
N2115 X-202.183 Y-12.383 Z4.509 A82.5001 
N2116 X-202.184 Y-12.687 Z4.291 A86.3951 
N2117 X-202.185 Y-12.963 Z4.066 A90.1279 
N2118 X-202.185 Y-13.213 Z3.832 A93.6967 
N2119 X-202.184 Y-13.436 Z3.590 A97.1025 
N2120 X-202.182 Y-13.635 Z3.339 A100.3518 
N2121 X-202.179 Y-13.809 Z3.079 A103.4522 
N2122 X-202.176 Y-13.959 Z2.810 A106.4064 
N2123 X-202.172 Y-14.083 Z2.533 A109.2157 
N2124 X-202.167 Y-14.183 Z2.250 A111.8813 
N2125 X-202.161 Y-14.259 Z1.960 A114.4062 
N2126 X-202.154 Y-14.311 Z1.664 A116.8009 
N2127 X-202.147 Y-14.339 Z1.364 A119.0696 
N2128 X-202.139 Y-14.345 Z1.061 A121.2262 
N2129 X-202.131 Y-14.331 Z0.756 A123.2851 
N2130 X-202.122 Y-14.298 Z0.449 A125.2725 
N2131 X-202.113 Y-14.250 Z0.141 A127.2223 
N2132 X-202.104 Y-14.188 Z-0.170 A129.1691 
N2133 X-202.094 Y-14.114 Z-0.482 A131.1362 
N2134 X-202.083 Y-14.029 Z-0.796 A133.1532 
N2135 X-202.073 Y-13.936 Z-1.113 A135.2526 
N2136 X-202.062 Y-13.834 Z-1.434 A137.4532 
N2137 X-202.051 Y-13.724 Z-1.757 A139.7719 
N2138 X-202.040 Y-13.604 Z-2.086 A142.2325 
N2139 X-202.028 Y-13.474 Z-2.419 A144.8456 
N2140 X-202.015 Y-13.331 Z-2.759 A147.6219 
N2141 X-202.003 Y-13.171 Z-3.106 A150.5882 
N2142 X-201.989 Y-12.992 Z-3.460 A153.7270 
N2143 X-201.975 Y-12.785 Z-3.823 A157.0788 
N2144 X-201.959 Y-12.548 Z-4.189 A160.5964 
N2145 X-201.943 Y-12.270 Z-4.559 A164.2935 
N2146 X-201.926 Y-11.944 Z-4.926 A168.1229 
N2147 X-201.907 Y-11.564 Z-5.279 A171.9892 
N2148 X-201.888 Y-11.126 Z-5.604 A175.7601 
N2149 X-201.869 Y-10.624 Z-5.886 A179.3139 
N2150 X-201.850 Y-10.060 Z-6.114 A182.5170 
N2151 X-201.831 Y-9.440 Z-6.273 A185.1931 
N2152 X-201.812 Y-8.768 Z-6.356 A187.2309 
N2153 X-201.795 Y-8.049 Z-6.368 A188.6327 
N2154 X-201.778 Y-7.286 Z-6.321 A189.4980 
N2155 X-201.761 Y-6.482 Z-6.230 A189.9554 
N2156 X-201.744 Y-5.638 Z-6.109 A190.1308 
N2157 X-201.727 Y-4.759 Z-5.968 A190.1450 
N2158 X-201.709 Y-3.848 Z-5.821 A190.1398 
N2159 X-201.690 Y-2.908 Z-5.677 A190.2431 
N2160 X-201.670 Y-1.945 Z-5.546 A190.6449 
N2161 X-201.650 Y-0.961 Z-5.439 A191.5681 
N2162 X-201.628 Y0.043 Z-5.359 A193.2539 
N2163 X-201.605 Y1.067 Z-5.302 A195.8224 
N2164 X-201.581 Y2.109 Z-5.242 A199.1706 
N2165 X-201.558 Y3.165 Z-5.152 A203.0882 
N2166 X-201.537 Y4.226 Z-5.005 A207.3189 
N2167 X-201.518 Y5.277 Z-4.777 A211.5481 
N2168 X-201.502 Y6.302 Z-4.455 A215.4950 
N2169 X-201.489 Y7.278 Z-4.028 A218.7577 
N2170 X-201.481 Y8.187 Z-3.500 A221.0264 
N2171 X-201.477 Y9.033 Z-2.896 A222.3669 
N2172 X-201.475 Y9.831 Z-2.250 A223.0533 
N2173 X-201.474 Y10.593 Z-1.588 A223.3492 
N2174 X-201.473 Y11.325 Z-0.930 A223.4293 
N2175 X-201.473 Y12.028 Z-0.288 A223.4079 
N2176 X-201.473 Y12.699 Z0.325 A223.3593 
N2177 X-201.473 Y13.336 Z0.904 A223.3221 
N2178 X-201.473 Y13.932 Z1.440 
N2179 X-201.473 Y14.485 Z1.937 
N2180 X-201.472 Y14.993 Z2.393 
N2181 X-201.472 Y15.458 Z2.801 A223.4376 
N2182 X-201.471 Y15.889 Z3.142 A223.9885 
N2183 X-201.468 Y16.298 Z3.410 A225.1963 
N2184 X-201.463 Y16.701 Z3.600 A227.3186 
N2185 X-201.456 Y17.110 Z3.723 A230.4128 
N2186 X-201.449 Y17.507 Z3.795 A234.1280 
N2187 X-201.441 Y17.899 Z3.843 A238.2660 
N2188 X-201.433 Y18.274 Z3.881 A242.5394 
N2189 X-201.425 Y18.629 Z3.917 A246.7971 
N2190 X-201.418 Y18.963 Z3.957 A250.9455 
N2191 X-201.412 Y19.277 Z4.004 A254.9397 
N2192 X-201.407 Y19.553 Z4.054 A258.5329 
N2193 X-201.402 Y19.832 Z4.114 A262.2372 
N2194 X-201.397 Y20.076 Z4.177 A265.5326 
N2195 X-201.394 Y20.313 Z4.247 A268.7930 
N2196 X-201.390 Y20.555 Z4.330 A272.1994 
N2197 X-201.387 Y20.757 Z4.408 A275.0905 
N2198 X-201.385 Y20.963 Z4.498 A278.0945 
N2199 X-201.382 Y21.170 Z4.599 A281.2013 
N2200 X-201.380 Y21.361 Z4.704 A284.1295 
N2201 X-201.379 Y21.544 Z4.814 A287.0083 
N2202 X-201.378 Y21.724 Z4.935 A289.9381 
N2203 X-201.377 Y21.900 Z5.066 A292.9075 
N2204 X-201.377 Y22.068 Z5.205 A295.8611 
N2205 X-201.377 Y22.230 Z5.353 A298.8234 
N2206 X-201.377 Y22.384 Z5.508 A301.7866 
N2207 X-201.378 Y22.530 Z5.672 A304.7499 
N2208 X-201.379 Y22.685 Z5.868 A308.1329 
N2209 X-201.381 Y22.825 Z6.071 A311.4620 
N2210 X-201.383 Y22.950 Z6.277 A314.7136 
N2211 X-201.387 Y23.082 Z6.535 A318.6148 
N2212 X-201.392 Y23.198 Z6.816 A322.6837 
N2213 X-201.397 Y23.293 Z7.117 A326.8903 
N2214 X-201.405 Y23.375 Z7.504 A332.1409 
N2215 X-201.415 Y23.410 Z7.919 A337.6164 
N2216 X-201.427 Y23.385 Z8.362 A343.3426 
N2217 X-201.442 Y23.273 Z8.821 A349.1938 
N2218 X-201.457 Y23.057 Z9.209 A354.1122 
N2219 X-201.472 Y22.746 Z9.476 A357.4703 
N2220 X-201.485 Y22.351 Z9.631 A359.4077 
N2221 X-201.499 Y21.873 Z9.709 A0.3845 
N2222 X-201.513 Y21.304 Z9.743 A0.8106 
N2223 X-201.530 Y20.633 Z9.754 A0.9552 
N2224 X-201.548 Y19.857 Z9.756 A0.9708 
N2225 X-201.569 Y18.974 Z9.756 A0.9451 
N2226 X-201.593 Y17.982 Z9.757 A0.9256 
N2227 X-201.619 Y16.889 Z9.761 
N2228 X-201.648 Y15.702 Z9.765 
N2229 X-201.678 Y14.436 Z9.769 
N2230 X-201.710 Y13.110 Z9.773 A0.9261 
N2231 X-201.743 Y11.744 Z9.778 A0.9272 
N2232 X-201.776 Y10.362 Z9.782 A0.9283 
N2233 X-201.809 Y8.987 Z9.787 A0.9313 
N2234 X-201.841 Y7.641 Z9.792 A0.9369 
N2235 X-201.872 Y6.346 Z9.797 A0.9472 
N2236 X-201.902 Y5.120 Z9.801 A0.9572 
N2237 X-201.929 Y3.976 Z9.805 A0.9659 
N2238 X-201.955 Y2.921 Z9.807 A0.9353 
N2239 X-201.978 Y1.965 Z9.810 A0.9256 
N2240 X-201.999 Y1.096 Z9.815 
N2241 X-202.018 Y0.318 Z9.856 A1.5066 
N2242 X-202.039 Y-0.384 Z10.001 A3.7653 
N2243 X-202.063 Y-1.045 Z10.320 A9.0537 
N2244 X-202.089 Y-1.711 Z10.719 A16.4508 
N2245 X-202.114 Y-2.381 Z11.051 A23.9607 
N2246 X-202.137 Y-3.053 Z11.297 A31.2983 
N2247 X-202.156 Y-3.704 Z11.432 A37.9649 
N2248 X-202.171 Y-4.315 Z11.451 A43.6894 
N2249 X-202.182 Y-4.872 Z11.364 A48.3891 
N2250 X-202.188 Y-5.359 Z11.175 A51.8397 
N2251 X-202.191 Y-5.764 Z10.894 A53.9017 
N2252 X-202.190 Y-6.108 Z10.546 A54.8785 
N2253 X-202.187 Y-6.422 Z10.158 A55.2487 
N2254 X-202.184 Y-6.727 Z9.747 A55.3597 
N2255 X-202.180 Y-7.032 Z9.324 A55.3736 
N2256 X-202.176 Y-7.338 Z8.896 A55.3439 
N2257 X-202.172 Y-7.644 Z8.468 A55.3105 
N2258 X-202.169 Y-7.949 Z8.046 
N2259 X-202.165 Y-8.254 Z7.630 A55.3703 
N2260 X-202.163 Y-8.566 Z7.244 A55.7823 
N2261 X-202.161 Y-8.886 Z6.890 A56.6301 
N2262 X-202.161 Y-9.218 Z6.573 A58.0362 
N2263 X-202.162 Y-9.562 Z6.292 A60.0367 
N2264 X-202.164 Y-9.918 Z6.044 A62.6544 
N2265 X-202.167 Y-10.283 Z5.824 A65.8496 
N2266 X-202.170 Y-10.659 Z5.621 A69.5704 
N2267 X-202.174 Y-11.029 Z5.425 A73.5626 
N2268 X-202.177 Y-11.389 Z5.224 A77.7043 
N2269 X-202.180 Y-11.727 Z5.019 A81.8119 
N2270 X-202.182 Y-12.041 Z4.806 A85.8237 
N2271 X-202.183 Y-12.330 Z4.583 A89.7050 
N2272 X-202.183 Y-12.592 Z4.349 A93.4327 
N2273 X-202.183 Y-12.828 Z4.105 A96.9987 
N2274 X-202.181 Y-13.037 Z3.851 A100.3965 
N2275 X-202.178 Y-13.220 Z3.587 A103.6270 
N2276 X-202.175 Y-13.375 Z3.313 A106.6914 
N2277 X-202.171 Y-13.503 Z3.030 A109.5880 
N2278 X-202.165 Y-13.603 Z2.739 A112.3149 
N2279 X-202.159 Y-13.676 Z2.441 A114.8721 
N2280 X-202.153 Y-13.722 Z2.139 A117.2640 
N2281 X-202.145 Y-13.742 Z1.832 A119.4989 
N2282 X-202.137 Y-13.737 Z1.522 A121.6011 
N2283 X-202.128 Y-13.710 Z1.208 A123.5908 
N2284 X-202.119 Y-13.663 Z0.894 A125.4859 
N2285 X-202.109 Y-13.599 Z0.578 A127.3255 
N2286 X-202.099 Y-13.520 Z0.260 A129.1539 
N2287 X-202.088 Y-13.429 Z-0.060 A130.9949 
N2288 X-202.077 Y-13.328 Z-0.381 A132.8843 
N2289 X-202.066 Y-13.218 Z-0.705 A134.8544 
N2290 X-202.055 Y-13.101 Z-1.031 A136.9272 
N2291 X-202.044 Y-12.977 Z-1.361 A139.1281 
N2292 X-202.032 Y-12.846 Z-1.693 A141.4726 
N2293 X-202.020 Y-12.706 Z-2.030 A143.9798 
N2294 X-202.007 Y-12.557 Z-2.372 A146.6627 
N2295 X-201.994 Y-12.394 Z-2.720 A149.5275 
N2296 X-201.981 Y-12.215 Z-3.074 A152.5929 
N2297 X-201.966 Y-12.015 Z-3.434 A155.8424 
N2298 X-201.951 Y-11.787 Z-3.799 A159.2927 
N2299 X-201.935 Y-11.525 Z-4.168 A162.9201 
N2300 X-201.919 Y-11.224 Z-4.533 A166.6637 
N2301 X-201.901 Y-10.873 Z-4.888 A170.4963 
N2302 X-201.883 Y-10.468 Z-5.223 A174.3093 
N2303 X-201.864 Y-10.005 Z-5.523 A177.9664 
N2304 X-201.845 Y-9.483 Z-5.775 A181.3564 
N2305 X-201.826 Y-8.907 Z-5.967 A184.3273 
N2306 X-201.808 Y-8.278 Z-6.090 A186.7676 
N2307 X-201.790 Y-7.602 Z-6.142 A188.6113 
N2308 X-201.773 Y-6.884 Z-6.129 A189.8945 
N2309 X-201.757 Y-6.124 Z-6.062 A190.6909 
N2310 X-201.741 Y-5.327 Z-5.951 A191.0926 
N2311 X-201.724 Y-4.492 Z-5.811 A191.2281 
N2312 X-201.708 Y-3.623 Z-5.657 A191.2656 
N2313 X-201.690 Y-2.720 Z-5.502 A191.3956 
N2314 X-201.671 Y-1.787 Z-5.357 A191.8021 
N2315 X-201.652 Y-0.826 Z-5.231 A192.6888 
N2316 X-201.631 Y0.163 Z-5.129 A194.2730 
N2317 X-201.609 Y1.178 Z-5.046 A196.7028 
N2318 X-201.586 Y2.219 Z-4.962 A199.9277 
N2319 X-201.564 Y3.279 Z-4.850 A203.7504 
N2320 X-201.542 Y4.346 Z-4.681 A207.8962 
N2321 X-201.524 Y5.404 Z-4.427 A211.9808 
N2322 X-201.508 Y6.430 Z-4.075 A215.6614 
N2323 X-201.497 Y7.406 Z-3.622 A218.6330 
N2324 X-201.489 Y8.317 Z-3.076 A220.6571 
N2325 X-201.485 Y9.165 Z-2.461 A221.7660 
N2326 X-201.483 Y9.964 Z-1.810 A222.2370 
N2327 X-201.482 Y10.728 Z-1.154 A222.3830 
N2328 X-201.481 Y11.463 Z-0.510 A222.4047 
N2329 X-201.480 Y12.166 Z0.109 A222.3873 
N2330 X-201.480 Y12.834 Z0.696 A222.3551 
N2331 X-201.479 Y13.461 Z1.246 A222.3100 
N2332 X-201.478 Y14.044 Z1.752 
N2333 X-201.478 Y14.582 Z2.218 
N2334 X-201.477 Y15.078 Z2.644 A222.3536 
N2335 X-201.475 Y15.535 Z3.006 A222.7709 
N2336 X-201.473 Y15.957 Z3.302 A223.6428 
N2337 X-201.469 Y16.360 Z3.528 A225.2142 
N2338 X-201.464 Y16.759 Z3.681 A227.6804 
N2339 X-201.456 Y17.167 Z3.769 A231.1552 
N2340 X-201.448 Y17.576 Z3.812 A235.3226 
N2341 X-201.439 Y17.969 Z3.841 A239.7155 
N2342 X-201.431 Y18.339 Z3.871 A244.0562 
N2343 X-201.424 Y18.689 Z3.907 A248.3121 
N2344 X-201.417 Y18.996 Z3.946 A252.1618 
N2345 X-201.411 Y19.290 Z3.993 A255.9332 
N2346 X-201.406 Y19.565 Z4.045 A259.5287 
N2347 X-201.402 Y19.824 Z4.105 A262.9755 
N2348 X-201.398 Y20.059 Z4.168 A266.1705 
N2349 X-201.394 Y20.304 Z4.243 A269.5616 
N2350 X-201.391 Y20.512 Z4.317 A272.4822 
N2351 X-201.388 Y20.719 Z4.399 A275.4601 
N2352 X-201.385 Y20.930 Z4.494 A278.5554 
N2353 X-201.383 Y21.124 Z4.591 A281.4635 
N2354 X-201.381 Y21.309 Z4.694 A284.3112 
N2355 X-201.380 Y21.493 Z4.807 A287.2251 
N2356 X-201.379 Y21.675 Z4.931 A290.1950 
N2357 X-201.378 Y21.845 Z5.058 A293.0726 
N2358 X-201.378 Y22.011 Z5.195 A295.9750 
N2359 X-201.378 Y22.170 Z5.341 A298.8976 
N2360 X-201.378 Y22.323 Z5.496 A301.8413 
N2361 X-201.379 Y22.480 Z5.674 A305.0608 
N2362 X-201.380 Y22.626 Z5.860 A308.2583 
N2363 X-201.382 Y22.760 Z6.052 A311.4190 
N2364 X-201.385 Y22.897 Z6.278 A314.9941 
N2365 X-201.388 Y23.031 Z6.541 A318.9598 
N2366 X-201.393 Y23.140 Z6.804 A322.7858 
N2367 X-201.399 Y23.249 Z7.148 A327.6130 
N2368 X-201.407 Y23.325 Z7.511 A332.5427 
N2369 X-201.417 Y23.363 Z7.960 A338.4958 
N2370 X-201.430 Y23.331 Z8.421 A344.4633 
N2371 X-201.445 Y23.208 Z8.873 A350.2465 
N2372 X-201.460 Y22.982 Z9.246 A354.9956 
N2373 X-201.474 Y22.671 Z9.491 A358.1161 
N2374 X-201.487 Y22.270 Z9.629 A359.8651 
N2375 X-201.500 Y21.785 Z9.690 A0.6503 
N2376 X-201.515 Y21.206 Z9.712 A0.9297 
N2377 X-201.531 Y20.529 Z9.717 A0.9952 
N2378 X-201.550 Y19.747 Z9.718 A0.9893 
N2379 X-201.571 Y18.856 Z9.717 A0.9695 
N2380 X-201.595 Y17.858 Z9.719 A0.9632 
N2381 X-201.621 Y16.758 Z9.721 
N2382 X-201.650 Y15.566 Z9.724 
N2383 X-201.681 Y14.297 Z9.728 
N2384 X-201.712 Y12.969 Z9.731 A0.9636 
N2385 X-201.745 Y11.604 Z9.734 A0.9646 
N2386 X-201.778 Y10.225 Z9.738 A0.9659 
N2387 X-201.811 Y8.855 Z9.741 A0.9690 
N2388 X-201.843 Y7.518 Z9.744 A0.9746 
N2389 X-201.874 Y6.233 Z9.748 A0.9847 
N2390 X-201.903 Y5.019 Z9.751 A0.9938 
N2391 X-201.930 Y3.888 Z9.754 A1.0023 
N2392 X-201.955 Y2.849 Z9.754 A0.9693 
N2393 X-201.978 Y1.910 Z9.757 A0.9632 
N2394 X-201.998 Y1.059 Z9.761 
N2395 X-202.017 Y0.300 Z9.805 A1.6000 
N2396 X-202.037 Y-0.382 Z9.950 A3.8775 
N2397 X-202.061 Y-1.018 Z10.257 A8.9756 
N2398 X-202.086 Y-1.658 Z10.647 A16.1432 
N2399 X-202.110 Y-2.297 Z10.978 A23.4536 
N2400 X-202.132 Y-2.936 Z11.233 A30.6336 
N2401 X-202.151 Y-3.560 Z11.389 A37.2626 
N2402 X-202.166 Y-4.146 Z11.436 A42.9964 
N2403 X-202.178 Y-4.686 Z11.385 A47.8026 
N2404 X-202.186 Y-5.166 Z11.242 A51.5717 
N2405 X-202.189 Y-5.576 Z11.014 A54.1354 
N2406 X-202.190 Y-5.924 Z10.717 A55.6348 
N2407 X-202.188 Y-6.231 Z10.374 A56.4097 
N2408 X-202.186 Y-6.517 Z10.000 A56.7523 
N2409 X-202.182 Y-6.793 Z9.607 A56.8580 
N2410 X-202.178 Y-7.065 Z9.205 A56.8431 
N2411 X-202.174 Y-7.337 Z8.801 A56.8103 
N2412 X-202.170 Y-7.610 Z8.401 
N2413 X-202.166 Y-7.887 Z8.009 A56.9253 
N2414 X-202.164 Y-8.172 Z7.642 A57.3661 
N2415 X-202.162 Y-8.468 Z7.303 A58.2380 
N2416 X-202.161 Y-8.779 Z6.997 A59.6482 
N2417 X-202.162 Y-9.103 Z6.722 A61.6249 
N2418 X-202.163 Y-9.438 Z6.477 A64.1518 
N2419 X-202.166 Y-9.784 Z6.256 A67.2152 
N2420 X-202.169 Y-10.140 Z6.048 A70.7768 
N2421 X-202.172 Y-10.498 Z5.848 A74.6673 
N2422 X-202.175 Y-10.844 Z5.648 A78.6929 
N2423 X-202.178 Y-11.178 Z5.439 A82.7938 
N2424 X-202.180 Y-11.492 Z5.220 A86.8624 
N2425 X-202.181 Y-11.782 Z4.991 A90.8111 
N2426 X-202.181 Y-12.044 Z4.750 A94.6053 
N2427 X-202.180 Y-12.279 Z4.498 A98.2341 
N2428 X-202.178 Y-12.485 Z4.234 A101.6876 
N2429 X-202.175 Y-12.663 Z3.960 A104.9606 
N2430 X-202.171 Y-12.812 Z3.675 A108.0487 
N2431 X-202.166 Y-12.930 Z3.381 A110.9471 
N2432 X-202.160 Y-13.019 Z3.079 A113.6556 
N2433 X-202.154 Y-13.078 Z2.771 A116.1711 
N2434 X-202.146 Y-13.107 Z2.458 A118.4938 
N2435 X-202.138 Y-13.108 Z2.143 A120.6357 
